; generated by Slic3r++ 2.2.50 on 2020-06-14 at 17:54:20 UTC

; 

; external perimeters extrusion width = 0.45mm
; perimeters extrusion width = 0.45mm
; infill extrusion width = 0.45mm
; solid infill extrusion width = 0.45mm
; top infill extrusion width = 0.40mm
; first layer extrusion width = 0.42mm

; object:{"name":"1_PSU_Mount","id":"1_PSU_Mount.stl id:0 copy 0","object_center":[100.000000,100.000000,100.000000],"boundingbox_center":[100.000000,12.500000,140.000000],"boundingbox_size":[137.000000,25.000000,0.000000]}

M201 X9000 Y9000 Z500 E10000 ; sets maximum accelerations, mm/sec^2
M203 X500 Y500 Z12 E120 ; sets maximum feedrates, mm/sec
M204 P1500 R1500 T1500 ; sets acceleration (P, T) and retract acceleration (R), mm/sec^2
M205 X10.00 Y10.00 Z0.20 E2.50 ; sets the jerk limits, mm/sec
M205 S0 T0 ; sets the minimum extruding and travel feed rate, mm/sec
M107
M190 S60 ; set bed temperature and wait for it to be reached
M104 S205 ; set temperature
G28 ; home all axes
G1 Z5 F5000 ; lift nozzle
M109 S205 ; set temperature and wait for it to be reached
G21 ; set units to millimeters
G90 ; use absolute coordinates
M82 ; use absolute distances for extrusion
G92 E0
; Filament gcode
G1 Z0.200 F7800.000
G1 E-2.00000 F2400.00000
G1 X25.500 Y27.251 F7800.000
G1 E0.00000 F2400.00000
M204 S1250
G1 F1200.000
G1 X26.138 Y26.665 E0.02715
G1 X26.850 Y26.173 E0.05430
G1 X27.625 Y25.786 E0.08145
G1 X28.781 Y25.433 E0.11935
G1 X29.977 Y25.312 E0.15706
G1 X170.006 Y25.311 E4.54756
G1 X171.203 Y25.430 E4.58527
G1 X172.354 Y25.777 E4.62298
G1 X173.412 Y26.337 E4.66050
G1 X174.346 Y27.094 E4.69821
G1 X175.116 Y28.018 E4.73592
G1 X175.691 Y29.068 E4.77344
G1 X176.052 Y30.208 E4.81096
G1 X176.188 Y31.404 E4.84866
G1 X176.186 Y168.666 E9.15243
G1 X176.098 Y169.552 E9.18035
G1 X175.884 Y170.416 E9.20827
G1 X175.549 Y171.241 E9.23618
G1 X175.101 Y172.004 E9.26391
G1 X174.546 Y172.699 E9.29183
G1 X173.901 Y173.304 E9.31955
G1 X173.171 Y173.814 E9.34747
G1 X172.375 Y174.214 E9.37539
G1 X171.298 Y174.551 E9.41079
G1 X170.176 Y174.686 E9.44620
G1 X155.871 Y174.687 E9.89474
G1 X155.069 Y174.618 E9.91996
G1 X154.289 Y174.447 E9.94500
G1 X153.538 Y174.178 E9.97003
G1 X152.827 Y173.813 E9.99506
G1 X26.503 Y88.606 E14.77266
G1 X25.807 Y88.052 E14.80058
G1 X25.197 Y87.403 E14.82850
G1 X24.687 Y86.673 E14.85642
G1 X24.286 Y85.878 E14.88433
G1 X23.937 Y84.740 E14.92166
G1 X23.812 Y83.550 E14.95918
G1 X23.821 Y31.156 E16.60195
G1 X23.930 Y30.297 E16.62910
G1 X24.159 Y29.456 E16.65644
G1 X24.501 Y28.660 E16.68358
G1 X24.952 Y27.921 E16.71073
G1 X25.462 Y27.298 E16.73600
M204 S1500
; printing object 1_PSU_Mount.stl id:0 copy 0
G92 E0
G1 E-2.00000 F2400.00000
G1 X55.159 Y82.846 F7800.000
G1 E0.00000 F2400.00000
M204 S1250
G1 F1200.000
G1 X54.812 Y83.080 E0.01313
G1 X54.510 Y83.370 E0.02625
G1 X54.261 Y83.707 E0.03938
G1 X54.073 Y84.081 E0.05251
G1 X53.951 Y84.481 E0.06564
G1 X53.898 Y84.897 E0.07877
G1 X53.916 Y85.315 E0.09189
G1 X54.004 Y85.724 E0.10502
G1 X54.161 Y86.113 E0.11815
G1 X54.380 Y86.469 E0.13127
G1 X54.657 Y86.783 E0.14440
G1 X54.951 Y87.020 E0.15624
G1 X97.020 Y115.400 E1.74737
G1 X97.349 Y115.583 E1.75919
G1 X97.743 Y115.722 E1.77229
G1 X98.155 Y115.793 E1.78539
G1 X98.573 Y115.793 E1.79850
G1 X98.985 Y115.722 E1.81160
G1 X99.379 Y115.583 E1.82470
G1 X99.709 Y115.400 E1.83652
G1 X141.778 Y87.020 E3.42765
G1 X142.072 Y86.783 E3.43949
G1 X142.348 Y86.469 E3.45261
G1 X142.568 Y86.113 E3.46574
G1 X142.725 Y85.724 E3.47887
G1 X142.813 Y85.315 E3.49200
G1 X142.831 Y84.897 E3.50512
G1 X142.778 Y84.481 E3.51825
G1 X142.656 Y84.081 E3.53138
G1 X142.467 Y83.707 E3.54451
G1 X142.218 Y83.370 E3.55764
G1 X141.916 Y83.080 E3.57076
G1 X141.569 Y82.846 E3.58389
G1 X141.188 Y82.673 E3.59702
G1 X140.783 Y82.568 E3.61015
G1 X140.407 Y82.536 E3.62198
G1 X56.322 Y82.536 E6.25839
G1 X55.946 Y82.568 E6.27023
G1 X55.541 Y82.673 E6.28336
G1 X55.214 Y82.821 E6.29460
M204 S1500
G1 X55.369 Y83.165 F7800.000
M204 S1250
G1 F1200.000
G1 X55.050 Y83.375 E6.30658
G1 X54.794 Y83.620 E6.31769
G1 X54.584 Y83.905 E6.32881
G1 X54.424 Y84.222 E6.33992
G1 X54.321 Y84.561 E6.35104
G1 X54.276 Y84.912 E6.36215
G1 X54.291 Y85.267 E6.37327
G1 X54.366 Y85.613 E6.38438
G1 X54.498 Y85.942 E6.39550
G1 X54.684 Y86.244 E6.40661
G1 X54.919 Y86.509 E6.41772
G1 X55.175 Y86.716 E6.42805
G1 X97.218 Y115.078 E8.01818
G1 X97.505 Y115.238 E8.02849
G1 X97.839 Y115.356 E8.03958
G1 X98.187 Y115.416 E8.05068
G1 X98.541 Y115.416 E8.06177
G1 X98.890 Y115.356 E8.07286
G1 X99.224 Y115.238 E8.08396
G1 X99.511 Y115.078 E8.09427
G1 X141.553 Y86.716 E9.68439
G1 X141.810 Y86.510 E9.69472
G1 X142.044 Y86.244 E9.70584
G1 X142.230 Y85.942 E9.71695
G1 X142.363 Y85.613 E9.72806
G1 X142.438 Y85.267 E9.73918
G1 X142.453 Y84.912 E9.75029
G1 X142.408 Y84.561 E9.76141
G1 X142.304 Y84.222 E9.77252
G1 X142.145 Y83.905 E9.78364
G1 X141.934 Y83.620 E9.79475
G1 X141.678 Y83.375 E9.80586
G1 X141.385 Y83.176 E9.81698
G1 X141.062 Y83.030 E9.82809
G1 X140.719 Y82.941 E9.83921
G1 X140.391 Y82.913 E9.84954
G1 X56.338 Y82.913 E12.48494
G1 X56.010 Y82.941 E12.49527
G1 X55.667 Y83.030 E12.50638
G1 X55.424 Y83.140 E12.51474
M204 S1500
G1 X55.793 Y83.387 F7800.000
M204 S1250
G1 F1200.000
G1 X55.529 Y83.507 E12.52384
G1 X55.288 Y83.669 E12.53294
G1 X55.079 Y83.870 E12.54204
G1 X54.906 Y84.104 E12.55114
G1 X54.775 Y84.363 E12.56025
G1 X54.691 Y84.640 E12.56935
G1 X54.654 Y84.928 E12.57845
G1 X54.666 Y85.218 E12.58755
G1 X54.728 Y85.502 E12.59665
G1 X54.836 Y85.771 E12.60575
G1 X54.988 Y86.018 E12.61485
G1 X55.180 Y86.236 E12.62395
G1 X55.399 Y86.413 E12.63277
G1 X97.415 Y114.757 E14.22189
G1 X97.661 Y114.893 E14.23070
G1 X97.934 Y114.990 E14.23978
G1 X98.219 Y115.039 E14.24887
G1 X98.509 Y115.039 E14.25795
G1 X98.795 Y114.990 E14.26704
G1 X99.068 Y114.893 E14.27612
G1 X99.313 Y114.757 E14.28492
G1 X141.329 Y86.413 E15.87404
G1 X141.548 Y86.236 E15.88286
G1 X141.740 Y86.018 E15.89197
G1 X141.893 Y85.771 E15.90107
G1 X142.001 Y85.502 E15.91017
G1 X142.062 Y85.218 E15.91927
G1 X142.075 Y84.928 E15.92837
G1 X142.038 Y84.640 E15.93747
G1 X141.953 Y84.363 E15.94657
G1 X141.823 Y84.104 E15.95567
G1 X141.650 Y83.870 E15.96477
G1 X141.441 Y83.669 E15.97387
G1 X141.200 Y83.507 E15.98298
G1 X140.936 Y83.387 E15.99208
G1 X140.655 Y83.314 E16.00118
G1 X140.374 Y83.290 E16.01000
G1 X56.354 Y83.290 E18.64439
G1 X56.074 Y83.314 E18.65322
G1 X55.851 Y83.372 E18.66044
M204 S1500
G1 X55.567 Y83.205 F7800.000
G92 E0
G1 E-2.00000 F2400.00000
G1 X39.554 Y77.430 F7800.000
G1 E0.00000 F2400.00000
M204 S1250
G1 F900.000
G1 X39.677 Y76.972 E0.01485
G1 X39.718 Y76.500 E0.02971
G1 X39.677 Y76.028 E0.04456
G1 X39.554 Y75.570 E0.05942
G1 X39.354 Y75.141 E0.07427
G1 X39.082 Y74.753 E0.08913
G1 X38.747 Y74.418 E0.10398
G1 X38.359 Y74.146 E0.11883
G1 X37.930 Y73.946 E0.13369
G1 X37.472 Y73.823 E0.14854
G1 X37.000 Y73.782 E0.16340
G1 X36.528 Y73.823 E0.17825
G1 X36.070 Y73.946 E0.19310
G1 X35.641 Y74.146 E0.20796
G1 X35.253 Y74.418 E0.22281
G1 X34.918 Y74.753 E0.23767
G1 X34.646 Y75.141 E0.25252
G1 X34.446 Y75.570 E0.26737
G1 X34.323 Y76.028 E0.28223
G1 X34.282 Y76.500 E0.29708
G1 X34.323 Y76.972 E0.31194
G1 X34.446 Y77.430 E0.32679
G1 X34.646 Y77.859 E0.34165
G1 X34.918 Y78.247 E0.35650
G1 X35.253 Y78.582 E0.37135
G1 X35.641 Y78.854 E0.38621
G1 X36.070 Y79.054 E0.40106
G1 X36.528 Y79.177 E0.41592
G1 X37.000 Y79.218 E0.43077
G1 X37.472 Y79.177 E0.44562
G1 X37.930 Y79.054 E0.46048
G1 X38.359 Y78.854 E0.47533
G1 X38.747 Y78.582 E0.49019
G1 X39.082 Y78.247 E0.50504
G1 X39.354 Y77.859 E0.51990
G1 X39.529 Y77.484 E0.53287
M204 S1500
G1 X39.187 Y77.325 F7800.000
M204 S1250
G1 F900.000
G1 X39.304 Y76.906 E0.54649
G1 X39.339 Y76.500 E0.55927
G1 X39.304 Y76.094 E0.57206
G1 X39.198 Y75.700 E0.58484
G1 X39.026 Y75.330 E0.59763
G1 X38.792 Y74.996 E0.61042
G1 X38.504 Y74.708 E0.62320
G1 X38.170 Y74.474 E0.63599
G1 X37.800 Y74.302 E0.64877
G1 X37.406 Y74.196 E0.66156
G1 X37.000 Y74.161 E0.67434
G1 X36.594 Y74.196 E0.68713
G1 X36.200 Y74.302 E0.69991
G1 X35.830 Y74.474 E0.71270
G1 X35.496 Y74.708 E0.72548
G1 X35.208 Y74.996 E0.73827
G1 X34.974 Y75.330 E0.75105
G1 X34.802 Y75.700 E0.76384
G1 X34.696 Y76.094 E0.77662
G1 X34.661 Y76.500 E0.78941
G1 X34.696 Y76.906 E0.80220
G1 X34.802 Y77.300 E0.81498
G1 X34.974 Y77.670 E0.82777
G1 X35.208 Y78.004 E0.84055
G1 X35.496 Y78.292 E0.85334
G1 X35.830 Y78.526 E0.86612
G1 X36.200 Y78.698 E0.87891
G1 X36.594 Y78.804 E0.89169
G1 X37.000 Y78.839 E0.90448
G1 X37.406 Y78.804 E0.91726
G1 X37.800 Y78.698 E0.93005
G1 X38.170 Y78.526 E0.94283
G1 X38.504 Y78.292 E0.95562
G1 X38.792 Y78.004 E0.96840
G1 X39.026 Y77.670 E0.98119
G1 X39.161 Y77.379 E0.99125
M204 S1500
G1 X38.843 Y77.171 F7800.000
M204 S1250
G1 F900.000
G1 X38.931 Y76.840 E1.00196
G1 X38.961 Y76.500 E1.01268
G1 X38.931 Y76.160 E1.02340
G1 X38.843 Y75.829 E1.03411
G1 X38.698 Y75.520 E1.04483
G1 X38.502 Y75.240 E1.05555
G1 X38.260 Y74.998 E1.06626
G1 X37.980 Y74.802 E1.07698
G1 X37.671 Y74.657 E1.08770
G1 X37.340 Y74.569 E1.09841
G1 X37.000 Y74.539 E1.10913
G1 X36.660 Y74.569 E1.11985
G1 X36.329 Y74.657 E1.13056
G1 X36.020 Y74.802 E1.14128
G1 X35.740 Y74.998 E1.15200
G1 X35.498 Y75.240 E1.16271
G1 X35.302 Y75.520 E1.17343
G1 X35.157 Y75.829 E1.18415
G1 X35.069 Y76.160 E1.19486
G1 X35.039 Y76.500 E1.20558
G1 X35.069 Y76.840 E1.21630
G1 X35.157 Y77.171 E1.22701
G1 X35.302 Y77.480 E1.23773
G1 X35.498 Y77.760 E1.24845
G1 X35.740 Y78.002 E1.25916
G1 X36.020 Y78.198 E1.26988
G1 X36.329 Y78.343 E1.28060
G1 X36.660 Y78.431 E1.29131
G1 X37.000 Y78.461 E1.30203
G1 X37.340 Y78.431 E1.31275
G1 X37.671 Y78.343 E1.32346
G1 X37.980 Y78.198 E1.33418
G1 X38.260 Y78.002 E1.34490
G1 X38.502 Y77.760 E1.35561
G1 X38.698 Y77.480 E1.36633
G1 X38.817 Y77.225 E1.37516
M204 S1500
G1 X39.177 Y77.102 F7800.000
G92 E0
G1 E-2.00000 F2400.00000
G1 X40.000 Y45.217 F7800.000
G1 E0.00000 F2400.00000
M204 S1250
G1 F900.000
G1 X40.612 Y45.167 E0.01925
G1 X41.207 Y45.016 E0.03850
G1 X41.769 Y44.769 E0.05775
G1 X42.283 Y44.434 E0.07700
G1 X42.735 Y44.018 E0.09625
G1 X43.112 Y43.533 E0.11550
G1 X43.404 Y42.993 E0.13475
G1 X43.604 Y42.413 E0.15401
G1 X43.705 Y41.807 E0.17326
G1 X43.705 Y41.193 E0.19251
G1 X43.604 Y40.587 E0.21176
G1 X43.404 Y40.007 E0.23101
G1 X43.112 Y39.467 E0.25026
G1 X42.735 Y38.982 E0.26951
G1 X42.283 Y38.566 E0.28876
G1 X41.769 Y38.231 E0.30801
G1 X41.207 Y37.984 E0.32726
G1 X40.612 Y37.833 E0.34651
G1 X40.000 Y37.783 E0.36576
G1 X39.388 Y37.833 E0.38501
G1 X38.793 Y37.984 E0.40426
G1 X38.231 Y38.231 E0.42351
G1 X37.717 Y38.566 E0.44276
G1 X37.265 Y38.982 E0.46202
G1 X36.888 Y39.467 E0.48127
G1 X36.596 Y40.007 E0.50052
G1 X36.396 Y40.587 E0.51977
G1 X36.295 Y41.193 E0.53902
G1 X36.295 Y41.807 E0.55827
G1 X36.396 Y42.413 E0.57752
G1 X36.596 Y42.993 E0.59677
G1 X36.888 Y43.533 E0.61602
G1 X37.265 Y44.018 E0.63527
G1 X37.717 Y44.434 E0.65452
G1 X38.231 Y44.769 E0.67377
G1 X38.793 Y45.016 E0.69302
G1 X39.388 Y45.167 E0.71227
G1 X39.940 Y45.213 E0.72964
M204 S1500
G1 X39.971 Y44.837 F7800.000
M204 S1250
G1 F900.000
G1 X40.550 Y44.794 E0.74782
G1 X41.084 Y44.658 E0.76511
G1 X41.589 Y44.437 E0.78241
G1 X42.051 Y44.135 E0.79970
G1 X42.457 Y43.761 E0.81699
G1 X42.795 Y43.326 E0.83428
G1 X43.058 Y42.841 E0.85157
G1 X43.237 Y42.320 E0.86886
G1 X43.328 Y41.776 E0.88615
G1 X43.328 Y41.224 E0.90344
G1 X43.237 Y40.680 E0.92074
G1 X43.058 Y40.159 E0.93803
G1 X42.795 Y39.674 E0.95532
G1 X42.457 Y39.239 E0.97261
G1 X42.051 Y38.865 E0.98990
G1 X41.589 Y38.563 E1.00719
G1 X41.084 Y38.342 E1.02448
G1 X40.550 Y38.206 E1.04177
G1 X40.000 Y38.161 E1.05907
G1 X39.450 Y38.206 E1.07636
G1 X38.916 Y38.342 E1.09365
G1 X38.411 Y38.563 E1.11094
G1 X37.949 Y38.865 E1.12823
G1 X37.543 Y39.239 E1.14552
G1 X37.205 Y39.674 E1.16281
G1 X36.942 Y40.159 E1.18010
G1 X36.763 Y40.680 E1.19740
G1 X36.672 Y41.224 E1.21469
G1 X36.672 Y41.776 E1.23198
G1 X36.763 Y42.320 E1.24927
G1 X36.942 Y42.841 E1.26656
G1 X37.205 Y43.326 E1.28385
G1 X37.543 Y43.761 E1.30114
G1 X37.949 Y44.135 E1.31843
G1 X38.411 Y44.437 E1.33573
G1 X38.916 Y44.658 E1.35302
G1 X39.450 Y44.794 E1.37031
G1 X39.912 Y44.832 E1.38482
M204 S1500
G1 X39.943 Y44.456 F7800.000
M204 S1250
G1 F900.000
G1 X40.487 Y44.420 E1.40193
G1 X40.961 Y44.300 E1.41726
G1 X41.409 Y44.104 E1.43259
G1 X41.819 Y43.836 E1.44792
G1 X42.178 Y43.505 E1.46326
G1 X42.479 Y43.119 E1.47859
G1 X42.711 Y42.689 E1.49392
G1 X42.870 Y42.227 E1.50925
G1 X42.951 Y41.744 E1.52458
G1 X42.951 Y41.256 E1.53992
G1 X42.870 Y40.773 E1.55525
G1 X42.711 Y40.311 E1.57058
G1 X42.479 Y39.881 E1.58591
G1 X42.178 Y39.495 E1.60124
G1 X41.819 Y39.164 E1.61658
G1 X41.409 Y38.896 E1.63191
G1 X40.961 Y38.700 E1.64724
G1 X40.487 Y38.580 E1.66257
G1 X40.000 Y38.539 E1.67790
G1 X39.513 Y38.580 E1.69323
G1 X39.039 Y38.700 E1.70857
G1 X38.591 Y38.896 E1.72390
G1 X38.181 Y39.164 E1.73923
G1 X37.822 Y39.495 E1.75456
G1 X37.521 Y39.881 E1.76989
G1 X37.289 Y40.311 E1.78523
G1 X37.130 Y40.773 E1.80056
G1 X37.049 Y41.256 E1.81589
G1 X37.049 Y41.744 E1.83122
G1 X37.130 Y42.227 E1.84655
G1 X37.289 Y42.689 E1.86189
G1 X37.521 Y43.119 E1.87722
G1 X37.822 Y43.505 E1.89255
G1 X38.181 Y43.836 E1.90788
G1 X38.591 Y44.104 E1.92321
G1 X39.039 Y44.300 E1.93854
G1 X39.513 Y44.420 E1.95388
G1 X39.883 Y44.451 E1.96552
M204 S1500
G1 X40.148 Y44.799 F7800.000
G92 E0
G1 E-2.00000 F2400.00000
G1 X96.295 Y41.807 F7800.000
G1 E0.00000 F2400.00000
M204 S1250
G1 F900.000
G1 X96.396 Y42.413 E0.01925
G1 X96.596 Y42.993 E0.03850
G1 X96.888 Y43.533 E0.05775
G1 X97.265 Y44.018 E0.07700
G1 X97.717 Y44.434 E0.09625
G1 X98.231 Y44.769 E0.11550
G1 X98.793 Y45.016 E0.13475
G1 X99.388 Y45.167 E0.15400
G1 X100.000 Y45.217 E0.17326
G1 X100.612 Y45.167 E0.19251
G1 X101.207 Y45.016 E0.21176
G1 X101.769 Y44.769 E0.23101
G1 X102.283 Y44.434 E0.25026
G1 X102.735 Y44.018 E0.26951
G1 X103.112 Y43.533 E0.28876
G1 X103.404 Y42.993 E0.30801
G1 X103.604 Y42.413 E0.32726
G1 X103.705 Y41.807 E0.34651
G1 X103.705 Y41.193 E0.36576
G1 X103.604 Y40.587 E0.38501
G1 X103.404 Y40.007 E0.40426
G1 X103.112 Y39.467 E0.42351
G1 X102.735 Y38.982 E0.44276
G1 X102.283 Y38.566 E0.46201
G1 X101.769 Y38.231 E0.48127
G1 X101.207 Y37.984 E0.50052
G1 X100.612 Y37.833 E0.51977
G1 X100.000 Y37.783 E0.53902
G1 X99.388 Y37.833 E0.55827
G1 X98.793 Y37.984 E0.57752
G1 X98.231 Y38.231 E0.59677
G1 X97.717 Y38.566 E0.61602
G1 X97.265 Y38.982 E0.63527
G1 X96.888 Y39.467 E0.65452
G1 X96.596 Y40.007 E0.67377
G1 X96.396 Y40.587 E0.69302
G1 X96.295 Y41.193 E0.71227
G1 X96.295 Y41.747 E0.72964
M204 S1500
G1 X96.672 Y41.747 F7800.000
M204 S1250
G1 F900.000
G1 X96.763 Y42.320 E0.74782
G1 X96.942 Y42.841 E0.76511
G1 X97.205 Y43.326 E0.78241
G1 X97.543 Y43.761 E0.79970
G1 X97.949 Y44.135 E0.81699
G1 X98.411 Y44.437 E0.83428
G1 X98.916 Y44.658 E0.85157
G1 X99.450 Y44.794 E0.86886
G1 X100.000 Y44.839 E0.88615
G1 X100.550 Y44.794 E0.90344
G1 X101.084 Y44.658 E0.92074
G1 X101.589 Y44.437 E0.93803
G1 X102.051 Y44.135 E0.95532
G1 X102.457 Y43.761 E0.97261
G1 X102.795 Y43.326 E0.98990
G1 X103.058 Y42.841 E1.00719
G1 X103.237 Y42.320 E1.02448
G1 X103.328 Y41.776 E1.04177
G1 X103.328 Y41.224 E1.05907
G1 X103.237 Y40.680 E1.07636
G1 X103.058 Y40.159 E1.09365
G1 X102.795 Y39.674 E1.11094
G1 X102.457 Y39.239 E1.12823
G1 X102.051 Y38.865 E1.14552
G1 X101.589 Y38.563 E1.16281
G1 X101.084 Y38.342 E1.18010
G1 X100.550 Y38.206 E1.19740
G1 X100.000 Y38.161 E1.21469
G1 X99.450 Y38.206 E1.23198
G1 X98.916 Y38.342 E1.24927
G1 X98.411 Y38.563 E1.26656
G1 X97.949 Y38.865 E1.28385
G1 X97.543 Y39.239 E1.30114
G1 X97.205 Y39.674 E1.31843
G1 X96.942 Y40.159 E1.33573
G1 X96.763 Y40.680 E1.35302
G1 X96.672 Y41.224 E1.37031
G1 X96.672 Y41.687 E1.38482
M204 S1500
G1 X97.049 Y41.687 F7800.000
M204 S1250
G1 F900.000
G1 X97.130 Y42.227 E1.40193
G1 X97.289 Y42.689 E1.41726
G1 X97.521 Y43.119 E1.43259
G1 X97.822 Y43.505 E1.44793
G1 X98.181 Y43.836 E1.46326
G1 X98.591 Y44.104 E1.47859
G1 X99.039 Y44.300 E1.49392
G1 X99.513 Y44.420 E1.50925
G1 X100.000 Y44.461 E1.52458
G1 X100.487 Y44.420 E1.53992
G1 X100.961 Y44.300 E1.55525
G1 X101.409 Y44.104 E1.57058
G1 X101.819 Y43.836 E1.58591
G1 X102.178 Y43.505 E1.60124
G1 X102.479 Y43.119 E1.61658
