; generated by Slic3r++ 2.2.47 on 2020-05-04 at 15:42:40 UTC

; 

; external perimeters extrusion width = 0.45mm
; perimeters extrusion width = 0.45mm
; infill extrusion width = 0.45mm
; solid infill extrusion width = 0.45mm
; top infill extrusion width = 0.40mm
; first layer extrusion width = 0.42mm

; object:{"name":"1_Y_Belt_Block","id":"1_Y_Belt_Block.stl id:0 copy 0","object_center":[102.126887,92.057432,102.126887],"boundingbox_center":[92.057432,10.000000,50.000000],"boundingbox_size":[15.000000,20.000000,0.000000]}
; object:{"name":"1_Y_Belt_Block","id":"1_Y_Belt_Block.stl id:1 copy 0","object_center":[103.934109,121.073591,103.934109],"boundingbox_center":[121.073591,10.000000,50.000000],"boundingbox_size":[15.000000,20.000000,0.000000]}

M201 X9000 Y9000 Z500 E10000 ; sets maximum accelerations, mm/sec^2
M203 X500 Y500 Z12 E120 ; sets maximum feedrates, mm/sec
M204 P1500 R1500 T1500 ; sets acceleration (P, T) and retract acceleration (R), mm/sec^2
M205 X10.00 Y10.00 Z0.20 E2.50 ; sets the jerk limits, mm/sec
M205 S0 T0 ; sets the minimum extruding and travel feed rate, mm/sec
M107
M104 S200 ; set temperature
G28 ; home all axes
G1 Z5 F5000 ; lift nozzle
M109 S200 ; set temperature and wait for it to be reached
G21 ; set units to millimeters
G90 ; use absolute coordinates
M82 ; use absolute distances for extrusion
G92 E0
; Filament gcode
G1 Z0.300 F7800.000
G1 E-2.00000 F2400.00000
G1 X73.535 Y89.275 F7800.000
G1 E0.00000 F2400.00000
G1 F1800.000
G1 X87.840 Y79.702 E0.76347
G1 X88.812 Y79.162 E0.81281
G1 X90.049 Y78.661 E0.87199
G1 X91.520 Y78.301 E0.93918
G1 X92.978 Y78.171 E1.00409
G1 X111.130 Y78.170 E1.80922
G1 X112.603 Y78.281 E1.87473
G1 X113.965 Y78.587 E1.93667
G1 X115.092 Y79.001 E1.98992
G1 X116.371 Y79.676 E2.05406
G1 X130.940 Y89.433 E2.83178
G1 X131.577 Y89.974 E2.86887
G1 X132.137 Y90.595 E2.90595
G1 X132.615 Y91.289 E2.94331
G1 X132.995 Y92.033 E2.98040
G1 X133.332 Y93.039 E3.02743
G1 X133.497 Y94.086 E3.07445
G1 X135.318 Y123.364 E4.37557
G1 X135.279 Y129.309 E4.63927
G1 X134.952 Y130.717 E4.70338
G1 X134.316 Y132.015 E4.76750
G1 X133.337 Y133.202 E4.83574
G1 X132.097 Y134.123 E4.90426
G1 X130.672 Y134.720 E4.97277
G1 X129.146 Y134.958 E5.04129
G1 X78.815 Y134.960 E7.27370
G1 X77.939 Y134.883 E7.31272
G1 X77.082 Y134.687 E7.35174
G1 X76.259 Y134.374 E7.39076
G1 X75.493 Y133.955 E7.42950
G1 X74.362 Y133.035 E7.49416
G1 X73.470 Y131.882 E7.55883
G1 X72.862 Y130.557 E7.62350
G1 X72.570 Y129.128 E7.68816
G1 X70.741 Y99.693 E8.99631
G1 X70.782 Y93.816 E9.25696
G1 X71.109 Y92.414 E9.32080
G1 X71.745 Y91.116 E9.38492
G1 X72.547 Y90.105 E9.44215
G1 X73.489 Y89.314 E9.49672
; printing object 1_Y_Belt_Block.stl id:0 copy 0
G92 E0
G1 E-2.00000 F2400.00000
G1 X91.542 Y86.347 F7800.000
G1 E0.00000 F2400.00000
G1 F900.000
G1 X91.542 Y92.767 E0.28476
G1 X97.962 Y92.767 E0.56952
G1 X97.962 Y86.347 E0.85427
G1 X91.602 Y86.347 E1.13637
G1 X91.156 Y86.244 F7800.000
G92 E0
G1 E-2.00000 F2400.00000
G1 X106.292 Y86.347 F7800.000
G1 E0.00000 F2400.00000
G1 F900.000
G1 X106.292 Y92.767 E0.28476
G1 X112.712 Y92.767 E0.56952
G1 X112.712 Y86.347 E0.85427
G1 X106.352 Y86.347 E1.13637
G1 X105.906 Y86.244 F7800.000
G92 E0
G1 E-2.00000 F2400.00000
G1 X104.106 Y88.157 F7800.000
G1 E0.00000 F2400.00000
G1 F900.000
G1 X103.756 Y87.761 E0.02347
G1 X103.481 Y87.546 E0.03893
G1 X102.988 Y87.287 E0.06364
G1 X102.420 Y87.147 E0.08960
G1 X101.834 Y87.147 E0.11556
G1 X101.266 Y87.287 E0.14153
G1 X100.773 Y87.546 E0.16624
G1 X100.498 Y87.761 E0.18170
G1 X100.147 Y88.157 E0.20517
G1 X99.967 Y88.455 E0.22063
G1 X99.779 Y88.950 E0.24409
G1 X99.717 Y89.293 E0.25955
G1 X99.717 Y89.822 E0.28302
G1 X99.779 Y90.165 E0.29848
G1 X99.967 Y90.659 E0.32194
G1 X100.147 Y90.958 E0.33740
G1 X100.517 Y91.375 E0.36212
G1 X100.999 Y91.707 E0.38808
G1 X101.520 Y91.905 E0.41279
G1 X101.862 Y91.968 E0.42825
G1 X102.420 Y91.968 E0.45297
G1 X102.988 Y91.828 E0.47893
G1 X103.481 Y91.569 E0.50364
G1 X103.756 Y91.354 E0.51910
G1 X104.125 Y90.937 E0.54382
G1 X104.384 Y90.443 E0.56853
G1 X104.479 Y90.137 E0.58275
G1 X104.537 Y89.822 E0.59697
G1 X104.537 Y89.265 E0.62168
G1 X104.404 Y88.724 E0.64640
G1 X104.272 Y88.431 E0.66062
G1 X104.137 Y88.208 E0.67217
G1 X103.833 Y88.392 F7800.000
G1 F900.000
G1 X103.511 Y88.021 E0.69398
G1 X103.287 Y87.846 E0.70658
G1 X102.861 Y87.622 E0.72794
G1 X102.376 Y87.503 E0.75007
G1 X101.877 Y87.503 E0.77220
G1 X101.393 Y87.622 E0.79434
G1 X100.966 Y87.846 E0.81570
G1 X100.743 Y88.021 E0.82829
G1 X100.435 Y88.369 E0.84889
G1 X100.288 Y88.612 E0.86149
G1 X100.123 Y89.046 E0.88209
G1 X100.072 Y89.325 E0.89468
G1 X100.072 Y89.790 E0.91528
G1 X100.123 Y90.069 E0.92787
G1 X100.288 Y90.503 E0.94847
G1 X100.435 Y90.746 E0.96106
G1 X100.754 Y91.107 E0.98243
G1 X101.165 Y91.390 E1.00456
G1 X101.615 Y91.561 E1.02593
G1 X101.895 Y91.612 E1.03852
G1 X102.376 Y91.612 E1.05989
G1 X102.861 Y91.493 E1.08202
G1 X103.287 Y91.269 E1.10338
G1 X103.511 Y91.094 E1.11598
G1 X103.830 Y90.733 E1.13734
G1 X104.054 Y90.307 E1.15871
G1 X104.133 Y90.052 E1.17054
G1 X104.182 Y89.790 E1.18237
G1 X104.182 Y89.308 E1.20373
G1 X104.066 Y88.840 E1.22510
G1 X103.957 Y88.597 E1.23693
G1 X103.864 Y88.444 E1.24487
G1 X103.560 Y88.628 F7800.000
G1 F900.000
G1 X103.266 Y88.281 E1.26503
G1 X103.093 Y88.146 E1.27475
G1 X102.734 Y87.957 E1.29277
G1 X102.333 Y87.858 E1.31107
G1 X101.921 Y87.858 E1.32937
G1 X101.520 Y87.957 E1.34767
G1 X101.160 Y88.146 E1.36569
G1 X100.988 Y88.281 E1.37542
G1 X100.723 Y88.580 E1.39315
G1 X100.609 Y88.768 E1.40288
G1 X100.467 Y89.142 E1.42061
G1 X100.428 Y89.358 E1.43033
G1 X100.428 Y89.757 E1.44807
G1 X100.467 Y89.973 E1.45779
G1 X100.609 Y90.347 E1.47553
G1 X100.723 Y90.535 E1.48525
G1 X100.992 Y90.839 E1.50327
G1 X101.331 Y91.073 E1.52157
G1 X101.711 Y91.217 E1.53959
G1 X101.927 Y91.256 E1.54931
G1 X102.333 Y91.256 E1.56733
G1 X102.734 Y91.158 E1.58563
G1 X103.093 Y90.969 E1.60365
G1 X103.266 Y90.834 E1.61337
G1 X103.535 Y90.530 E1.63139
G1 X103.724 Y90.170 E1.64941
G1 X103.788 Y89.967 E1.65885
G1 X103.826 Y89.757 E1.66830
G1 X103.826 Y89.351 E1.68631
G1 X103.729 Y88.957 E1.70433
G1 X103.591 Y88.679 E1.71808
G1 X103.738 Y88.270 F7800.000
G92 E0
G1 E-2.00000 F2400.00000
G1 X105.581 Y93.479 F7800.000
G1 E0.00000 F2400.00000
G1 F1800.000
G1 X113.706 Y93.479 E0.36038
G1 X113.706 Y95.479 E0.44909
G1 X126.206 Y95.479 E1.00353
G1 X126.206 Y98.636 E1.14358
G1 X78.048 Y98.636 E3.27960
G1 X78.048 Y95.479 E3.41965
G1 X90.548 Y95.479 E3.97408
G1 X90.548 Y93.479 E4.06279
G1 X98.673 Y93.479 E4.42318
G1 X98.673 Y85.479 E4.77801
G1 X105.581 Y85.479 E5.08440
G1 X105.581 Y93.419 E5.43657
G1 X105.936 Y93.123 F7800.000
G1 F1800.000
G1 X113.068 Y93.123 E5.75288
G1 X113.068 Y85.829 E6.07641
G1 X113.497 Y86.331 E6.10573
G1 X113.738 Y86.723 E6.12615
G1 X113.915 Y87.148 E6.14657
G1 X114.023 Y87.596 E6.16698
G1 X114.061 Y88.080 E6.18852
G1 X114.061 Y95.123 E6.50092
G1 X126.561 Y95.123 E7.05535
G1 X126.561 Y98.992 E7.22695
G1 X77.693 Y98.992 E9.39452
G1 X77.693 Y95.123 E9.56611
G1 X90.192 Y95.123 E10.12055
G1 X90.202 Y87.835 E10.44379
G1 X90.276 Y87.366 E10.46485
G1 X90.335 Y87.158 E10.47444
G1 X90.520 Y86.713 E10.49583
G1 X90.622 Y86.531 E10.50508
G1 X90.953 Y86.075 E10.53007
G1 X91.186 Y86.151 E10.54095
G1 X91.186 Y93.123 E10.85018
G1 X98.318 Y93.123 E11.16649
G1 X98.318 Y85.992 E11.48279
G1 X91.043 Y85.992 E11.80544
G1 X91.408 Y85.680 E11.82673
G1 X91.588 Y85.560 E11.83633
G1 X92.001 Y85.350 E11.85688
G1 X92.447 Y85.205 E11.87767
G1 X92.905 Y85.132 E11.89822
G1 X93.138 Y85.123 E11.90859
G1 X111.108 Y85.123 E12.70561
G1 X111.588 Y85.161 E12.72701
G1 X112.036 Y85.269 E12.74743
G1 X112.461 Y85.446 E12.76785
G1 X112.949 Y85.746 E12.79326
G1 X112.880 Y85.992 E12.80460
G1 X105.936 Y85.992 E13.11258
G1 X105.936 Y93.063 E13.42622
G92 E0
G1 E-2.00000 F2400.00000
G1 X114.417 Y94.767 F7800.000
G1 E0.00000 F2400.00000
G1 F1800.000
G1 X126.917 Y94.767 E0.55444
G1 X126.917 Y99.347 E0.75758
G1 X77.337 Y99.347 E2.95669
G1 X77.337 Y94.767 E3.15984
G1 X89.837 Y94.767 E3.71427
G1 X89.837 Y88.059 E4.01184
G1 X89.847 Y87.800 E4.02331
G1 X89.928 Y87.290 E4.04621
G1 X89.998 Y87.042 E4.05767
G1 X90.199 Y86.557 E4.08094
G1 X90.322 Y86.339 E4.09204
G1 X90.625 Y85.921 E4.11494
G1 X90.801 Y85.731 E4.12641
G1 X91.193 Y85.396 E4.14931
G1 X91.408 Y85.252 E4.16078
G1 X91.865 Y85.020 E4.18349
G1 X92.364 Y84.858 E4.20676
G1 X92.870 Y84.778 E4.22949
G1 X111.122 Y84.767 E5.03905
G1 X111.645 Y84.809 E5.06231
G1 X112.147 Y84.930 E5.08521
G1 X112.623 Y85.128 E5.10812
G1 X113.063 Y85.399 E5.13102
G1 X113.450 Y85.729 E5.15357
G1 X113.786 Y86.121 E5.17648
G1 X114.056 Y86.561 E5.19938
G1 X114.254 Y87.038 E5.22228
G1 X114.375 Y87.540 E5.24518
G1 X114.417 Y88.066 E5.26859
G1 X114.417 Y94.707 E5.56318
G1 X114.418 Y95.167 F7800.000
G1 X113.599 Y94.366
G1 F1200.000
G1 X112.979 Y93.745 E5.60004
G1 X112.476 Y93.745 E5.62118
G1 X113.439 Y94.708 E5.67842
G1 X113.439 Y95.211 E5.69956
G1 X111.973 Y93.745 E5.78670
G1 X111.470 Y93.745 E5.80783
G1 X116.094 Y98.369 E6.08268
G1 X116.597 Y98.369 E6.10382
G1 X113.973 Y95.745 E6.25979
G1 X114.476 Y95.745 E6.28093
G1 X117.100 Y98.369 E6.43690
G1 X117.603 Y98.369 E6.45804
G1 X114.979 Y95.745 E6.61401
G1 X115.482 Y95.745 E6.63515
G1 X118.106 Y98.369 E6.79112
G1 X118.609 Y98.369 E6.81226
G1 X115.985 Y95.745 E6.96823
G1 X116.488 Y95.745 E6.98937
G1 X119.112 Y98.369 E7.14534
G1 X119.615 Y98.369 E7.16648
G1 X116.990 Y95.745 E7.32245
G1 X117.493 Y95.745 E7.34359
G1 X120.118 Y98.369 E7.49956
G1 X120.620 Y98.369 E7.52070
G1 X117.996 Y95.745 E7.67667
G1 X118.499 Y95.745 E7.69781
G1 X121.123 Y98.369 E7.85378
G1 X121.626 Y98.369 E7.87492
G1 X119.002 Y95.745 E8.03089
G1 X119.505 Y95.745 E8.05203
G1 X122.129 Y98.369 E8.20800
G1 X122.632 Y98.369 E8.22914
G1 X120.008 Y95.745 E8.38511
G1 X120.511 Y95.745 E8.40625
G1 X123.135 Y98.369 E8.56222
G1 X123.638 Y98.369 E8.58336
G1 X121.014 Y95.745 E8.73933
G1 X121.517 Y95.745 E8.76047
G1 X124.141 Y98.369 E8.91644
G1 X124.644 Y98.369 E8.93758
G1 X122.020 Y95.745 E9.09355
G1 X122.523 Y95.745 E9.11469
G1 X125.147 Y98.369 E9.27066
G1 X125.650 Y98.369 E9.29180
G1 X123.026 Y95.745 E9.44777
G1 X123.528 Y95.745 E9.46891
G1 X125.939 Y98.156 E9.61219
G1 X125.939 Y97.653 E9.63332
G1 X124.031 Y95.745 E9.74671
G1 X124.534 Y95.745 E9.76784
G1 X125.939 Y97.150 E9.85133
G1 X125.939 Y96.647 E9.87247
G1 X125.037 Y95.745 E9.92607
G1 X125.540 Y95.745 E9.94721
G1 X126.099 Y96.304 E9.98042
G92 E0
G1 E-2.00000 F2400.00000
G1 X113.564 Y93.301 F7800.000
G1 E0.00000 F2400.00000
G1 F1200.000
G1 X113.556 Y87.885 E0.43102
G1 X113.524 Y87.477 E0.46187
G1 X113.485 Y87.204 E0.47953
G1 X113.470 Y87.124 E0.48432
G1 X113.454 Y87.044 E0.48870
G1 X113.438 Y86.965 E0.49268
G1 X113.402 Y86.816 E0.49941
G1 X113.383 Y86.747 E0.50214
G1 X113.363 Y86.678 E0.50446
G1 X113.344 Y86.609 E0.50636
G1 X113.324 Y86.540 E0.50785
G1 X113.291 Y86.434 E0.50950
G1 X113.278 Y86.397 E0.50982
G92 E0
G1 E-2.00000 F2400.00000
G1 X105.758 Y85.557 F7800.000
G1 E0.00000 F2400.00000
G1 F1200.000
G1 X111.306 Y85.566 E0.35506
G1 X111.722 Y85.598 E0.37993
G1 X112.003 Y85.638 E0.39352
G1 X112.084 Y85.655 E0.39709
G1 X112.166 Y85.671 E0.40023
G1 X112.248 Y85.687 E0.40295
G1 X112.385 Y85.719 E0.40683
G1 X112.440 Y85.735 E0.40814
G1 X112.496 Y85.750 E0.40917
G1 X112.551 Y85.766 E0.40991
G1 X112.606 Y85.782 E0.41037
G92 E0
G1 E-2.00000 F2400.00000
G1 X105.474 Y86.241 F7800.000
G1 E0.00000 F2400.00000
G1 F1200.000
G1 X104.979 Y85.745 E0.02943
G1 X104.476 Y85.745 E0.05057
G1 X105.314 Y86.583 E0.10038
G1 X105.314 Y87.086 E0.12152
G1 X103.973 Y85.745 E0.20123
G1 X103.470 Y85.745 E0.22236
G1 X105.314 Y87.589 E0.33196
G1 X105.314 Y88.092 E0.35310
G1 X102.967 Y85.745 E0.49259
G1 X102.464 Y85.745 E0.51373
G1 X105.314 Y88.595 E0.68311
G1 X105.314 Y89.098 E0.70425
G1 X101.961 Y85.745 E0.90352
G1 X101.458 Y85.745 E0.92466
G1 X102.640 Y86.927 E0.99487
G1 X102.452 Y86.880 E1.00300
G1 X102.090 Y86.880 E1.01819
G1 X100.955 Y85.745 E1.08566
G1 X100.453 Y85.745 E1.10679
G1 X101.630 Y86.923 E1.17678
G1 X101.226 Y87.022 E1.19424
G1 X99.950 Y85.745 E1.27014
G1 X99.447 Y85.745 E1.29128
G1 X100.886 Y87.185 E1.37685
G1 X100.567 Y87.368 E1.39234
G1 X98.940 Y85.745 E1.48893
G1 X98.940 Y86.244 E1.50990
G1 X100.290 Y87.594 E1.59014
G1 X100.053 Y87.861 E1.60511
G1 X98.940 Y86.747 E1.67130
G1 X98.940 Y87.250 E1.69244
G1 X99.840 Y88.150 E1.74593
G1 X99.726 Y88.338 E1.75516
G1 X99.671 Y88.484 E1.76173
G1 X98.940 Y87.753 E1.80518
G1 X98.940 Y88.256 E1.82631
G1 X99.533 Y88.849 E1.86155
G1 X99.450 Y89.269 E1.87955
G1 X98.940 Y88.759 E1.90987
G1 X98.940 Y89.262 E1.93100
G1 X99.450 Y89.772 E1.96132
G1 X99.521 Y90.237 E1.98108
G1 X99.589 Y90.414 E1.98903
G1 X98.940 Y89.765 E2.02759
G1 X98.940 Y90.268 E2.04872
G1 X107.042 Y98.369 E2.53027
G1 X107.544 Y98.369 E2.55141
G1 X101.271 Y92.096 E2.92431
G1 X101.448 Y92.163 E2.93225
G1 X101.912 Y92.234 E2.95202
G1 X108.047 Y98.369 E3.31667
G1 X108.550 Y98.369 E3.33781
G1 X102.415 Y92.234 E3.70246
G1 X102.826 Y92.142 E3.72015
G1 X109.053 Y98.369 E4.09029
G1 X109.556 Y98.369 E4.11143
G1 X103.203 Y92.016 E4.48906
G1 X103.533 Y91.843 E4.50471
G1 X110.059 Y98.369 E4.89264
G1 X110.562 Y98.369 E4.91377
G1 X105.938 Y93.745 E5.18862
G1 X106.441 Y93.745 E5.20976
G1 X111.065 Y98.369 E5.48461
G1 X111.568 Y98.369 E5.50575
G1 X106.944 Y93.745 E5.78059
G1 X107.447 Y93.745 E5.80173
G1 X112.071 Y98.369 E6.07658
G1 X112.574 Y98.369 E6.09772
G1 X107.950 Y93.745 E6.37256
G1 X108.452 Y93.745 E6.39370
G1 X113.077 Y98.369 E6.66855
G1 X113.580 Y98.369 E6.68969
G1 X108.955 Y93.745 E6.96454
G1 X109.458 Y93.745 E6.98567
G1 X114.082 Y98.369 E7.26052
G1 X114.585 Y98.369 E7.28166
G1 X109.961 Y93.745 E7.55651
G1 X110.464 Y93.745 E7.57764
G1 X115.088 Y98.369 E7.85249
G1 X115.591 Y98.369 E7.87363
G1 X110.807 Y93.585 E8.15799
G92 E0
G1 E-2.00000 F2400.00000
G1 X105.474 Y93.281 F7800.000
G1 E0.00000 F2400.00000
G1 F1200.000
G1 X103.828 Y91.636 E0.09782
G1 X103.939 Y91.549 E0.10375
G1 X104.082 Y91.387 E0.11283
G1 X105.314 Y92.619 E0.18603
G1 X105.314 Y92.116 E0.20716
G1 X104.319 Y91.120 E0.26632
G1 X104.499 Y90.798 E0.28185
G1 X105.314 Y91.613 E0.33028
G1 X105.314 Y91.110 E0.35142
G1 X104.660 Y90.455 E0.39031
G1 X104.765 Y90.058 E0.40759
G1 X105.314 Y90.607 E0.44022
G1 X105.314 Y90.104 E0.46135
G1 X104.804 Y89.594 E0.49167
G1 X104.804 Y89.232 E0.50686
G1 X104.758 Y89.045 E0.51499
G1 X105.474 Y89.761 E0.55757
G92 E0
G1 E-2.00000 F2400.00000
G1 X98.495 Y85.557 F7800.000
G1 E0.00000 F2400.00000
G1 F1200.000
G1 X93.147 Y85.557 E0.34230
G1 X92.744 Y85.577 E0.36814
G1 X92.437 Y85.610 E0.38508
G1 X92.335 Y85.626 E0.39025
G1 X92.232 Y85.642 E0.39485
G1 X92.059 Y85.675 E0.40169
G1 X91.988 Y85.692 E0.40414
G1 X91.917 Y85.709 E0.40622
G1 X91.847 Y85.726 E0.40793
G1 X91.776 Y85.743 E0.40927
G1 X91.670 Y85.771 E0.41075
G1 X91.634 Y85.782 E0.41105
G92 E0
G1 E-2.00000 F2400.00000
G1 X90.689 Y93.301 F7800.000
G1 E0.00000 F2400.00000
G1 F1200.000
G1 X90.689 Y88.076 E0.41588
G1 X90.710 Y87.675 E0.44785
G1 X90.737 Y87.384 E0.46843
G1 X90.766 Y87.215 E0.47951
G1 X90.783 Y87.128 E0.48478
G1 X90.801 Y87.041 E0.48957
G1 X90.818 Y86.954 E0.49388
G1 X90.858 Y86.782 E0.50150
G1 X90.899 Y86.637 E0.50630
G1 X90.918 Y86.578 E0.50793
G1 X90.938 Y86.519 E0.50917
G1 X90.957 Y86.460 E0.51005
G1 X90.976 Y86.401 E0.51055
G92 E0
G1 E-2.00000 F2400.00000
G1 X78.155 Y98.149 F7800.000
G1 E0.00000 F2400.00000
G1 F1200.000
G1 X78.375 Y98.370 E0.01309
G1 X78.878 Y98.370 E0.03423
G1 X78.315 Y97.806 E0.06770
G1 X78.315 Y97.303 E0.08884
G1 X79.381 Y98.370 E0.15221
G1 X79.884 Y98.370 E0.17334
G1 X78.315 Y96.800 E0.26660
G1 X78.315 Y96.298 E0.28774
G1 X80.387 Y98.370 E0.41089
G1 X80.890 Y98.370 E0.43203
G1 X78.315 Y95.795 E0.58507
G1 X78.315 Y95.745 E0.58714
G1 X78.768 Y95.745 E0.60621
G1 X81.393 Y98.370 E0.76218
G1 X81.896 Y98.370 E0.78332
G1 X79.271 Y95.745 E0.93929
G1 X79.774 Y95.745 E0.96043
G1 X82.398 Y98.370 E1.11640
G1 X82.901 Y98.370 E1.13754
G1 X80.277 Y95.745 E1.29351
G1 X80.780 Y95.745 E1.31465
G1 X83.404 Y98.370 E1.47062
G1 X83.907 Y98.370 E1.49176
G1 X81.283 Y95.745 E1.64773
G1 X81.786 Y95.745 E1.66887
G1 X84.410 Y98.370 E1.82484
G1 X84.913 Y98.370 E1.84598
