; generated by Slic3r++ 2.2.47 on 2020-05-04 at 15:58:40 UTC

; 

; external perimeters extrusion width = 0.45mm
; perimeters extrusion width = 0.45mm
; infill extrusion width = 0.45mm
; solid infill extrusion width = 0.45mm
; top infill extrusion width = 0.40mm
; first layer extrusion width = 0.42mm

; object:{"name":"1_Y_Belt_Tensioner","id":"1_Y_Belt_Tensioner.stl id:0 copy 0","object_center":[97.480808,88.709921,97.480808],"boundingbox_center":[88.709921,22.500000,25.000000],"boundingbox_size":[10.000000,45.000000,0.000000]}
; object:{"name":"1_Y_Belt_Tensioner","id":"1_Y_Belt_Tensioner.stl id:1 copy 0","object_center":[97.696665,104.820600,97.696665],"boundingbox_center":[104.820600,22.500000,25.000000],"boundingbox_size":[10.000000,45.000000,0.000000]}

M201 X9000 Y9000 Z500 E10000 ; sets maximum accelerations, mm/sec^2
M203 X500 Y500 Z12 E120 ; sets maximum feedrates, mm/sec
M204 P1500 R1500 T1500 ; sets acceleration (P, T) and retract acceleration (R), mm/sec^2
M205 X10.00 Y10.00 Z0.20 E2.50 ; sets the jerk limits, mm/sec
M205 S0 T0 ; sets the minimum extruding and travel feed rate, mm/sec
M107
M104 S200 ; set temperature
G28 ; home all axes
G1 Z5 F5000 ; lift nozzle
M109 S200 ; set temperature and wait for it to be reached
G21 ; set units to millimeters
G90 ; use absolute coordinates
M82 ; use absolute distances for extrusion
G92 E0
; Filament gcode
G1 Z0.300 F7800.000
G1 E-2.00000 F2400.00000
G1 X81.592 Y80.119 F7800.000
G1 E0.00000 F2400.00000
G1 F1800.000
G1 X83.050 Y78.948 E0.08293
G1 X84.027 Y78.383 E0.13299
G1 X84.884 Y77.999 E0.17464
G1 X85.769 Y77.703 E0.21602
G1 X86.901 Y77.450 E0.26747
G1 X88.442 Y77.322 E0.33605
G1 X106.487 Y77.322 E1.13645
G1 X108.033 Y77.445 E1.20524
G1 X109.607 Y77.831 E1.27714
G1 X111.265 Y78.558 E1.35743
G1 X112.610 Y79.451 E1.42905
G1 X113.758 Y80.515 E1.49846
G1 X114.750 Y81.790 E1.57009
G1 X115.599 Y83.388 E1.65038
G1 X116.088 Y84.875 E1.71978
G1 X116.279 Y85.889 E1.76558
G1 X116.367 Y87.083 E1.81869
G1 X116.584 Y103.260 E2.53626
G1 X116.583 Y109.945 E2.83280
G1 X116.504 Y110.834 E2.87237
G1 X116.301 Y111.703 E2.91194
G1 X115.976 Y112.541 E2.95179
G1 X115.541 Y113.319 E2.99136
G1 X114.581 Y114.466 E3.05768
G1 X113.387 Y115.355 E3.12372
G1 X112.019 Y115.943 E3.18976
G1 X110.546 Y116.199 E3.25608
G1 X84.966 Y116.204 E4.39069
G1 X84.103 Y116.114 E4.42915
G1 X83.261 Y115.908 E4.46762
G1 X82.454 Y115.590 E4.50609
G1 X81.698 Y115.165 E4.54455
G1 X80.539 Y114.192 E4.61169
G1 X79.644 Y112.978 E4.67856
G1 X79.059 Y111.589 E4.74543
G1 X78.815 Y110.095 E4.81257
G1 X78.593 Y93.764 E5.53698
G1 X78.611 Y86.628 E5.85349
G1 X78.743 Y85.504 E5.90371
G1 X79.078 Y84.154 E5.96539
G1 X79.577 Y82.910 E6.02486
G1 X80.244 Y81.740 E6.08461
G1 X80.832 Y80.945 E6.12847
G1 X81.552 Y80.163 E6.17560
; printing object 1_Y_Belt_Tensioner.stl id:0 copy 0
G92 E0
G1 E-2.00000 F2400.00000
G1 X95.312 Y87.620 F7800.000
G1 E0.00000 F2400.00000
G1 F900.000
G1 X95.128 Y88.125 E0.02380
G1 X95.070 Y88.455 E0.03869
G1 X95.070 Y88.992 E0.06248
G1 X95.200 Y89.540 E0.08748
G1 X95.440 Y90.020 E0.11128
G1 X95.641 Y90.289 E0.12617
G1 X96.031 Y90.657 E0.14997
G1 X96.496 Y90.925 E0.17377
G1 X96.811 Y91.040 E0.18865
G1 X97.313 Y91.129 E0.21125
G1 X97.622 Y91.129 E0.22494
G1 X97.928 Y91.093 E0.23864
G1 X98.442 Y90.939 E0.26243
G1 X98.930 Y90.657 E0.28743
G1 X99.340 Y90.270 E0.31243
G1 X99.650 Y89.799 E0.33743
G1 X99.834 Y89.295 E0.36123
G1 X99.892 Y88.965 E0.37612
G1 X99.892 Y88.428 E0.39992
G1 X99.762 Y87.880 E0.42492
G1 X99.521 Y87.400 E0.44872
G1 X99.321 Y87.131 E0.46360
G1 X98.930 Y86.763 E0.48740
G1 X98.466 Y86.494 E0.51120
G1 X98.176 Y86.389 E0.52489
G1 X97.875 Y86.318 E0.53858
G1 X97.367 Y86.288 E0.56118
G1 X97.033 Y86.327 E0.57607
G1 X96.519 Y86.481 E0.59987
G1 X96.031 Y86.763 E0.62487
G1 X95.621 Y87.150 E0.64987
G1 X95.344 Y87.570 E0.67221
G1 X95.642 Y87.766 F7800.000
G1 F900.000
G1 X95.473 Y88.217 E0.69358
G1 X95.425 Y88.486 E0.70570
G1 X95.425 Y88.950 E0.72628
G1 X95.536 Y89.418 E0.74759
G1 X95.744 Y89.832 E0.76817
G1 X95.908 Y90.052 E0.78029
G1 X96.245 Y90.370 E0.80087
G1 X96.647 Y90.602 E0.82144
G1 X96.904 Y90.695 E0.83357
G1 X97.344 Y90.773 E0.85341
G1 X97.601 Y90.773 E0.86480
G1 X97.856 Y90.743 E0.87619
G1 X98.300 Y90.610 E0.89677
G1 X98.717 Y90.370 E0.91808
G1 X99.066 Y90.040 E0.93939
G1 X99.330 Y89.639 E0.96071
G1 X99.489 Y89.203 E0.98128
G1 X99.536 Y88.934 E0.99341
G1 X99.536 Y88.470 E1.01398
G1 X99.425 Y88.002 E1.03530
G1 X99.217 Y87.588 E1.05587
G1 X99.054 Y87.368 E1.06800
G1 X98.717 Y87.050 E1.08857
G1 X98.315 Y86.818 E1.10915
G1 X98.074 Y86.730 E1.12054
G1 X97.824 Y86.671 E1.13194
G1 X97.377 Y86.645 E1.15177
G1 X97.106 Y86.677 E1.16390
G1 X96.661 Y86.810 E1.18448
G1 X96.245 Y87.050 E1.20579
G1 X95.896 Y87.380 E1.22710
G1 X95.675 Y87.716 E1.24493
G1 X95.951 Y87.942 F7800.000
G1 F900.000
G1 X95.818 Y88.309 E1.26229
G1 X95.781 Y88.517 E1.27165
G1 X95.781 Y88.909 E1.28900
G1 X95.873 Y89.295 E1.30663
G1 X96.048 Y89.645 E1.32398
G1 X96.174 Y89.814 E1.33335
G1 X96.459 Y90.083 E1.35070
G1 X96.798 Y90.278 E1.36805
G1 X96.996 Y90.351 E1.37742
G1 X97.375 Y90.417 E1.39449
G1 X97.784 Y90.394 E1.41265
G1 X98.159 Y90.281 E1.43000
G1 X98.503 Y90.083 E1.44763
G1 X98.792 Y89.810 E1.46525
G1 X99.010 Y89.478 E1.48288
G1 X99.144 Y89.110 E1.50023
G1 X99.181 Y88.902 E1.50960
G1 X99.181 Y88.511 E1.52695
G1 X99.089 Y88.125 E1.54457
G1 X98.913 Y87.775 E1.56193
G1 X98.787 Y87.606 E1.57129
G1 X98.503 Y87.337 E1.58864
G1 X98.164 Y87.142 E1.60600
G1 X97.772 Y87.024 E1.62415
G1 X97.387 Y87.002 E1.64123
G1 X97.178 Y87.026 E1.65060
G1 X96.803 Y87.138 E1.66795
G1 X96.459 Y87.337 E1.68558
G1 X96.170 Y87.610 E1.70320
G1 X95.984 Y87.892 E1.71816
G1 X95.561 Y87.965 F7800.000
G92 E0
G1 E-2.00000 F2400.00000
G1 X109.060 Y92.789 F7800.000
G1 E0.00000 F2400.00000
G1 F1800.000
G1 X85.902 Y92.789 E1.02715
G1 X85.902 Y87.244 E1.27306
G1 X85.935 Y86.809 E1.29244
G1 X85.964 Y86.653 E1.29946
G1 X86.088 Y86.252 E1.31808
G1 X86.158 Y86.091 E1.32586
G1 X86.240 Y85.936 E1.33365
G1 X86.476 Y85.589 E1.35226
G1 X86.580 Y85.469 E1.35928
G1 X86.875 Y85.196 E1.37713
G1 X87.207 Y84.969 E1.39497
G1 X87.523 Y84.817 E1.41053
G1 X87.924 Y84.693 E1.42914
G1 X88.080 Y84.664 E1.43616
G1 X88.515 Y84.631 E1.45553
G1 X106.673 Y84.641 E2.26093
G1 X107.054 Y84.698 E2.27802
G1 X107.422 Y84.812 E2.29510
G1 X107.769 Y84.979 E2.31218
G1 X108.087 Y85.196 E2.32925
G1 X108.369 Y85.458 E2.34633
G1 X108.609 Y85.759 E2.36341
G1 X108.802 Y86.092 E2.38049
G1 X108.943 Y86.451 E2.39757
G1 X109.028 Y86.826 E2.41464
G1 X109.060 Y87.244 E2.43326
G1 X109.060 Y92.729 E2.67651
G1 X109.415 Y93.144 F7800.000
G1 F1800.000
G1 X85.546 Y93.144 E3.73521
G1 X85.546 Y87.231 E3.99749
G1 X85.582 Y86.762 E4.01834
G1 X85.618 Y86.567 E4.02713
G1 X85.754 Y86.128 E4.04752
G1 X85.837 Y85.937 E4.05678
G1 X85.935 Y85.752 E4.06604
G1 X86.194 Y85.373 E4.08642
G1 X86.323 Y85.222 E4.09522
G1 X86.652 Y84.917 E4.11513
G1 X87.023 Y84.664 E4.13504
G1 X87.399 Y84.483 E4.15355
G1 X87.838 Y84.348 E4.17394
G1 X88.033 Y84.311 E4.18273
G1 X88.502 Y84.276 E4.20358
G1 X106.700 Y84.285 E5.01075
G1 X107.133 Y84.351 E5.03020
G1 X107.552 Y84.480 E5.04964
G1 X107.947 Y84.670 E5.06908
G1 X108.309 Y84.917 E5.08852
G1 X108.631 Y85.215 E5.10797
G1 X108.904 Y85.558 E5.12741
G1 X109.123 Y85.937 E5.14685
G1 X109.283 Y86.345 E5.16629
G1 X109.381 Y86.773 E5.18573
G1 X109.415 Y87.231 E5.20612
G1 X109.415 Y93.084 E5.46574
G1 X109.771 Y93.500 F7800.000
G1 F1800.000
G1 X85.191 Y93.500 E6.55598
G1 X85.191 Y87.218 E6.83462
G1 X85.228 Y86.716 E6.85695
G1 X85.273 Y86.482 E6.86752
G1 X85.420 Y86.004 E6.88967
G1 X85.517 Y85.783 E6.90041
G1 X85.630 Y85.568 E6.91115
G1 X85.911 Y85.156 E6.93330
G1 X86.067 Y84.975 E6.94387
G1 X86.430 Y84.638 E6.96585
G1 X86.839 Y84.359 E6.98783
G1 X87.275 Y84.149 E7.00929
G1 X87.753 Y84.002 E7.03145
G1 X87.987 Y83.958 E7.04201
G1 X88.489 Y83.920 E7.06434
G1 X106.727 Y83.930 E7.87328
G1 X107.213 Y84.003 E7.89509
G1 X107.683 Y84.148 E7.91689
G1 X108.126 Y84.361 E7.93870
G1 X108.532 Y84.638 E7.96051
G1 X108.892 Y84.973 E7.98231
G1 X109.199 Y85.357 E8.00412
G1 X109.444 Y85.783 E8.02593
G1 X109.624 Y86.240 E8.04773
G1 X109.733 Y86.720 E8.06954
G1 X109.771 Y87.218 E8.09170
G1 X109.771 Y93.440 E8.36768
G1 X109.424 Y93.301 F7800.000
G92 E0
G1 E-2.00000 F2400.00000
G1 X108.926 Y86.895 F7800.000
G1 E0.00000 F2400.00000
G1 F1200.000
G1 X106.989 Y84.958 E0.11706
G1 X106.653 Y84.908 E0.13160
G1 X106.436 Y84.907 E0.14089
G1 X108.793 Y87.265 E0.28335
G1 X108.793 Y87.768 E0.30484
G1 X105.933 Y84.907 E0.47771
G1 X105.429 Y84.907 E0.49921
G1 X108.793 Y88.270 E0.70249
G1 X108.793 Y88.773 E0.72398
G1 X104.926 Y84.907 E0.95767
G1 X104.423 Y84.906 E0.97917
G1 X108.793 Y89.276 E1.24327
G1 X108.793 Y89.779 E1.26477
G1 X103.920 Y84.906 E1.55928
G1 X103.417 Y84.906 E1.58078
G1 X108.793 Y90.282 E1.90571
G1 X108.793 Y90.785 E1.92720
G1 X102.913 Y84.906 E2.28253
G1 X102.410 Y84.905 E2.30404
G1 X108.793 Y91.288 E2.68978
G1 X108.793 Y91.791 E2.71127
G1 X101.907 Y84.905 E3.12743
G1 X101.404 Y84.905 E3.14893
G1 X108.793 Y92.294 E3.59550
G1 X108.793 Y92.522 E3.60525
G1 X108.518 Y92.522 E3.61699
G1 X100.901 Y84.905 E4.07736
G1 X100.397 Y84.904 E4.09887
G1 X108.015 Y92.522 E4.55926
G1 X107.512 Y92.522 E4.58075
G1 X99.894 Y84.904 E5.04115
G1 X99.391 Y84.904 E5.06266
G1 X107.009 Y92.522 E5.52308
G1 X106.506 Y92.522 E5.54457
G1 X98.888 Y84.903 E6.00501
G1 X98.385 Y84.903 E6.02651
G1 X106.004 Y92.522 E6.48697
G1 X105.501 Y92.522 E6.50846
G1 X97.881 Y84.903 E6.96893
G1 X97.378 Y84.903 E6.99044
G1 X104.998 Y92.522 E7.45092
G1 X104.495 Y92.522 E7.47242
G1 X100.093 Y88.120 E7.73844
G1 X100.159 Y88.397 E7.75059
G1 X100.159 Y88.689 E7.76306
G1 X103.992 Y92.522 E7.99473
G1 X103.489 Y92.522 E8.01622
G1 X100.128 Y89.161 E8.21934
G1 X100.092 Y89.364 E8.22816
G1 X100.022 Y89.558 E8.23696
G1 X102.986 Y92.522 E8.41610
G1 X102.483 Y92.522 E8.43759
G1 X99.886 Y89.925 E8.59452
G1 X99.687 Y90.229 E8.61004
G1 X101.980 Y92.522 E8.74863
G1 X101.477 Y92.522 E8.77013
G1 X99.470 Y90.515 E8.89144
G1 X99.211 Y90.759 E8.90664
G1 X100.974 Y92.522 E9.01320
G1 X100.471 Y92.522 E9.03469
G1 X98.920 Y90.971 E9.12844
G1 X98.601 Y91.155 E9.14417
G1 X99.968 Y92.522 E9.22679
G1 X99.466 Y92.522 E9.24828
G1 X98.226 Y91.282 E9.32321
G1 X97.982 Y91.355 E9.33406
G1 X97.815 Y91.375 E9.34126
G1 X98.963 Y92.522 E9.41061
G1 X98.460 Y92.522 E9.43210
G1 X97.333 Y91.395 E9.50019
G1 X96.729 Y91.294 E9.52638
G1 X97.957 Y92.522 E9.60060
G1 X97.454 Y92.522 E9.62209
G1 X89.830 Y84.899 E10.08283
G1 X90.334 Y84.899 E10.10433
G1 X94.910 Y89.475 E10.38092
G1 X94.803 Y89.023 E10.40080
G1 X94.803 Y88.865 E10.40754
G1 X90.837 Y84.899 E10.64724
G1 X91.340 Y84.899 E10.66874
G1 X94.813 Y88.373 E10.87866
G1 X94.869 Y88.055 E10.89244
G1 X94.904 Y87.960 E10.89676
G1 X91.843 Y84.900 E11.08174
G1 X92.346 Y84.900 E11.10324
G1 X95.038 Y87.592 E11.26592
G1 X95.072 Y87.500 E11.27009
G1 X95.221 Y87.272 E11.28175
G1 X92.850 Y84.900 E11.42510
G1 X93.353 Y84.900 E11.44660
G1 X95.423 Y86.970 E11.57169
G1 X95.681 Y86.726 E11.58690
G1 X93.856 Y84.901 E11.69722
G1 X94.359 Y84.901 E11.71872
G1 X95.956 Y86.498 E11.81524
G1 X96.275 Y86.314 E11.83098
G1 X94.862 Y84.901 E11.91636
G1 X95.366 Y84.902 E11.93786
G1 X96.633 Y86.169 E12.01444
G1 X97.026 Y86.059 E12.03190
G1 X95.869 Y84.902 E12.10186
G1 X96.372 Y84.902 E12.12336
G1 X97.498 Y86.029 E12.19145
G1 X97.914 Y86.053 E12.20924
G1 X98.060 Y86.087 E12.21566
G1 X96.715 Y84.742 E12.29696
G92 E0
G1 E-2.00000 F2400.00000
G1 X97.111 Y92.682 F7800.000
G1 E0.00000 F2400.00000
G1 F1200.000
G1 X89.327 Y84.898 E0.47042
G1 X88.824 Y84.898 E0.49192
G1 X96.448 Y92.522 E0.95269
G1 X95.945 Y92.522 E0.97418
G1 X88.335 Y84.912 E1.43409
G1 X88.114 Y84.929 E1.44355
G1 X87.900 Y84.980 E1.45298
G1 X95.442 Y92.522 E1.90880
G1 X94.939 Y92.522 E1.93029
G1 X87.528 Y85.111 E2.37821
G1 X87.341 Y85.201 E2.38709
G1 X87.207 Y85.292 E2.39403
G1 X94.436 Y92.522 E2.83097
G1 X93.933 Y92.522 E2.85246
G1 X86.925 Y85.513 E3.27605
G1 X86.677 Y85.769 E3.29125
G1 X93.430 Y92.522 E3.69940
G1 X92.928 Y92.522 E3.72089
G1 X86.473 Y86.068 E4.11097
G1 X86.317 Y86.414 E4.12722
G1 X92.425 Y92.522 E4.49635
G1 X91.922 Y92.522 E4.51784
G1 X86.206 Y86.807 E4.86325
G1 X86.169 Y87.272 E4.88320
G1 X91.419 Y92.522 E5.20049
G1 X90.916 Y92.522 E5.22198
G1 X86.169 Y87.775 E5.50888
G1 X86.169 Y88.278 E5.53038
G1 X90.413 Y92.522 E5.78688
G1 X89.910 Y92.522 E5.80837
G1 X86.169 Y88.781 E6.03448
G1 X86.169 Y89.284 E6.05598
G1 X89.407 Y92.522 E6.25169
G1 X88.904 Y92.522 E6.27318
G1 X86.169 Y89.787 E6.43851
G1 X86.169 Y90.289 E6.46000
G1 X88.401 Y92.522 E6.59492
G1 X87.898 Y92.522 E6.61642
G1 X86.169 Y90.792 E6.72095
G1 X86.169 Y91.295 E6.74244
G1 X87.395 Y92.522 E6.81658
G1 X86.893 Y92.522 E6.83807
G1 X86.169 Y91.798 E6.88181
G1 X86.169 Y92.301 E6.90331
G1 X86.550 Y92.682 E6.92632
; stop printing object 1_Y_Belt_Tensioner.stl id:0 copy 0
; printing object 1_Y_Belt_Tensioner.stl id:1 copy 0
G92 E0
G1 E-2.00000 F2400.00000
G1 X96.247 Y102.873 F7800.000
G1 E0.00000 F2400.00000
G1 F900.000
G1 X95.837 Y103.260 E0.02500
G1 X95.527 Y103.731 E0.05000
G1 X95.344 Y104.235 E0.07380
G1 X95.286 Y104.566 E0.08869
G1 X95.286 Y105.102 E0.11248
G1 X95.416 Y105.651 E0.13748
G1 X95.656 Y106.130 E0.16128
G1 X95.857 Y106.400 E0.17617
G1 X96.247 Y106.768 E0.19997
G1 X96.712 Y107.036 E0.22377
G1 X97.027 Y107.151 E0.23865
G1 X97.529 Y107.239 E0.26125
G1 X97.838 Y107.239 E0.27494
G1 X98.144 Y107.203 E0.28864
G1 X98.658 Y107.050 E0.31243
G1 X99.146 Y106.768 E0.33743
G1 X99.556 Y106.381 E0.36243
G1 X99.866 Y105.910 E0.38743
G1 X100.049 Y105.406 E0.41123
G1 X100.108 Y105.075 E0.42612
G1 X100.108 Y104.539 E0.44992
G1 X99.978 Y103.990 E0.47492
G1 X99.737 Y103.511 E0.49872
G1 X99.537 Y103.242 E0.51360
G1 X99.146 Y102.873 E0.53740
G1 X98.682 Y102.605 E0.56120
G1 X98.392 Y102.500 E0.57489
G1 X98.091 Y102.428 E0.58858
G1 X97.583 Y102.399 E0.61118
G1 X97.249 Y102.438 E0.62607
G1 X96.735 Y102.592 E0.64987
G1 X96.299 Y102.843 E0.67221
G1 X96.477 Y103.151 F7800.000
G1 F900.000
G1 X96.111 Y103.490 E0.69431
G1 X95.847 Y103.892 E0.71563
G1 X95.689 Y104.328 E0.73620
G1 X95.641 Y104.597 E0.74833
G1 X95.641 Y105.061 E0.76890
G1 X95.752 Y105.528 E0.79022
G1 X95.960 Y105.943 E0.81079
G1 X96.123 Y106.162 E0.82292
G1 X96.461 Y106.481 E0.84349
G1 X96.863 Y106.713 E0.86407
G1 X97.120 Y106.806 E0.87620
G1 X97.560 Y106.884 E0.89603
G1 X97.817 Y106.884 E0.90743
G1 X98.072 Y106.854 E0.91882
G1 X98.516 Y106.721 E0.93939
G1 X98.932 Y106.481 E0.96071
G1 X99.282 Y106.151 E0.98202
G1 X99.546 Y105.749 E1.00333
G1 X99.705 Y105.313 E1.02391
G1 X99.752 Y105.044 E1.03603
G1 X99.752 Y104.580 E1.05661
G1 X99.641 Y104.113 E1.07792
G1 X99.433 Y103.698 E1.09850
G1 X99.270 Y103.479 E1.11062
G1 X98.932 Y103.161 E1.13120
G1 X98.531 Y102.929 E1.15177
G1 X98.289 Y102.841 E1.16317
G1 X98.039 Y102.782 E1.17456
G1 X97.593 Y102.756 E1.19440
G1 X97.321 Y102.787 E1.20652
G1 X96.877 Y102.920 E1.22710
G1 X96.529 Y103.121 E1.24493
G1 X96.675 Y103.448 F7800.000
G1 F900.000
G1 X96.386 Y103.721 E1.26256
G1 X96.167 Y104.053 E1.28018
G1 X96.033 Y104.420 E1.29754
G1 X95.997 Y104.628 E1.30690
G1 X95.997 Y105.019 E1.32425
G1 X96.088 Y105.406 E1.34188
G1 X96.264 Y105.756 E1.35923
G1 X96.390 Y105.925 E1.36860
G1 X96.675 Y106.193 E1.38595
G1 X97.013 Y106.389 E1.40330
G1 X97.212 Y106.461 E1.41267
G1 X97.591 Y106.528 E1.42974
G1 X98.000 Y106.504 E1.44790
G1 X98.375 Y106.392 E1.46525
G1 X98.719 Y106.193 E1.48288
G1 X99.008 Y105.921 E1.50050
G1 X99.226 Y105.589 E1.51813
G1 X99.360 Y105.221 E1.53548
G1 X99.397 Y105.013 E1.54485
G1 X99.397 Y104.622 E1.56220
G1 X99.305 Y104.235 E1.57983
G1 X99.129 Y103.886 E1.59718
G1 X99.003 Y103.716 E1.60654
G1 X98.719 Y103.448 E1.62389
G1 X98.380 Y103.252 E1.64125
G1 X97.988 Y103.135 E1.65940
G1 X97.603 Y103.112 E1.67648
G1 X97.394 Y103.137 E1.68585
G1 X97.019 Y103.249 E1.70320
G1 X96.727 Y103.418 E1.71816
G1 X96.310 Y103.291 F7800.000
G92 E0
G1 E-2.00000 F2400.00000
G1 X109.275 Y108.899 F7800.000
G1 E0.00000 F2400.00000
G1 F1800.000
G1 X86.118 Y108.899 E1.02715
G1 X86.118 Y103.355 E1.27306
G1 X86.151 Y102.919 E1.29244
G1 X86.180 Y102.764 E1.29946
G1 X86.304 Y102.363 E1.31808
