; generated by Slic3r++ 2.2.47 on 2020-05-06 at 16:30:34 UTC

; 

; external perimeters extrusion width = 0.45mm
; perimeters extrusion width = 0.45mm
; infill extrusion width = 0.45mm
; solid infill extrusion width = 0.45mm
; top infill extrusion width = 0.40mm
; first layer extrusion width = 0.42mm

; object:{"name":"1_Y_Belt_Block","id":"1_Y_Belt_Block.stl id:0 copy 0","object_center":[100.000000,100.000000,100.000000],"boundingbox_center":[100.000000,10.000000,50.000000],"boundingbox_size":[15.000000,20.000000,0.000000]}

M201 X9000 Y9000 Z500 E10000 ; sets maximum accelerations, mm/sec^2
M203 X500 Y500 Z12 E120 ; sets maximum feedrates, mm/sec
M204 P1500 R1500 T1500 ; sets acceleration (P, T) and retract acceleration (R), mm/sec^2
M205 X10.00 Y10.00 Z0.20 E2.50 ; sets the jerk limits, mm/sec
M205 S0 T0 ; sets the minimum extruding and travel feed rate, mm/sec
M107
M104 S200 ; set temperature
G28 ; home all axes
G1 Z5 F5000 ; lift nozzle
M109 S200 ; set temperature and wait for it to be reached
G21 ; set units to millimeters
G90 ; use absolute coordinates
M82 ; use absolute distances for extrusion
G92 E0
; Filament gcode
G1 Z0.300 F7800.000
G1 E-2.00000 F2400.00000
G1 X71.331 Y97.271 F7800.000
G1 E0.00000 F2400.00000
G1 F1800.000
G1 X85.766 Y87.611 E0.77039
G1 X86.708 Y87.094 E0.81807
G1 X87.940 Y86.598 E0.87697
G1 X89.227 Y86.274 E0.93587
G1 X90.307 Y86.137 E0.98415
G1 X109.003 Y86.112 E1.81340
G1 X110.371 Y86.209 E1.87421
G1 X111.523 Y86.441 E1.92636
G1 X112.817 Y86.879 E1.98692
G1 X114.090 Y87.523 E2.05024
G1 X128.646 Y97.255 E2.82684
G1 X129.441 Y97.908 E2.87249
G1 X130.117 Y98.676 E2.91786
G1 X130.563 Y99.361 E2.95412
G1 X130.916 Y100.091 E2.99010
G1 X131.175 Y100.866 E3.02636
G1 X131.333 Y101.662 E3.06234
G1 X131.388 Y102.471 E3.09832
G1 X131.361 Y108.086 E3.34735
G1 X131.100 Y109.394 E3.40651
G1 X130.574 Y110.620 E3.46567
G1 X129.805 Y111.709 E3.52484
G1 X128.826 Y112.615 E3.58400
G1 X127.993 Y113.143 E3.62771
G1 X127.090 Y113.536 E3.67143
G1 X126.130 Y113.787 E3.71542
G1 X125.150 Y113.886 E3.75913
G1 X74.813 Y113.885 E5.99182
G1 X73.273 Y113.650 E6.06088
G1 X71.831 Y113.046 E6.13022
G1 X70.579 Y112.111 E6.19956
G1 X69.591 Y110.899 E6.26891
G1 X68.972 Y109.613 E6.33220
G1 X68.654 Y108.229 E6.39521
G1 X68.613 Y102.413 E6.65319
G1 X68.695 Y101.474 E6.69497
G1 X68.916 Y100.552 E6.73703
G1 X69.272 Y99.673 E6.77909
G1 X69.753 Y98.856 E6.82115
G1 X70.472 Y97.994 E6.87093
G1 X71.285 Y97.310 E6.91806
; printing object 1_Y_Belt_Block.stl id:0 copy 0
G92 E0
G1 E-2.00000 F2400.00000
G1 X89.415 Y94.290 F7800.000
G1 E0.00000 F2400.00000
G1 F900.000
G1 X89.415 Y100.710 E0.28476
G1 X95.835 Y100.710 E0.56952
G1 X95.835 Y94.290 E0.85427
G1 X89.475 Y94.290 E1.13637
G1 X89.029 Y94.186 F7800.000
G92 E0
G1 E-2.00000 F2400.00000
G1 X104.165 Y94.290 F7800.000
G1 E0.00000 F2400.00000
G1 F900.000
G1 X104.165 Y100.710 E0.28476
G1 X110.585 Y100.710 E0.56952
G1 X110.585 Y94.290 E0.85427
G1 X104.225 Y94.290 E1.13637
G1 X103.779 Y94.186 F7800.000
G92 E0
G1 E-2.00000 F2400.00000
G1 X101.980 Y96.100 F7800.000
G1 E0.00000 F2400.00000
G1 F900.000
G1 X101.629 Y95.704 E0.02347
G1 X101.354 Y95.489 E0.03893
G1 X100.861 Y95.230 E0.06364
G1 X100.293 Y95.090 E0.08960
G1 X99.707 Y95.090 E0.11556
G1 X99.139 Y95.230 E0.14153
G1 X98.646 Y95.489 E0.16624
G1 X98.371 Y95.704 E0.18170
G1 X98.020 Y96.100 E0.20517
G1 X97.840 Y96.398 E0.22063
G1 X97.653 Y96.893 E0.24409
G1 X97.590 Y97.235 E0.25955
G1 X97.590 Y97.765 E0.28302
G1 X97.653 Y98.107 E0.29848
G1 X97.840 Y98.602 E0.32194
G1 X98.020 Y98.900 E0.33740
G1 X98.390 Y99.317 E0.36212
G1 X98.872 Y99.650 E0.38808
G1 X99.393 Y99.847 E0.41279
G1 X99.735 Y99.910 E0.42825
G1 X100.293 Y99.910 E0.45297
G1 X100.861 Y99.770 E0.47893
G1 X101.354 Y99.511 E0.50364
G1 X101.629 Y99.296 E0.51910
G1 X101.998 Y98.879 E0.54382
G1 X102.257 Y98.386 E0.56853
G1 X102.353 Y98.080 E0.58275
G1 X102.410 Y97.765 E0.59697
G1 X102.410 Y97.207 E0.62168
G1 X102.277 Y96.666 E0.64640
G1 X102.145 Y96.374 E0.66062
G1 X102.011 Y96.151 E0.67217
G1 X101.706 Y96.335 F7800.000
G1 F900.000
G1 X101.384 Y95.964 E0.69398
G1 X101.160 Y95.789 E0.70658
G1 X100.734 Y95.565 E0.72794
G1 X100.249 Y95.445 E0.75007
G1 X99.751 Y95.445 E0.77220
G1 X99.266 Y95.565 E0.79434
G1 X98.840 Y95.789 E0.81570
G1 X98.616 Y95.964 E0.82829
G1 X98.308 Y96.311 E0.84889
G1 X98.161 Y96.554 E0.86149
G1 X97.996 Y96.989 E0.88209
G1 X97.945 Y97.268 E0.89468
G1 X97.945 Y97.732 E0.91528
G1 X97.996 Y98.011 E0.92787
G1 X98.161 Y98.446 E0.94847
G1 X98.308 Y98.689 E0.96106
G1 X98.627 Y99.049 E0.98243
G1 X99.038 Y99.333 E1.00456
G1 X99.489 Y99.504 E1.02593
G1 X99.768 Y99.555 E1.03852
G1 X100.249 Y99.555 E1.05989
G1 X100.734 Y99.435 E1.08202
G1 X101.160 Y99.211 E1.10338
G1 X101.384 Y99.036 E1.11598
G1 X101.703 Y98.676 E1.13734
G1 X101.927 Y98.249 E1.15871
G1 X102.007 Y97.995 E1.17054
G1 X102.055 Y97.732 E1.18237
G1 X102.055 Y97.251 E1.20373
G1 X101.939 Y96.783 E1.22510
G1 X101.830 Y96.540 E1.23693
G1 X101.737 Y96.386 E1.24487
G1 X101.433 Y96.570 F7800.000
G1 F900.000
G1 X101.139 Y96.224 E1.26503
G1 X100.967 Y96.088 E1.27475
G1 X100.607 Y95.900 E1.29277
G1 X100.206 Y95.801 E1.31107
G1 X99.794 Y95.801 E1.32937
G1 X99.393 Y95.900 E1.34767
G1 X99.033 Y96.088 E1.36569
G1 X98.861 Y96.224 E1.37542
G1 X98.596 Y96.523 E1.39315
G1 X98.482 Y96.711 E1.40288
G1 X98.340 Y97.084 E1.42061
G1 X98.301 Y97.300 E1.43033
G1 X98.301 Y97.700 E1.44807
G1 X98.340 Y97.916 E1.45779
G1 X98.482 Y98.289 E1.47553
G1 X98.596 Y98.477 E1.48525
G1 X98.865 Y98.781 E1.50327
G1 X99.205 Y99.015 E1.52157
G1 X99.584 Y99.160 E1.53959
G1 X99.800 Y99.199 E1.54931
G1 X100.206 Y99.199 E1.56733
G1 X100.607 Y99.100 E1.58563
G1 X100.967 Y98.912 E1.60365
G1 X101.139 Y98.776 E1.61337
G1 X101.409 Y98.472 E1.63139
G1 X101.597 Y98.113 E1.64941
G1 X101.661 Y97.909 E1.65885
G1 X101.699 Y97.700 E1.66830
G1 X101.699 Y97.294 E1.68631
G1 X101.602 Y96.899 E1.70433
G1 X101.464 Y96.622 E1.71808
G1 X101.611 Y96.212 F7800.000
G92 E0
G1 E-2.00000 F2400.00000
G1 X103.454 Y101.421 F7800.000
G1 E0.00000 F2400.00000
G1 F1800.000
G1 X111.579 Y101.421 E0.36038
G1 X111.579 Y103.421 E0.44909
G1 X124.079 Y103.421 E1.00353
G1 X124.079 Y106.579 E1.14358
G1 X75.921 Y106.579 E3.27960
G1 X75.921 Y103.421 E3.41965
G1 X88.421 Y103.421 E3.97408
G1 X88.421 Y101.421 E4.06279
G1 X96.546 Y101.421 E4.42318
G1 X96.546 Y93.421 E4.77801
G1 X103.454 Y93.421 E5.08440
G1 X103.454 Y101.361 E5.43657
G1 X103.809 Y101.066 F7800.000
G1 F1800.000
G1 X110.941 Y101.066 E5.75288
G1 X110.941 Y93.771 E6.07641
G1 X111.371 Y94.274 E6.10573
G1 X111.612 Y94.666 E6.12615
G1 X111.788 Y95.091 E6.14657
G1 X111.896 Y95.538 E6.16698
G1 X111.934 Y96.022 E6.18852
G1 X111.934 Y103.066 E6.50092
G1 X124.434 Y103.066 E7.05535
G1 X124.434 Y106.934 E7.22695
G1 X75.566 Y106.934 E9.39452
G1 X75.566 Y103.066 E9.56611
G1 X88.066 Y103.066 E10.12055
G1 X88.075 Y95.778 E10.44379
G1 X88.149 Y95.309 E10.46485
G1 X88.208 Y95.101 E10.47444
G1 X88.393 Y94.656 E10.49583
G1 X88.495 Y94.474 E10.50508
G1 X88.826 Y94.018 E10.53007
G1 X89.059 Y94.094 E10.54095
G1 X89.059 Y101.066 E10.85018
G1 X96.191 Y101.066 E11.16649
G1 X96.191 Y93.934 E11.48279
G1 X88.916 Y93.934 E11.80544
G1 X89.282 Y93.623 E11.82673
G1 X89.462 Y93.502 E11.83633
G1 X89.874 Y93.292 E11.85688
G1 X90.320 Y93.147 E11.87767
G1 X90.778 Y93.075 E11.89822
G1 X91.011 Y93.066 E11.90859
G1 X108.981 Y93.066 E12.70561
G1 X109.462 Y93.104 E12.72701
G1 X109.909 Y93.212 E12.74743
G1 X110.334 Y93.388 E12.76785
G1 X110.822 Y93.688 E12.79326
G1 X110.753 Y93.934 E12.80460
G1 X103.809 Y93.934 E13.11258
G1 X103.809 Y101.006 E13.42622
G92 E0
G1 E-2.00000 F2400.00000
G1 X112.290 Y102.710 F7800.000
G1 E0.00000 F2400.00000
G1 F1800.000
G1 X124.790 Y102.710 E0.55444
G1 X124.790 Y107.290 E0.75758
G1 X75.210 Y107.290 E2.95669
G1 X75.210 Y102.710 E3.15984
G1 X87.710 Y102.710 E3.71427
G1 X87.710 Y96.001 E4.01184
G1 X87.720 Y95.743 E4.02331
G1 X87.801 Y95.233 E4.04621
G1 X87.871 Y94.984 E4.05767
G1 X88.072 Y94.500 E4.08094
G1 X88.195 Y94.282 E4.09204
G1 X88.498 Y93.864 E4.11494
G1 X88.674 Y93.674 E4.12641
G1 X89.067 Y93.339 E4.14931
G1 X89.281 Y93.195 E4.16078
G1 X89.738 Y92.963 E4.18349
G1 X90.237 Y92.801 E4.20676
G1 X90.743 Y92.720 E4.22949
G1 X108.995 Y92.710 E5.03905
G1 X109.518 Y92.752 E5.06231
G1 X110.020 Y92.873 E5.08521
G1 X110.496 Y93.071 E5.10812
G1 X110.937 Y93.341 E5.13102
G1 X111.323 Y93.671 E5.15357
G1 X111.659 Y94.064 E5.17648
G1 X111.929 Y94.504 E5.19938
G1 X112.127 Y94.980 E5.22228
G1 X112.248 Y95.482 E5.24518
G1 X112.290 Y96.008 E5.26859
G1 X112.290 Y102.650 E5.56318
G1 X112.291 Y103.110 F7800.000
G1 X111.472 Y102.308
G1 F1200.000
G1 X110.852 Y101.688 E5.60004
G1 X110.349 Y101.688 E5.62118
G1 X111.312 Y102.651 E5.67842
G1 X111.312 Y103.154 E5.69956
G1 X109.846 Y101.688 E5.78670
G1 X109.343 Y101.688 E5.80783
G1 X113.967 Y106.312 E6.08268
G1 X114.470 Y106.312 E6.10382
G1 X111.846 Y103.688 E6.25979
G1 X112.349 Y103.688 E6.28093
G1 X114.973 Y106.312 E6.43690
G1 X115.476 Y106.312 E6.45804
G1 X112.852 Y103.688 E6.61401
G1 X113.355 Y103.688 E6.63515
G1 X115.979 Y106.312 E6.79112
G1 X116.482 Y106.312 E6.81226
G1 X113.858 Y103.688 E6.96823
G1 X114.361 Y103.688 E6.98937
G1 X116.985 Y106.312 E7.14534
G1 X117.488 Y106.312 E7.16648
G1 X114.864 Y103.688 E7.32245
G1 X115.366 Y103.688 E7.34359
G1 X117.991 Y106.312 E7.49956
G1 X118.494 Y106.312 E7.52070
G1 X115.869 Y103.688 E7.67667
G1 X116.372 Y103.688 E7.69781
G1 X118.996 Y106.312 E7.85378
G1 X119.499 Y106.312 E7.87492
G1 X116.875 Y103.688 E8.03089
G1 X117.378 Y103.688 E8.05203
G1 X120.002 Y106.312 E8.20800
G1 X120.505 Y106.312 E8.22914
G1 X117.881 Y103.688 E8.38511
G1 X118.384 Y103.688 E8.40625
G1 X121.008 Y106.312 E8.56222
G1 X121.511 Y106.312 E8.58336
G1 X118.887 Y103.688 E8.73933
G1 X119.390 Y103.688 E8.76047
G1 X122.014 Y106.312 E8.91644
G1 X122.517 Y106.312 E8.93758
G1 X119.893 Y103.688 E9.09355
G1 X120.396 Y103.688 E9.11469
G1 X123.020 Y106.312 E9.27066
G1 X123.523 Y106.312 E9.29180
G1 X120.899 Y103.688 E9.44777
G1 X121.402 Y103.688 E9.46891
G1 X123.812 Y106.098 E9.61219
G1 X123.812 Y105.596 E9.63332
G1 X121.904 Y103.688 E9.74671
G1 X122.407 Y103.688 E9.76784
G1 X123.812 Y105.093 E9.85133
G1 X123.812 Y104.590 E9.87247
G1 X122.910 Y103.688 E9.92607
G1 X123.413 Y103.688 E9.94721
G1 X123.972 Y104.247 E9.98042
G92 E0
G1 E-2.00000 F2400.00000
G1 X111.437 Y101.243 F7800.000
G1 E0.00000 F2400.00000
G1 F1200.000
G1 X111.429 Y95.828 E0.43102
G1 X111.397 Y95.420 E0.46187
G1 X111.359 Y95.146 E0.47953
G1 X111.343 Y95.067 E0.48432
G1 X111.327 Y94.987 E0.48870
G1 X111.311 Y94.907 E0.49268
G1 X111.275 Y94.759 E0.49941
G1 X111.256 Y94.690 E0.50214
G1 X111.237 Y94.621 E0.50446
G1 X111.217 Y94.552 E0.50636
G1 X111.198 Y94.483 E0.50785
G1 X111.164 Y94.377 E0.50950
G1 X111.151 Y94.340 E0.50982
G92 E0
G1 E-2.00000 F2400.00000
G1 X103.632 Y93.500 F7800.000
G1 E0.00000 F2400.00000
G1 F1200.000
G1 X109.180 Y93.509 E0.35506
G1 X109.595 Y93.541 E0.37993
G1 X109.876 Y93.581 E0.39352
G1 X109.957 Y93.597 E0.39709
G1 X110.039 Y93.613 E0.40023
G1 X110.121 Y93.630 E0.40295
G1 X110.258 Y93.662 E0.40683
G1 X110.313 Y93.677 E0.40814
G1 X110.369 Y93.693 E0.40917
G1 X110.424 Y93.709 E0.40991
G1 X110.480 Y93.724 E0.41037
G92 E0
G1 E-2.00000 F2400.00000
G1 X103.347 Y94.183 F7800.000
G1 E0.00000 F2400.00000
G1 F1200.000
G1 X102.852 Y93.688 E0.02943
G1 X102.349 Y93.688 E0.05057
G1 X103.187 Y94.526 E0.10038
G1 X103.187 Y95.029 E0.12152
G1 X101.846 Y93.688 E0.20123
G1 X101.343 Y93.688 E0.22236
G1 X103.187 Y95.532 E0.33196
G1 X103.187 Y96.035 E0.35310
G1 X100.840 Y93.688 E0.49259
G1 X100.337 Y93.688 E0.51373
G1 X103.187 Y96.538 E0.68311
G1 X103.187 Y97.041 E0.70425
G1 X99.834 Y93.688 E0.90352
G1 X99.331 Y93.688 E0.92466
G1 X100.513 Y94.869 E0.99487
G1 X100.325 Y94.823 E1.00300
G1 X99.964 Y94.823 E1.01819
G1 X98.829 Y93.688 E1.08566
G1 X98.326 Y93.688 E1.10679
G1 X99.503 Y94.865 E1.17678
G1 X99.100 Y94.965 E1.19424
G1 X97.823 Y93.688 E1.27014
G1 X97.320 Y93.688 E1.29128
G1 X98.760 Y95.128 E1.37685
G1 X98.440 Y95.311 E1.39234
G1 X96.813 Y93.688 E1.48893
G1 X96.813 Y94.187 E1.50990
G1 X98.163 Y95.537 E1.59014
G1 X97.927 Y95.803 E1.60511
G1 X96.813 Y94.690 E1.67130
G1 X96.813 Y95.193 E1.69244
G1 X97.713 Y96.093 E1.74593
G1 X97.599 Y96.281 E1.75516
G1 X97.544 Y96.427 E1.76173
G1 X96.813 Y95.696 E1.80518
G1 X96.813 Y96.199 E1.82631
G1 X97.406 Y96.791 E1.86155
G1 X97.323 Y97.212 E1.87955
G1 X96.813 Y96.702 E1.90987
G1 X96.813 Y97.204 E1.93100
G1 X97.323 Y97.715 E1.96132
G1 X97.395 Y98.179 E1.98108
G1 X97.462 Y98.356 E1.98903
G1 X96.813 Y97.707 E2.02759
G1 X96.813 Y98.210 E2.04872
G1 X104.915 Y106.312 E2.53027
G1 X105.418 Y106.312 E2.55141
G1 X99.144 Y100.038 E2.92431
G1 X99.321 Y100.105 E2.93225
G1 X99.785 Y100.177 E2.95202
G1 X105.921 Y106.312 E3.31667
G1 X106.423 Y106.312 E3.33781
G1 X100.288 Y100.177 E3.70246
G1 X100.699 Y100.085 E3.72015
G1 X106.926 Y106.312 E4.09029
G1 X107.429 Y106.312 E4.11143
G1 X101.076 Y99.959 E4.48906
G1 X101.406 Y99.786 E4.50471
G1 X107.932 Y106.312 E4.89264
G1 X108.435 Y106.312 E4.91377
G1 X103.811 Y101.688 E5.18862
G1 X104.314 Y101.688 E5.20976
G1 X108.938 Y106.312 E5.48461
G1 X109.441 Y106.312 E5.50575
G1 X104.817 Y101.688 E5.78059
G1 X105.320 Y101.688 E5.80173
G1 X109.944 Y106.312 E6.07658
G1 X110.447 Y106.312 E6.09772
G1 X105.823 Y101.688 E6.37256
G1 X106.326 Y101.688 E6.39370
G1 X110.950 Y106.312 E6.66855
G1 X111.453 Y106.312 E6.68969
G1 X106.829 Y101.688 E6.96454
G1 X107.331 Y101.688 E6.98567
G1 X111.956 Y106.312 E7.26052
G1 X112.459 Y106.312 E7.28166
G1 X107.834 Y101.688 E7.55651
G1 X108.337 Y101.688 E7.57764
G1 X112.961 Y106.312 E7.85249
G1 X113.464 Y106.312 E7.87363
G1 X108.680 Y101.528 E8.15799
G92 E0
G1 E-2.00000 F2400.00000
G1 X103.347 Y101.224 F7800.000
G1 E0.00000 F2400.00000
G1 F1200.000
G1 X101.701 Y99.578 E0.09782
G1 X101.812 Y99.491 E0.10375
G1 X101.956 Y99.330 E0.11283
G1 X103.187 Y100.561 E0.18603
G1 X103.187 Y100.058 E0.20716
G1 X102.192 Y99.063 E0.26632
G1 X102.372 Y98.740 E0.28185
G1 X103.187 Y99.555 E0.33028
G1 X103.187 Y99.052 E0.35142
G1 X102.533 Y98.398 E0.39031
G1 X102.638 Y98.001 E0.40759
G1 X103.187 Y98.549 E0.44022
G1 X103.187 Y98.046 E0.46135
G1 X102.677 Y97.536 E0.49167
G1 X102.677 Y97.175 E0.50686
G1 X102.631 Y96.987 E0.51499
G1 X103.347 Y97.704 E0.55757
G92 E0
G1 E-2.00000 F2400.00000
G1 X96.368 Y93.500 F7800.000
G1 E0.00000 F2400.00000
G1 F1200.000
G1 X91.020 Y93.500 E0.34230
G1 X90.617 Y93.520 E0.36814
G1 X90.311 Y93.552 E0.38508
G1 X90.208 Y93.569 E0.39025
G1 X90.105 Y93.585 E0.39485
G1 X89.932 Y93.618 E0.40169
G1 X89.861 Y93.635 E0.40414
G1 X89.791 Y93.652 E0.40622
G1 X89.720 Y93.669 E0.40793
G1 X89.649 Y93.686 E0.40927
G1 X89.543 Y93.713 E0.41075
G1 X89.507 Y93.724 E0.41105
G92 E0
G1 E-2.00000 F2400.00000
G1 X88.563 Y101.243 F7800.000
G1 E0.00000 F2400.00000
G1 F1200.000
G1 X88.563 Y96.018 E0.41588
G1 X88.583 Y95.617 E0.44785
G1 X88.611 Y95.326 E0.46843
G1 X88.639 Y95.158 E0.47951
G1 X88.657 Y95.070 E0.48478
G1 X88.674 Y94.983 E0.48957
G1 X88.691 Y94.896 E0.49388
G1 X88.731 Y94.724 E0.50150
G1 X88.772 Y94.580 E0.50630
G1 X88.792 Y94.521 E0.50793
G1 X88.811 Y94.462 E0.50917
G1 X88.830 Y94.402 E0.51005
G1 X88.849 Y94.343 E0.51055
G92 E0
G1 E-2.00000 F2400.00000
G1 X76.028 Y106.092 F7800.000
G1 E0.00000 F2400.00000
G1 F1200.000
G1 X76.248 Y106.312 E0.01309
G1 X76.751 Y106.312 E0.03423
G1 X76.188 Y105.749 E0.06770
G1 X76.188 Y105.246 E0.08884
G1 X77.254 Y106.312 E0.15221
G1 X77.757 Y106.312 E0.17334
G1 X76.188 Y104.743 E0.26660
G1 X76.188 Y104.240 E0.28774
G1 X78.260 Y106.312 E0.41089
G1 X78.763 Y106.312 E0.43203
G1 X76.188 Y103.737 E0.58507
G1 X76.188 Y103.688 E0.58714
G1 X76.642 Y103.688 E0.60621
G1 X79.266 Y106.312 E0.76218
G1 X79.769 Y106.312 E0.78332
G1 X77.144 Y103.688 E0.93929
G1 X77.647 Y103.688 E0.96043
G1 X80.272 Y106.312 E1.11640
G1 X80.774 Y106.312 E1.13754
G1 X78.150 Y103.688 E1.29351
G1 X78.653 Y103.688 E1.31465
G1 X81.277 Y106.312 E1.47062
G1 X81.780 Y106.312 E1.49176
G1 X79.156 Y103.688 E1.64773
G1 X79.659 Y103.688 E1.66887
G1 X82.283 Y106.312 E1.82484
G1 X82.786 Y106.312 E1.84598
G1 X80.162 Y103.688 E2.00195
G1 X80.665 Y103.688 E2.02309
G1 X83.289 Y106.312 E2.17906
