; generated by Slic3r++ 2.2.50 on 2020-05-14 at 16:39:12 UTC

; 

; external perimeters extrusion width = 0.45mm
; perimeters extrusion width = 0.45mm
; infill extrusion width = 0.45mm
; solid infill extrusion width = 0.45mm
; top infill extrusion width = 0.40mm
; first layer extrusion width = 0.42mm

; object:{"name":"1_Z_Motor_Mount_Right","id":"1_Z_Motor_Mount_Right.stl id:0 copy 0","object_center":[100.058725,90.325921,100.058725],"boundingbox_center":[90.325921,25.000000,59.000000],"boundingbox_size":[59.000000,50.000000,0.000000]}

M201 X9000 Y9000 Z500 E10000 ; sets maximum accelerations, mm/sec^2
M203 X500 Y500 Z12 E120 ; sets maximum feedrates, mm/sec
M204 P1500 R1500 T1500 ; sets acceleration (P, T) and retract acceleration (R), mm/sec^2
M205 X10.00 Y10.00 Z0.20 E2.50 ; sets the jerk limits, mm/sec
M205 S0 T0 ; sets the minimum extruding and travel feed rate, mm/sec
M107
M190 S60 ; set bed temperature and wait for it to be reached
M104 S185 ; set temperature
G28 ; home all axes
G1 Z5 F5000 ; lift nozzle
M109 S185 ; set temperature and wait for it to be reached
G21 ; set units to millimeters
G90 ; use absolute coordinates
M82 ; use absolute distances for extrusion
G92 E0
; Filament gcode
G1 Z0.300 F7800.000
G1 E-2.00000 F2400.00000
G1 X65.999 Y56.633 F7800.000
G1 E0.00000 F2400.00000
G1 F1800.000
G1 X66.921 Y55.813 E0.05473
G1 X67.981 Y55.194 E0.10918
G1 X69.143 Y54.796 E0.16363
G1 X70.366 Y54.635 E0.21836
G1 X129.565 Y54.632 E2.84412
G1 X130.720 Y54.742 E2.89559
G1 X131.840 Y55.067 E2.94733
G1 X132.874 Y55.594 E2.99880
G1 X133.792 Y56.304 E3.05027
G1 X134.561 Y57.173 E3.10173
G1 X135.154 Y58.170 E3.15320
G1 X135.552 Y59.261 E3.20467
G1 X135.739 Y60.412 E3.25641
G1 X135.751 Y118.986 E5.85444
G1 X135.622 Y120.090 E5.90374
G1 X135.299 Y121.153 E5.95303
G1 X134.791 Y122.141 E6.00233
G1 X134.118 Y123.018 E6.05135
G1 X133.493 Y123.610 E6.08950
G1 X132.793 Y124.109 E6.12765
G1 X132.030 Y124.506 E6.16580
G1 X131.225 Y124.791 E6.20368
G1 X124.292 Y125.945 E6.51543
G1 X123.367 Y126.020 E6.55657
G1 X97.667 Y126.019 E7.69651
G1 X70.276 Y125.013 E8.91224
G1 X69.211 Y124.871 E8.95990
G1 X68.181 Y124.545 E9.00784
G1 X67.223 Y124.045 E9.05578
G1 X66.366 Y123.385 E9.10372
G1 X65.524 Y122.434 E9.16007
G1 X64.894 Y121.331 E9.21642
G1 X64.502 Y120.122 E9.27278
G1 X64.365 Y118.859 E9.32913
G1 X64.367 Y60.666 E11.91027
G1 X64.495 Y59.562 E11.95957
G1 X64.819 Y58.499 E12.00886
G1 X65.327 Y57.510 E12.05816
G1 X65.963 Y56.681 E12.10452
; printing object 1_Z_Motor_Mount_Right.stl id:0 copy 0
G92 E0
G1 E-2.00000 F2400.00000
G1 X84.206 Y97.801 F7800.000
G1 E0.00000 F2400.00000
G1 F900.000
G1 X83.853 Y97.959 E0.01714
G1 X83.529 Y98.169 E0.03428
G1 X83.240 Y98.426 E0.05142
G1 X82.994 Y98.724 E0.06856
G1 X82.797 Y99.056 E0.08570
G1 X82.652 Y99.414 E0.10283
G1 X82.564 Y99.791 E0.11998
G1 X82.535 Y100.176 E0.13711
G1 X82.564 Y100.561 E0.15425
G1 X82.652 Y100.937 E0.17139
G1 X82.797 Y101.296 E0.18853
G1 X82.994 Y101.628 E0.20567
G1 X83.240 Y101.926 E0.22281
G1 X83.529 Y102.183 E0.23995
G1 X83.853 Y102.393 E0.25709
G1 X84.206 Y102.551 E0.27423
G1 X84.578 Y102.654 E0.29137
G1 X84.962 Y102.698 E0.30851
G1 X85.153 Y102.691 E0.31696
G1 X85.348 Y102.683 E0.32564
G1 X85.728 Y102.610 E0.34278
G1 X86.091 Y102.479 E0.35992
G1 X86.431 Y102.294 E0.37706
G1 X86.738 Y102.060 E0.39420
G1 X87.006 Y101.782 E0.41134
G1 X87.228 Y101.466 E0.42848
G1 X87.400 Y101.119 E0.44562
G1 X87.516 Y100.751 E0.46276
G1 X87.575 Y100.369 E0.47990
G1 X87.575 Y99.983 E0.49703
G1 X87.516 Y99.601 E0.51417
G1 X87.400 Y99.232 E0.53132
G1 X87.228 Y98.886 E0.54846
G1 X87.006 Y98.570 E0.56559
G1 X86.738 Y98.292 E0.58273
G1 X86.431 Y98.057 E0.59987
G1 X86.091 Y97.873 E0.61701
G1 X85.728 Y97.742 E0.63415
G1 X85.348 Y97.669 E0.65129
G1 X84.962 Y97.654 E0.66843
G1 X84.578 Y97.698 E0.68557
G1 X84.263 Y97.785 E0.70005
G1 X84.358 Y98.128 F7800.000
G1 F900.000
G1 X84.023 Y98.272 E0.71620
G1 X83.745 Y98.452 E0.73092
G1 X83.497 Y98.673 E0.74563
G1 X83.286 Y98.929 E0.76035
G1 X83.117 Y99.214 E0.77507
G1 X82.992 Y99.522 E0.78978
G1 X82.917 Y99.845 E0.80450
G1 X82.891 Y100.176 E0.81922
G1 X82.917 Y100.507 E0.83393
G1 X82.992 Y100.830 E0.84865
G1 X83.117 Y101.138 E0.86337
G1 X83.286 Y101.423 E0.87809
G1 X83.497 Y101.679 E0.89281
G1 X83.745 Y101.900 E0.90752
G1 X84.023 Y102.080 E0.92224
G1 X84.326 Y102.216 E0.93696
G1 X84.646 Y102.304 E0.95168
G1 X84.976 Y102.342 E0.96639
G1 X85.139 Y102.335 E0.97364
G1 X85.307 Y102.329 E0.98111
G1 X85.633 Y102.266 E0.99583
G1 X85.945 Y102.154 E1.01054
G1 X86.237 Y101.995 E1.02526
G1 X86.501 Y101.794 E1.03998
G1 X86.731 Y101.555 E1.05470
G1 X86.922 Y101.283 E1.06941
G1 X87.069 Y100.986 E1.08413
G1 X87.169 Y100.670 E1.09885
G1 X87.220 Y100.342 E1.11357
G1 X87.220 Y100.010 E1.12828
G1 X87.169 Y99.682 E1.14300
G1 X87.069 Y99.366 E1.15772
G1 X86.922 Y99.068 E1.17243
G1 X86.731 Y98.797 E1.18715
G1 X86.501 Y98.558 E1.20187
G1 X86.237 Y98.357 E1.21659
G1 X85.945 Y98.198 E1.23130
G1 X85.633 Y98.086 E1.24602
G1 X85.307 Y98.023 E1.26074
G1 X84.976 Y98.010 E1.27545
G1 X84.646 Y98.048 E1.29017
G1 X84.416 Y98.112 E1.30078
G1 X85.128 Y98.372 F7800.000
G1 F900.000
G1 X84.989 Y98.367 E1.30692
G1 X84.714 Y98.398 E1.31922
G1 X84.447 Y98.472 E1.33152
G1 X84.194 Y98.585 E1.34381
G1 X83.961 Y98.736 E1.35611
G1 X83.754 Y98.920 E1.36840
G1 X83.578 Y99.134 E1.38070
G1 X83.436 Y99.373 E1.39299
G1 X83.332 Y99.630 E1.40529
G1 X83.269 Y99.900 E1.41758
G1 X83.248 Y100.176 E1.42988
G1 X83.269 Y100.452 E1.44217
G1 X83.332 Y100.722 E1.45447
G1 X83.436 Y100.979 E1.46676
G1 X83.578 Y101.218 E1.47906
G1 X83.754 Y101.431 E1.49135
G1 X83.961 Y101.616 E1.50365
G1 X84.194 Y101.767 E1.51595
G1 X84.447 Y101.880 E1.52824
G1 X84.714 Y101.953 E1.54054
G1 X84.989 Y101.985 E1.55283
G1 X85.266 Y101.975 E1.56512
G1 X85.538 Y101.922 E1.57742
G1 X85.799 Y101.828 E1.58971
G1 X86.043 Y101.696 E1.60201
G1 X86.263 Y101.528 E1.61431
G1 X86.456 Y101.328 E1.62660
G1 X86.615 Y101.101 E1.63890
G1 X86.738 Y100.853 E1.65119
G1 X86.822 Y100.588 E1.66349
G1 X86.864 Y100.315 E1.67578
G1 X86.864 Y100.037 E1.68808
G1 X86.822 Y99.763 E1.70037
G1 X86.738 Y99.499 E1.71267
G1 X86.615 Y99.251 E1.72496
G1 X86.456 Y99.024 E1.73726
G1 X86.263 Y98.824 E1.74955
G1 X86.043 Y98.656 E1.76185
G1 X85.799 Y98.524 E1.77415
G1 X85.538 Y98.430 E1.78644
G1 X85.188 Y98.374 E1.80219
G1 X85.067 Y98.247 F7800.000
G92 E0
G1 E-2.00000 F2400.00000
G1 X80.651 Y89.139 F7800.000
G1 E0.00000 F2400.00000
G1 F900.000
G1 X81.201 Y88.817 E0.02826
G1 X81.587 Y88.523 E0.04979
G1 X81.944 Y88.193 E0.07132
G1 X82.266 Y87.831 E0.09284
G1 X82.553 Y87.439 E0.11437
G1 X82.800 Y87.021 E0.13589
G1 X83.005 Y86.582 E0.15742
G1 X83.168 Y86.124 E0.17894
G1 X83.285 Y85.653 E0.20047
G1 X83.356 Y85.173 E0.22199
G1 X83.381 Y84.689 E0.24352
G1 X83.359 Y84.204 E0.26504
G1 X83.290 Y83.724 E0.28657
G1 X83.175 Y83.252 E0.30810
G1 X83.015 Y82.794 E0.32962
G1 X82.812 Y82.353 E0.35114
G1 X82.567 Y81.934 E0.37267
G1 X82.282 Y81.541 E0.39420
G1 X81.962 Y81.177 E0.41572
G1 X81.607 Y80.845 E0.43725
G1 X81.222 Y80.550 E0.45877
G1 X80.811 Y80.293 E0.48030
G1 X80.376 Y80.077 E0.50183
G1 X79.923 Y79.903 E0.52335
G1 X79.455 Y79.775 E0.54488
G1 X78.977 Y79.692 E0.56640
G1 X78.493 Y79.655 E0.58793
G1 X78.008 Y79.666 E0.60945
G1 X77.526 Y79.723 E0.63098
G1 X77.051 Y79.827 E0.65251
G1 X76.589 Y79.976 E0.67403
G1 X76.144 Y80.168 E0.69555
G1 X75.719 Y80.403 E0.71708
G1 X75.319 Y80.678 E0.73861
G1 X74.948 Y80.990 E0.76013
G1 X74.608 Y81.336 E0.78165
G1 X74.303 Y81.714 E0.80318
G1 X74.036 Y82.119 E0.82470
G1 X73.809 Y82.548 E0.84622
G1 X73.625 Y82.997 E0.86775
G1 X73.485 Y83.462 E0.88927
G1 X73.391 Y83.938 E0.91079
G1 X73.343 Y84.421 E0.93232
G1 X73.342 Y84.906 E0.95384
G1 X73.387 Y85.389 E0.97536
G1 X73.479 Y85.865 E0.99689
G1 X73.617 Y86.331 E1.01841
G1 X73.799 Y86.781 E1.03993
G1 X74.023 Y87.211 E1.06146
G1 X74.288 Y87.617 E1.08298
G1 X74.591 Y87.997 E1.10450
G1 X74.929 Y88.345 E1.12603
G1 X75.299 Y88.659 E1.14755
G1 X75.698 Y88.935 E1.16908
G1 X76.121 Y89.172 E1.19061
G1 X76.566 Y89.367 E1.21213
G1 X77.027 Y89.518 E1.23366
G1 X77.500 Y89.624 E1.25518
G1 X77.982 Y89.684 E1.27671
G1 X78.467 Y89.697 E1.29823
G1 X78.951 Y89.663 E1.31976
G1 X79.430 Y89.583 E1.34128
G1 X79.898 Y89.456 E1.36281
G1 X80.353 Y89.285 E1.38433
G1 X80.597 Y89.165 E1.39644
G1 X80.441 Y88.846 F7800.000
G1 F900.000
G1 X80.616 Y88.760 E1.40510
G1 X81.000 Y88.523 E1.42510
G1 X81.359 Y88.250 E1.44510
G1 X81.690 Y87.944 E1.46510
G1 X81.989 Y87.607 E1.48509
G1 X82.255 Y87.243 E1.50509
G1 X82.485 Y86.855 E1.52509
G1 X82.676 Y86.447 E1.54509
G1 X82.827 Y86.022 E1.56509
G1 X82.936 Y85.584 E1.58509
G1 X83.002 Y85.138 E1.60509
G1 X83.025 Y84.688 E1.62509
G1 X83.004 Y84.237 E1.64509
G1 X82.940 Y83.791 E1.66509
G1 X82.834 Y83.353 E1.68509
G1 X82.685 Y82.927 E1.70509
G1 X82.496 Y82.518 E1.72509
G1 X82.268 Y82.129 E1.74509
G1 X82.004 Y81.763 E1.76509
G1 X81.706 Y81.425 E1.78509
G1 X81.377 Y81.117 E1.80509
G1 X81.019 Y80.842 E1.82509
G1 X80.637 Y80.603 E1.84509
G1 X80.233 Y80.403 E1.86509
G1 X79.812 Y80.242 E1.88509
G1 X79.377 Y80.122 E1.90509
G1 X78.933 Y80.045 E1.92509
G1 X78.483 Y80.011 E1.94508
G1 X78.032 Y80.021 E1.96508
G1 X77.585 Y80.074 E1.98508
G1 X77.144 Y80.170 E2.00508
G1 X76.715 Y80.309 E2.02508
G1 X76.301 Y80.488 E2.04508
G1 X75.906 Y80.706 E2.06508
G1 X75.535 Y80.961 E2.08508
G1 X75.189 Y81.251 E2.10508
G1 X74.874 Y81.573 E2.12508
G1 X74.590 Y81.924 E2.14508
G1 X74.342 Y82.300 E2.16507
G1 X74.132 Y82.699 E2.18507
G1 X73.961 Y83.116 E2.20507
G1 X73.831 Y83.548 E2.22507
G1 X73.743 Y83.990 E2.24506
G1 X73.698 Y84.439 E2.26506
G1 X73.697 Y84.889 E2.28506
G1 X73.740 Y85.338 E2.30506
G1 X73.825 Y85.781 E2.32505
G1 X73.953 Y86.213 E2.34505
G1 X74.122 Y86.631 E2.36505
G1 X74.330 Y87.031 E2.38505
G1 X74.577 Y87.409 E2.40504
G1 X74.858 Y87.761 E2.42504
G1 X75.172 Y88.085 E2.44504
G1 X75.516 Y88.376 E2.46504
G1 X75.886 Y88.633 E2.48504
G1 X76.280 Y88.854 E2.50504
G1 X76.693 Y89.035 E2.52504
G1 X77.121 Y89.175 E2.54504
G1 X77.561 Y89.274 E2.56504
G1 X78.009 Y89.329 E2.58503
G1 X78.459 Y89.341 E2.60504
G1 X78.909 Y89.310 E2.62504
G1 X79.354 Y89.235 E2.64503
G1 X79.789 Y89.118 E2.66503
G1 X80.211 Y88.959 E2.68503
G1 X80.387 Y88.872 E2.69371
G1 X80.230 Y88.553 F7800.000
G1 F900.000
G1 X80.444 Y88.448 E2.70427
G1 X80.798 Y88.229 E2.72274
G1 X81.130 Y87.977 E2.74122
G1 X81.435 Y87.695 E2.75969
G1 X81.712 Y87.384 E2.77816
G1 X81.958 Y87.047 E2.79664
G1 X82.170 Y86.689 E2.81511
G1 X82.347 Y86.312 E2.83359
G1 X82.486 Y85.919 E2.85206
G1 X82.587 Y85.515 E2.87053
G1 X82.648 Y85.103 E2.88901
G1 X82.669 Y84.687 E2.90748
G1 X82.650 Y84.271 E2.92595
G1 X82.591 Y83.859 E2.94443
G1 X82.492 Y83.454 E2.96290
G1 X82.355 Y83.061 E2.98137
G1 X82.180 Y82.683 E2.99985
G1 X81.970 Y82.323 E3.01832
G1 X81.726 Y81.985 E3.03680
G1 X81.451 Y81.673 E3.05527
G1 X81.146 Y81.389 E3.07374
G1 X80.816 Y81.135 E3.09222
G1 X80.463 Y80.914 E3.11069
G1 X80.090 Y80.729 E3.12916
G1 X79.701 Y80.580 E3.14764
G1 X79.299 Y80.470 E3.16611
G1 X78.889 Y80.398 E3.18459
G1 X78.474 Y80.367 E3.20306
G1 X78.057 Y80.376 E3.22153
G1 X77.644 Y80.425 E3.24000
G1 X77.237 Y80.514 E3.25848
G1 X76.840 Y80.642 E3.27695
G1 X76.458 Y80.807 E3.29542
G1 X76.094 Y81.009 E3.31390
G1 X75.750 Y81.245 E3.33237
G1 X75.431 Y81.512 E3.35085
G1 X75.140 Y81.810 E3.36932
G1 X74.878 Y82.134 E3.38779
G1 X74.649 Y82.481 E3.40626
G1 X74.454 Y82.850 E3.42473
G1 X74.296 Y83.235 E3.44320
G1 X74.176 Y83.634 E3.46168
G1 X74.095 Y84.042 E3.48015
G1 X74.054 Y84.457 E3.49862
G1 X74.053 Y84.873 E3.51709
G1 X74.092 Y85.288 E3.53556
G1 X74.171 Y85.697 E3.55403
G1 X74.289 Y86.096 E3.57251
G1 X74.445 Y86.482 E3.59098
G1 X74.638 Y86.851 E3.60945
G1 X74.865 Y87.200 E3.62792
G1 X75.125 Y87.526 E3.64639
G1 X75.415 Y87.824 E3.66487
G1 X75.733 Y88.094 E3.68334
G1 X76.075 Y88.331 E3.70181
G1 X76.438 Y88.535 E3.72029
G1 X76.820 Y88.702 E3.73876
G1 X77.216 Y88.832 E3.75723
G1 X77.622 Y88.923 E3.77571
G1 X78.035 Y88.974 E3.79418
G1 X78.452 Y88.985 E3.81265
G1 X78.867 Y88.956 E3.83113
G1 X79.278 Y88.887 E3.84960
G1 X79.680 Y88.779 E3.86807
G1 X80.176 Y88.580 E3.89178
G1 X80.425 Y88.690 F7800.000
G92 E0
G1 E-2.00000 F2400.00000
G1 X84.578 Y71.654 F7800.000
G1 E0.00000 F2400.00000
G1 F900.000
G1 X84.962 Y71.698 E0.01714
G1 X85.348 Y71.683 E0.03428
G1 X85.728 Y71.610 E0.05142
G1 X86.091 Y71.479 E0.06856
G1 X86.431 Y71.294 E0.08569
G1 X86.738 Y71.060 E0.10283
G1 X87.006 Y70.782 E0.11997
G1 X87.228 Y70.466 E0.13711
G1 X87.400 Y70.119 E0.15425
G1 X87.516 Y69.751 E0.17140
G1 X87.575 Y69.369 E0.18853
G1 X87.575 Y68.983 E0.20567
G1 X87.516 Y68.601 E0.22281
G1 X87.400 Y68.232 E0.23995
G1 X87.228 Y67.886 E0.25709
G1 X87.006 Y67.570 E0.27423
G1 X86.738 Y67.292 E0.29137
G1 X86.431 Y67.057 E0.30851
G1 X86.091 Y66.873 E0.32565
G1 X85.728 Y66.742 E0.34278
G1 X85.348 Y66.669 E0.35992
G1 X85.153 Y66.661 E0.36861
G1 X84.962 Y66.654 E0.37706
G1 X84.578 Y66.698 E0.39420
G1 X84.206 Y66.801 E0.41134
G1 X83.853 Y66.959 E0.42848
G1 X83.529 Y67.169 E0.44562
G1 X83.240 Y67.426 E0.46276
G1 X82.994 Y67.724 E0.47990
G1 X82.797 Y68.056 E0.49704
G1 X82.652 Y68.414 E0.51418
G1 X82.564 Y68.791 E0.53132
G1 X82.535 Y69.176 E0.54846
G1 X82.564 Y69.561 E0.56559
G1 X82.652 Y69.937 E0.58273
G1 X82.797 Y70.296 E0.59987
G1 X82.994 Y70.628 E0.61701
G1 X83.240 Y70.926 E0.63415
G1 X83.529 Y71.183 E0.65129
G1 X83.853 Y71.393 E0.66843
G1 X84.206 Y71.551 E0.68557
G1 X84.520 Y71.638 E0.70005
G1 X84.615 Y71.295 F7800.000
G1 F900.000
G1 X84.976 Y71.342 E0.71620
G1 X85.307 Y71.329 E0.73092
G1 X85.633 Y71.266 E0.74563
G1 X85.945 Y71.154 E0.76035
G1 X86.237 Y70.995 E0.77507
G1 X86.501 Y70.794 E0.78978
G1 X86.731 Y70.555 E0.80450
G1 X86.922 Y70.283 E0.81922
G1 X87.069 Y69.986 E0.83394
G1 X87.169 Y69.670 E0.84866
G1 X87.220 Y69.342 E0.86337
G1 X87.220 Y69.010 E0.87809
G1 X87.169 Y68.682 E0.89280
G1 X87.069 Y68.366 E0.90752
G1 X86.922 Y68.068 E0.92224
G1 X86.731 Y67.797 E0.93696
G1 X86.501 Y67.558 E0.95168
G1 X86.237 Y67.357 E0.96639
G1 X85.945 Y67.198 E0.98111
G1 X85.633 Y67.086 E0.99583
G1 X85.307 Y67.023 E1.01054
G1 X85.139 Y67.016 E1.01802
G1 X84.976 Y67.010 E1.02526
G1 X84.646 Y67.048 E1.03998
G1 X84.326 Y67.136 E1.05470
G1 X84.023 Y67.272 E1.06941
G1 X83.745 Y67.452 E1.08413
G1 X83.497 Y67.673 E1.09885
G1 X83.286 Y67.929 E1.11357
G1 X83.117 Y68.214 E1.12828
G1 X82.992 Y68.522 E1.14300
G1 X82.917 Y68.845 E1.15772
G1 X82.891 Y69.176 E1.17243
G1 X82.917 Y69.507 E1.18715
G1 X82.992 Y69.830 E1.20187
G1 X83.117 Y70.138 E1.21659
G1 X83.286 Y70.423 E1.23130
G1 X83.497 Y70.679 E1.24602
G1 X83.745 Y70.900 E1.26074
G1 X84.023 Y71.080 E1.27545
G1 X84.326 Y71.216 E1.29017
G1 X84.557 Y71.279 E1.30078
G1 X84.714 Y70.953 F7800.000
G1 F900.000
G1 X84.989 Y70.985 E1.31307
G1 X85.266 Y70.975 E1.32537
G1 X85.538 Y70.922 E1.33766
G1 X85.799 Y70.828 E1.34996
G1 X86.043 Y70.696 E1.36225
G1 X86.263 Y70.528 E1.37455
G1 X86.456 Y70.328 E1.38684
G1 X86.615 Y70.101 E1.39914
G1 X86.738 Y69.853 E1.41143
G1 X86.822 Y69.588 E1.42373
G1 X86.864 Y69.315 E1.43603
G1 X86.864 Y69.037 E1.44832
G1 X86.822 Y68.763 E1.46061
G1 X86.738 Y68.499 E1.47291
G1 X86.615 Y68.251 E1.48521
G1 X86.456 Y68.024 E1.49750
G1 X86.263 Y67.824 E1.50980
G1 X86.043 Y67.656 E1.52209
G1 X85.799 Y67.524 E1.53439
G1 X85.538 Y67.430 E1.54668
G1 X85.266 Y67.377 E1.55898
G1 X85.125 Y67.372 E1.56524
G1 X84.989 Y67.367 E1.57127
G1 X84.714 Y67.398 E1.58357
G1 X84.447 Y67.472 E1.59586
G1 X84.194 Y67.585 E1.60816
G1 X83.961 Y67.736 E1.62045
G1 X83.754 Y67.920 E1.63275
G1 X83.578 Y68.134 E1.64505
G1 X83.436 Y68.373 E1.65734
G1 X83.332 Y68.630 E1.66964
G1 X83.269 Y68.900 E1.68193
G1 X83.248 Y69.176 E1.69423
G1 X83.269 Y69.452 E1.70652
G1 X83.332 Y69.722 E1.71882
G1 X83.436 Y69.979 E1.73111
G1 X83.578 Y70.218 E1.74341
G1 X83.754 Y70.431 E1.75570
G1 X83.961 Y70.616 E1.76800
G1 X84.194 Y70.767 E1.78029
G1 X84.447 Y70.880 E1.79259
G1 X84.656 Y70.938 E1.80222
G1 X84.811 Y71.213 F7800.000
G92 E0
G1 E-2.00000 F2400.00000
G1 X90.494 Y75.797 F7800.000
G1 E0.00000 F2400.00000
G1 F1800.000
G1 X90.016 Y76.370 E0.03310
G1 X89.570 Y76.969 E0.06620
G1 X89.159 Y77.592 E0.09929
G1 X88.783 Y78.236 E0.13239
G1 X88.443 Y78.901 E0.16549
G1 X88.141 Y79.583 E0.19858
