; generated by Slic3r++ 2.2.50 on 2020-05-23 at 06:34:45 UTC

; 

; external perimeters extrusion width = 0.45mm
; perimeters extrusion width = 0.45mm
; infill extrusion width = 0.45mm
; solid infill extrusion width = 0.45mm
; top infill extrusion width = 0.40mm
; first layer extrusion width = 0.42mm

; object:{"name":"1_Z_Rod_Holder_Left","id":"1_Z_Rod_Holder_Left.stl id:0 copy 0","object_center":[100.000000,100.000000,100.000000],"boundingbox_center":[100.000000,15.000000,60.000000],"boundingbox_size":[66.139488,30.000000,0.000000]}

M201 X9000 Y9000 Z500 E10000 ; sets maximum accelerations, mm/sec^2
M203 X500 Y500 Z12 E120 ; sets maximum feedrates, mm/sec
M204 P1500 R1500 T1500 ; sets acceleration (P, T) and retract acceleration (R), mm/sec^2
M205 X10.00 Y10.00 Z0.20 E2.50 ; sets the jerk limits, mm/sec
M205 S0 T0 ; sets the minimum extruding and travel feed rate, mm/sec
M107
M190 S60 ; set bed temperature and wait for it to be reached
M104 S200 ; set temperature
G28 ; home all axes
G1 Z5 F5000 ; lift nozzle
M109 S200 ; set temperature and wait for it to be reached
G21 ; set units to millimeters
G90 ; use absolute coordinates
M82 ; use absolute distances for extrusion
G92 E0
; Filament gcode
G1 Z0.200 F7800.000
G1 E-2.00000 F2400.00000
G1 X83.880 Y85.858 F7800.000
G1 E0.00000 F2400.00000
M204 S1250
G1 F1200.000
G1 X108.002 Y62.291 E1.05738
G1 X108.809 Y61.688 E1.08895
G1 X109.697 Y61.227 E1.12032
G1 X110.653 Y60.913 E1.15189
G1 X111.648 Y60.758 E1.18346
G1 X129.304 Y60.742 E1.73705
G1 X130.465 Y60.853 E1.77361
G1 X131.584 Y61.179 E1.81016
G1 X132.622 Y61.710 E1.84672
G1 X133.538 Y62.422 E1.88309
G1 X134.305 Y63.293 E1.91946
G1 X134.898 Y64.296 E1.95602
G1 X135.293 Y65.393 E1.99257
G1 X135.475 Y66.545 E2.02913
G1 X136.188 Y108.001 E3.32914
G1 X136.187 Y133.193 E4.11901
G1 X136.031 Y134.459 E4.15902
G1 X135.615 Y135.672 E4.19922
G1 X134.958 Y136.773 E4.23942
G1 X134.093 Y137.711 E4.27943
G1 X133.260 Y138.330 E4.31196
G1 X132.330 Y138.803 E4.34468
G1 X131.340 Y139.112 E4.37721
G1 X130.305 Y139.251 E4.40993
G1 X109.926 Y139.258 E5.04890
G1 X109.063 Y139.187 E5.07605
G1 X108.225 Y138.998 E5.10301
G1 X107.243 Y138.610 E5.13611
G1 X67.189 Y118.583 E6.54022
G1 X66.204 Y117.958 E6.57678
G1 X65.359 Y117.163 E6.61314
G1 X64.715 Y116.289 E6.64721
G1 X64.233 Y115.315 E6.68127
G1 X63.929 Y114.272 E6.71534
G1 X63.813 Y113.185 E6.74959
G1 X63.812 Y108.002 E6.91211
G1 X63.876 Y107.176 E6.93811
G1 X64.042 Y106.395 E6.96314
G1 X64.308 Y105.642 E6.98817
G1 X64.665 Y104.934 E7.01302
G1 X65.113 Y104.273 E7.03805
G1 X65.668 Y103.650 E7.06424
G1 X83.837 Y85.900 E7.86065
M204 S1500
; printing object 1_Z_Rod_Holder_Left.stl id:0 copy 0
G92 E0
G1 E-2.00000 F2400.00000
G1 X93.114 Y91.582 F7800.000
G1 E0.00000 F2400.00000
M204 S1250
G1 F1200.000
G1 X92.616 Y91.713 E0.01614
G1 X92.268 Y91.951 E0.02936
G1 X77.296 Y106.583 E0.68576
G1 X77.050 Y106.928 E0.69904
G1 X76.926 Y107.353 E0.71290
G1 X76.913 Y107.681 E0.72320
G1 X77.012 Y108.128 E0.73754
G1 X77.254 Y108.516 E0.75188
G1 X77.492 Y108.742 E0.76219
G1 X77.878 Y108.958 E0.77605
G1 X78.294 Y109.034 E0.78933
G1 X107.499 Y109.034 E1.70503
G1 X107.910 Y108.961 E1.71810
G1 X108.296 Y108.748 E1.73193
G1 X108.534 Y108.525 E1.74215
G1 X108.777 Y108.143 E1.75635
G1 X108.880 Y107.702 E1.77055
G1 X108.873 Y107.376 E1.78077
G1 X108.756 Y106.951 E1.79461
G1 X108.521 Y106.607 E1.80768
G1 X94.245 Y91.999 E2.44810
G1 X94.050 Y91.833 E2.45613
G1 X93.635 Y91.634 E2.47058
G1 X93.173 Y91.588 E2.48510
M204 S1500
G1 X92.630 Y92.160 F7800.000
M204 S1250
G1 F1200.000
G1 X92.509 Y92.244 E2.48974
G1 X77.583 Y106.829 E3.14405
G1 X77.394 Y107.095 E3.15429
G1 X77.301 Y107.414 E3.16469
G1 X77.292 Y107.647 E3.17201
G1 X77.366 Y107.983 E3.18281
G1 X77.548 Y108.276 E3.19361
G1 X77.717 Y108.436 E3.20093
G1 X78.007 Y108.599 E3.21133
G1 X78.328 Y108.657 E3.22157
G1 X107.466 Y108.657 E4.13517
G1 X107.782 Y108.601 E4.14523
G1 X108.073 Y108.441 E4.15563
G1 X108.241 Y108.283 E4.16288
G1 X108.424 Y107.995 E4.17358
G1 X108.502 Y107.663 E4.18427
G1 X108.497 Y107.431 E4.19153
G1 X108.409 Y107.112 E4.20192
G1 X108.228 Y106.847 E4.21199
G1 X93.988 Y92.275 E4.85081
G1 X93.843 Y92.152 E4.85677
G1 X93.531 Y92.002 E4.86762
G1 X93.144 Y91.964 E4.87982
G1 X92.775 Y92.061 E4.89178
G1 X92.680 Y92.126 E4.89540
M204 S1500
G1 X92.893 Y92.437 F7800.000
M204 S1250
G1 F1200.000
G1 X92.749 Y92.536 E4.90090
G1 X77.871 Y107.075 E5.55313
G1 X77.738 Y107.262 E5.56033
G1 X77.676 Y107.475 E5.56727
G1 X77.671 Y107.613 E5.57160
G1 X77.721 Y107.839 E5.57886
G1 X77.843 Y108.036 E5.58613
G1 X77.943 Y108.130 E5.59045
G1 X78.136 Y108.239 E5.59740
G1 X78.362 Y108.280 E5.60459
G1 X107.433 Y108.280 E6.51610
G1 X107.655 Y108.241 E6.52316
G1 X107.849 Y108.133 E6.53011
G1 X107.949 Y108.040 E6.53439
G1 X108.072 Y107.846 E6.54159
G1 X108.124 Y107.623 E6.54878
G1 X108.121 Y107.486 E6.55307
G1 X108.062 Y107.273 E6.56002
G1 X107.935 Y107.087 E6.56708
G1 X93.731 Y92.551 E7.20432
G1 X93.636 Y92.471 E7.20820
G1 X93.428 Y92.371 E7.21545
G1 X93.174 Y92.346 E7.22344
G1 X92.944 Y92.406 E7.23090
M204 S1500
G1 X92.743 Y92.347 F7800.000
G92 E0
G1 E-2.00000 F2400.00000
G1 X96.172 Y89.465 F7800.000
G1 E0.00000 F2400.00000
M204 S1250
G1 F1200.000
G1 X96.416 Y89.825 E0.01362
G1 X110.611 Y104.351 E0.65045
G1 X110.957 Y104.596 E0.66373
G1 X111.381 Y104.721 E0.67759
G1 X111.709 Y104.733 E0.68789
G1 X112.156 Y104.635 E0.70223
G1 X112.544 Y104.393 E0.71658
G1 X112.771 Y104.155 E0.72688
G1 X112.987 Y103.769 E0.74074
G1 X113.062 Y103.352 E0.75402
G1 X113.062 Y75.025 E1.64222
G1 X112.990 Y74.614 E1.65529
G1 X112.776 Y74.228 E1.66912
G1 X112.554 Y73.990 E1.67934
G1 X112.206 Y73.769 E1.69224
G1 X111.896 Y73.668 E1.70247
G1 X111.455 Y73.639 E1.71633
G1 X110.971 Y73.770 E1.73206
G1 X110.632 Y74.006 E1.74500
G1 X96.437 Y87.878 E2.36732
G1 X96.211 Y88.196 E2.37954
G1 X96.094 Y88.513 E2.39015
G1 X96.049 Y88.969 E2.40450
G1 X96.158 Y89.407 E2.41866
M204 S1500
G1 X96.522 Y89.309 F7800.000
M204 S1250
G1 F1200.000
G1 X96.709 Y89.585 E2.42912
G1 X110.857 Y104.063 E3.06383
G1 X111.124 Y104.252 E3.07407
G1 X111.442 Y104.346 E3.08447
G1 X111.675 Y104.355 E3.09179
G1 X112.011 Y104.280 E3.10259
G1 X112.304 Y104.098 E3.11339
G1 X112.465 Y103.929 E3.12071
G1 X112.627 Y103.640 E3.13111
G1 X112.685 Y103.319 E3.14135
G1 X112.685 Y75.058 E4.02745
G1 X112.629 Y74.742 E4.03751
G1 X112.469 Y74.451 E4.04791
G1 X112.311 Y74.282 E4.05516
G1 X112.044 Y74.113 E4.06507
G1 X111.824 Y74.041 E4.07232
G1 X111.493 Y74.019 E4.08273
G1 X111.133 Y74.117 E4.09444
G1 X110.873 Y74.297 E4.10434
G1 X96.725 Y88.124 E4.72462
G1 X96.548 Y88.373 E4.73421
G1 X96.464 Y88.598 E4.74173
G1 X96.431 Y88.941 E4.75252
G1 X96.508 Y89.251 E4.76254
M204 S1500
G1 X96.884 Y88.551 F7800.000
M204 S1250
G1 F1200.000
G1 X96.835 Y88.684 E4.76699
G1 X96.812 Y88.913 E4.77421
G1 X96.872 Y89.153 E4.78196
G1 X97.003 Y89.346 E4.78927
G1 X111.103 Y103.775 E5.42185
G1 X111.291 Y103.908 E5.42905
G1 X111.503 Y103.971 E5.43600
G1 X111.641 Y103.976 E5.44032
G1 X111.867 Y103.926 E5.44758
G1 X112.064 Y103.804 E5.45485
G1 X112.159 Y103.704 E5.45917
G1 X112.267 Y103.510 E5.46612
G1 X112.308 Y103.285 E5.47331
G1 X112.308 Y75.091 E6.35732
G1 X112.269 Y74.869 E6.36438
G1 X112.162 Y74.675 E6.37133
G1 X112.068 Y74.575 E6.37562
G1 X111.882 Y74.457 E6.38253
G1 X111.752 Y74.414 E6.38681
G1 X111.531 Y74.400 E6.39377
G1 X111.294 Y74.464 E6.40146
G1 X111.114 Y74.589 E6.40833
G1 X97.013 Y88.370 E7.02655
G1 X96.919 Y88.502 E7.03163
M204 S1500
G1 X96.743 Y88.562 F7800.000
G92 E0
G1 E-2.00000 F2400.00000
G1 X110.964 Y112.106 F7800.000
G1 E0.00000 F2400.00000
M204 S1250
G1 F1200.000
G1 X70.964 Y112.106 E1.25417
G1 X70.964 Y108.476 E1.36799
G1 X112.491 Y67.894 E3.18851
G1 X119.822 Y67.894 E3.41837
G1 X119.822 Y74.451 E3.62396
G1 X119.391 Y74.714 E3.63980
G1 X119.068 Y74.948 E3.65230
G1 X118.765 Y75.207 E3.66479
G1 X118.482 Y75.488 E3.67729
G1 X118.223 Y75.791 E3.68979
G1 X117.989 Y76.113 E3.70229
G1 X117.780 Y76.453 E3.71479
G1 X117.599 Y76.808 E3.72729
G1 X117.446 Y77.177 E3.73979
G1 X117.323 Y77.556 E3.75229
G1 X117.230 Y77.943 E3.76479
G1 X117.168 Y78.337 E3.77729
G1 X117.137 Y78.735 E3.78979
G1 X117.137 Y79.133 E3.80229
G1 X117.169 Y79.530 E3.81478
G1 X117.232 Y79.924 E3.82728
G1 X117.325 Y80.312 E3.83978
G1 X117.449 Y80.691 E3.85228
G1 X117.602 Y81.059 E3.86478
G1 X117.784 Y81.414 E3.87728
G1 X117.993 Y81.753 E3.88978
G1 X118.228 Y82.075 E3.90228
G1 X118.487 Y82.378 E3.91477
G1 X118.770 Y82.659 E3.92727
G1 X119.074 Y82.917 E3.93977
G1 X119.313 Y83.090 E3.94903
G1 X119.738 Y83.357 E3.96476
G1 X120.093 Y83.537 E3.97726
G1 X120.402 Y83.664 E3.98773
G1 X120.842 Y83.810 E4.00225
G1 X121.230 Y83.902 E4.01475
G1 X121.624 Y83.962 E4.02725
G1 X122.021 Y83.992 E4.03975
G1 X122.420 Y83.990 E4.05225
G1 X122.817 Y83.957 E4.06474
G1 X123.203 Y83.894 E4.07702
G1 X123.597 Y83.798 E4.08973
G1 X123.976 Y83.673 E4.10225
G1 X124.344 Y83.518 E4.11474
G1 X124.698 Y83.335 E4.12724
G1 X125.036 Y83.125 E4.13974
G1 X125.358 Y82.889 E4.15224
G1 X125.659 Y82.628 E4.16474
G1 X125.952 Y82.331 E4.17783
G1 X126.414 Y81.738 E4.20140
G1 X126.634 Y81.375 E4.21471
G1 X126.813 Y81.018 E4.22722
G1 X126.963 Y80.648 E4.23972
G1 X127.083 Y80.268 E4.25222
G1 X127.173 Y79.880 E4.26472
G1 X127.232 Y79.486 E4.27722
G1 X127.260 Y79.088 E4.28972
G1 X127.257 Y78.690 E4.30222
G1 X127.223 Y78.292 E4.31472
G1 X127.157 Y77.899 E4.32721
G1 X127.060 Y77.513 E4.33971
G1 X126.934 Y77.135 E4.35221
G1 X126.778 Y76.768 E4.36471
G1 X126.594 Y76.414 E4.37721
G1 X126.372 Y76.060 E4.39029
G1 X125.902 Y75.474 E4.41386
G1 X125.604 Y75.182 E4.42694
G1 X125.299 Y74.926 E4.43944
G1 X124.974 Y74.694 E4.45194
G1 X124.542 Y74.435 E4.46774
G1 X124.542 Y67.894 E4.67281
G1 X128.334 Y67.894 E4.79169
G1 X128.334 Y94.317 E5.62016
G1 X129.036 Y108.094 E6.05269
G1 X129.036 Y132.106 E6.80555
G1 X110.964 Y132.106 E7.37217
G1 X110.964 Y112.166 E7.99738
M204 S1500
G1 X110.587 Y112.483 F7800.000
M204 S1250
G1 F1200.000
G1 X70.587 Y112.483 E9.25155
G1 X70.587 Y108.317 E9.38217
G1 X112.337 Y67.517 E11.21249
G1 X120.199 Y67.517 E11.45899
G1 X120.199 Y74.692 E11.68395
G1 X119.915 Y74.836 E11.69394
G1 X119.600 Y75.029 E11.70551
G1 X119.301 Y75.245 E11.71708
G1 X119.020 Y75.484 E11.72865
G1 X118.759 Y75.745 E11.74021
G1 X118.519 Y76.025 E11.75178
G1 X118.302 Y76.323 E11.76335
G1 X118.109 Y76.638 E11.77492
G1 X117.942 Y76.966 E11.78648
G1 X117.800 Y77.307 E11.79805
G1 X117.686 Y77.658 E11.80962
G1 X117.600 Y78.017 E11.82119
G1 X117.543 Y78.381 E11.83276
G1 X117.514 Y78.749 E11.84432
G1 X117.514 Y79.118 E11.85589
G1 X117.544 Y79.486 E11.86746
G1 X117.602 Y79.850 E11.87903
G1 X117.688 Y80.209 E11.89059
G1 X117.803 Y80.560 E11.90216
G1 X117.945 Y80.900 E11.91373
G1 X118.113 Y81.229 E11.92530
G1 X118.306 Y81.543 E11.93687
G1 X118.524 Y81.841 E11.94843
G1 X118.764 Y82.121 E11.96000
G1 X119.025 Y82.381 E11.97157
G1 X119.307 Y82.620 E11.98314
G1 X119.606 Y82.836 E11.99470
G1 X119.921 Y83.027 E12.00627
G1 X120.250 Y83.194 E12.01784
G1 X120.591 Y83.334 E12.02941
G1 X120.943 Y83.447 E12.04097
G1 X121.302 Y83.531 E12.05254
G1 X121.666 Y83.588 E12.06411
G1 X122.034 Y83.615 E12.07568
G1 X122.403 Y83.613 E12.08725
G1 X122.771 Y83.583 E12.09881
G1 X123.128 Y83.524 E12.11016
G1 X123.493 Y83.435 E12.12194
G1 X123.844 Y83.319 E12.13352
G1 X124.184 Y83.176 E12.14508
G1 X124.512 Y83.007 E12.15665
G1 X124.825 Y82.813 E12.16822
G1 X125.122 Y82.594 E12.17979
G1 X125.401 Y82.353 E12.19135
G1 X125.669 Y82.082 E12.20328
G1 X126.103 Y81.524 E12.22546
G1 X126.304 Y81.192 E12.23760
G1 X126.469 Y80.862 E12.24918
G1 X126.608 Y80.520 E12.26075
G1 X126.719 Y80.169 E12.27231
G1 X126.802 Y79.809 E12.28388
G1 X126.857 Y79.444 E12.29545
G1 X126.883 Y79.076 E12.30702
G1 X126.880 Y78.708 E12.31858
G1 X126.848 Y78.340 E12.33015
G1 X126.787 Y77.976 E12.34172
G1 X126.698 Y77.618 E12.35329
G1 X126.581 Y77.268 E12.36485
G1 X126.437 Y76.929 E12.37642
G1 X126.266 Y76.602 E12.38799
G1 X126.064 Y76.279 E12.39991
G1 X125.622 Y75.728 E12.42209
G1 X125.350 Y75.461 E12.43401
G1 X125.068 Y75.224 E12.44558
G1 X124.768 Y75.010 E12.45715
G1 X124.451 Y74.820 E12.46872
G1 X124.165 Y74.677 E12.47874
G1 X124.165 Y67.517 E12.70323
G1 X128.711 Y67.517 E12.84577
G1 X128.711 Y94.308 E13.68576
G1 X129.413 Y108.085 E14.11829
G1 X129.413 Y132.483 E14.88327
G1 X110.587 Y132.483 E15.47354
G1 X110.587 Y112.543 E16.09874
M204 S1500
G1 X110.210 Y112.860 F7800.000
M204 S1250
G1 F1200.000
G1 X70.210 Y112.860 E17.35292
G1 X70.210 Y108.158 E17.50033
G1 X112.184 Y67.140 E19.34045
G1 X120.576 Y67.140 E19.60359
G1 X120.576 Y74.940 E19.84816
G1 X120.099 Y75.166 E19.86472
G1 X119.809 Y75.343 E19.87535
G1 X119.535 Y75.542 E19.88599
G1 X119.276 Y75.762 E19.89662
G1 X119.036 Y76.001 E19.90726
G1 X118.816 Y76.259 E19.91790
G1 X118.616 Y76.533 E19.92853
G1 X118.439 Y76.822 E19.93917
G1 X118.284 Y77.125 E19.94981
G1 X118.154 Y77.438 E19.96044
G1 X118.050 Y77.761 E19.97108
G1 X117.971 Y78.090 E19.98172
G1 X117.918 Y78.426 E19.99235
G1 X117.891 Y78.764 E20.00299
G1 X117.891 Y79.103 E20.01363
G1 X117.918 Y79.441 E20.02426
G1 X117.972 Y79.776 E20.03490
G1 X118.051 Y80.106 E20.04553
G1 X118.157 Y80.428 E20.05617
G1 X118.287 Y80.742 E20.06681
G1 X118.442 Y81.044 E20.07744
G1 X118.619 Y81.332 E20.08808
G1 X118.819 Y81.606 E20.09872
G1 X119.040 Y81.864 E20.10935
G1 X119.281 Y82.103 E20.11999
G1 X119.539 Y82.323 E20.13063
G1 X119.814 Y82.521 E20.14126
G1 X120.104 Y82.698 E20.15190
G1 X120.407 Y82.851 E20.16254
G1 X120.721 Y82.979 E20.17317
G1 X121.044 Y83.083 E20.18381
G1 X121.374 Y83.161 E20.19445
G1 X121.709 Y83.213 E20.20508
G1 X122.048 Y83.238 E20.21572
G1 X122.387 Y83.236 E20.22635
G1 X122.725 Y83.208 E20.23699
G1 X123.053 Y83.155 E20.24742
G1 X123.389 Y83.073 E20.25826
G1 X123.711 Y82.966 E20.26890
G1 X124.024 Y82.835 E20.27954
G1 X124.325 Y82.679 E20.29017
G1 X124.614 Y82.500 E20.30081
G1 X124.887 Y82.299 E20.31145
G1 X125.143 Y82.077 E20.32208
G1 X125.385 Y81.833 E20.33285
G1 X125.792 Y81.310 E20.35364
G1 X125.973 Y81.010 E20.36461
G1 X126.125 Y80.707 E20.37525
G1 X126.253 Y80.392 E20.38588
G1 X126.355 Y80.069 E20.39652
G1 X126.432 Y79.739 E20.40716
G1 X126.482 Y79.403 E20.41779
G1 X126.506 Y79.065 E20.42843
G1 X126.503 Y78.725 E20.43907
G1 X126.474 Y78.388 E20.44970
G1 X126.418 Y78.053 E20.46034
G1 X126.336 Y77.724 E20.47098
G1 X126.228 Y77.402 E20.48161
G1 X126.096 Y77.090 E20.49225
G1 X125.939 Y76.789 E20.50289
G1 X125.757 Y76.498 E20.51365
G1 X125.341 Y75.981 E20.53444
G1 X125.097 Y75.740 E20.54520
G1 X124.837 Y75.522 E20.55584
G1 X124.561 Y75.325 E20.56647
G1 X124.270 Y75.151 E20.57711
G1 X123.788 Y74.928 E20.59376
G1 X123.788 Y67.140 E20.83793
G1 X129.088 Y67.140 E21.00410
G1 X129.088 Y94.298 E21.85561
G1 X129.790 Y108.075 E22.28815
G1 X129.790 Y132.860 E23.06525
G1 X110.210 Y132.860 E23.67917
G1 X110.210 Y112.920 E24.30437
M204 S1500
G1 X110.210 Y112.460 F7800.000
G92 E0
G1 E-2.00000 F2400.00000
G1 X108.898 Y107.040 F7800.000
G1 E0.00000 F2400.00000
M204 S1250
G1 F1200.000
G1 X128.753 Y126.895 E0.85761
G1 X128.753 Y127.428 E0.87390
G1 X109.144 Y107.819 E1.72090
G1 X109.042 Y108.251 E1.73446
G1 X128.753 Y127.962 E2.58584
G1 X128.753 Y128.495 E2.60212
G1 X108.836 Y108.578 E3.46242
G1 X108.753 Y108.707 E3.46711
G1 X108.587 Y108.863 E3.47406
G1 X128.753 Y129.028 E4.34508
G1 X128.753 Y129.562 E4.36137
G1 X108.274 Y109.083 E5.24591
G1 X108.005 Y109.232 E5.25531
G1 X107.907 Y109.249 E5.25835
G1 X110.481 Y111.823 E5.36951
G1 X109.948 Y111.823 E5.38580
G1 X107.442 Y109.317 E5.49405
G1 X106.908 Y109.317 E5.51034
G1 X109.414 Y111.823 E5.61858
G1 X108.881 Y111.823 E5.63487
G1 X106.375 Y109.317 E5.74312
G1 X105.842 Y109.317 E5.75941
G1 X108.348 Y111.823 E5.86765
G1 X107.815 Y111.823 E5.88394
G1 X105.309 Y109.317 E5.99219
G1 X104.775 Y109.317 E6.00848
G1 X107.281 Y111.823 E6.11673
G1 X106.748 Y111.823 E6.13301
G1 X104.242 Y109.317 E6.24126
G1 X103.709 Y109.317 E6.25755
G1 X106.215 Y111.823 E6.36580
G1 X105.682 Y111.823 E6.38208
G1 X103.175 Y109.317 E6.49033
G1 X102.642 Y109.317 E6.50662
G1 X105.148 Y111.823 E6.61487
G1 X104.615 Y111.823 E6.63115
G1 X102.109 Y109.317 E6.73940
G1 X101.576 Y109.317 E6.75569
G1 X104.082 Y111.823 E6.86394
