; generated by Slic3r++ 2.2.47 on 2020-05-09 at 12:44:12 UTC

; 

; external perimeters extrusion width = 0.45mm
; perimeters extrusion width = 0.45mm
; infill extrusion width = 0.45mm
; solid infill extrusion width = 0.45mm
; top infill extrusion width = 0.40mm
; first layer extrusion width = 0.42mm

; object:{"name":"1_Z_Motor_Mount_Left","id":"1_Z_Motor_Mount_Left.stl id:0 copy 0","object_center":[95.239719,87.666709,95.239719],"boundingbox_center":[87.666709,25.000000,59.000000],"boundingbox_size":[59.000000,50.000000,0.000000]}

M201 X9000 Y9000 Z500 E10000 ; sets maximum accelerations, mm/sec^2
M203 X500 Y500 Z12 E120 ; sets maximum feedrates, mm/sec
M204 P1500 R1500 T1500 ; sets acceleration (P, T) and retract acceleration (R), mm/sec^2
M205 X10.00 Y10.00 Z0.20 E2.50 ; sets the jerk limits, mm/sec
M205 S0 T0 ; sets the minimum extruding and travel feed rate, mm/sec
M107
M104 S200 ; set temperature
G28 ; home all axes
G1 Z5 F5000 ; lift nozzle
M109 S200 ; set temperature and wait for it to be reached
G21 ; set units to millimeters
G90 ; use absolute coordinates
M82 ; use absolute distances for extrusion
G92 E0
; Filament gcode
G1 Z0.300 F7800.000
G1 E-2.00000 F2400.00000
G1 X60.770 Y55.153 F7800.000
G1 E0.00000 F2400.00000
G1 F1800.000
G1 X61.707 Y54.213 E0.05888
G1 X62.818 Y53.486 E0.11777
G1 X64.055 Y53.005 E0.17665
G1 X65.366 Y52.790 E0.23554
G1 X92.843 Y51.780 E1.45510
G1 X118.521 Y51.779 E2.59406
G1 X119.460 Y51.849 E2.63584
G1 X125.907 Y52.886 E2.92545
G1 X126.794 Y53.118 E2.96612
G1 X127.639 Y53.475 E3.00680
G1 X128.887 Y54.309 E3.07339
G1 X129.903 Y55.406 E3.13971
G1 X130.636 Y56.709 E3.20603
G1 X131.047 Y58.153 E3.27262
G1 X131.128 Y59.160 E3.31744
G1 X131.126 Y117.304 E5.89639
G1 X131.018 Y118.346 E5.94287
G1 X130.740 Y119.357 E5.98934
G1 X130.302 Y120.308 E6.03582
G1 X129.709 Y121.180 E6.08257
G1 X128.719 Y122.164 E6.14448
G1 X127.533 Y122.912 E6.20667
G1 X126.218 Y123.381 E6.26859
G1 X124.827 Y123.554 E6.33077
G1 X65.596 Y123.553 E8.95794
G1 X64.554 Y123.444 E9.00442
G1 X63.544 Y123.165 E9.05090
G1 X62.593 Y122.726 E9.09737
G1 X61.726 Y122.136 E9.14385
G1 X60.743 Y121.146 E9.20576
G1 X59.995 Y119.960 E9.26795
G1 X59.525 Y118.645 E9.32986
G1 X59.353 Y117.260 E9.39178
G1 X59.354 Y59.023 E11.97487
G1 X59.463 Y57.981 E12.02135
G1 X59.741 Y56.971 E12.06782
G1 X60.181 Y56.020 E12.11430
G1 X60.736 Y55.203 E12.15811
; printing object 1_Z_Motor_Mount_Left.stl id:0 copy 0
G92 E0
G1 E-2.00000 F2400.00000
G1 X78.710 Y75.809 F7800.000
G1 E0.00000 F2400.00000
G1 F900.000
G1 X78.421 Y76.067 E0.01714
G1 X78.175 Y76.365 E0.03428
G1 X77.978 Y76.697 E0.05142
G1 X77.833 Y77.055 E0.06856
G1 X77.745 Y77.431 E0.08569
G1 X77.716 Y77.817 E0.10284
G1 X77.745 Y78.202 E0.11998
G1 X77.833 Y78.578 E0.13711
G1 X77.978 Y78.937 E0.15425
G1 X78.175 Y79.269 E0.17139
G1 X78.421 Y79.567 E0.18853
G1 X78.710 Y79.824 E0.20567
G1 X79.034 Y80.034 E0.22281
G1 X79.387 Y80.192 E0.23995
G1 X79.759 Y80.294 E0.25709
G1 X80.143 Y80.339 E0.27423
G1 X80.529 Y80.324 E0.29137
G1 X80.909 Y80.250 E0.30851
G1 X81.272 Y80.120 E0.32565
G1 X81.612 Y79.935 E0.34279
G1 X81.919 Y79.701 E0.35992
G1 X82.187 Y79.423 E0.37706
G1 X82.409 Y79.107 E0.39420
G1 X82.581 Y78.760 E0.41134
G1 X82.697 Y78.392 E0.42848
G1 X82.756 Y78.010 E0.44562
G1 X82.756 Y77.624 E0.46276
G1 X82.697 Y77.242 E0.47990
G1 X82.581 Y76.873 E0.49704
G1 X82.409 Y76.527 E0.51418
G1 X82.187 Y76.211 E0.53132
G1 X81.919 Y75.932 E0.54846
G1 X81.612 Y75.698 E0.56559
G1 X81.272 Y75.514 E0.58273
G1 X80.909 Y75.383 E0.59987
G1 X80.529 Y75.309 E0.61701
G1 X80.143 Y75.295 E0.63415
G1 X79.759 Y75.339 E0.65129
G1 X79.387 Y75.441 E0.66843
G1 X79.034 Y75.599 E0.68557
G1 X78.760 Y75.777 E0.70005
G1 X78.953 Y76.075 F7800.000
G1 F900.000
G1 X78.678 Y76.314 E0.71620
G1 X78.467 Y76.570 E0.73092
G1 X78.297 Y76.855 E0.74563
G1 X78.173 Y77.163 E0.76035
G1 X78.098 Y77.486 E0.77507
G1 X78.072 Y77.817 E0.78979
G1 X78.098 Y78.148 E0.80450
G1 X78.173 Y78.471 E0.81922
G1 X78.297 Y78.778 E0.83394
G1 X78.467 Y79.064 E0.84866
G1 X78.678 Y79.320 E0.86337
G1 X78.926 Y79.540 E0.87809
G1 X79.204 Y79.721 E0.89281
G1 X79.507 Y79.856 E0.90752
G1 X79.827 Y79.944 E0.92224
G1 X80.157 Y79.982 E0.93696
G1 X80.488 Y79.970 E0.95168
G1 X80.814 Y79.907 E0.96639
G1 X81.126 Y79.794 E0.98111
G1 X81.418 Y79.636 E0.99583
G1 X81.682 Y79.435 E1.01055
G1 X81.912 Y79.196 E1.02526
G1 X82.103 Y78.924 E1.03998
G1 X82.250 Y78.627 E1.05470
G1 X82.350 Y78.311 E1.06941
G1 X82.401 Y77.983 E1.08413
G1 X82.401 Y77.651 E1.09885
G1 X82.350 Y77.323 E1.11357
G1 X82.250 Y77.007 E1.12828
G1 X82.103 Y76.709 E1.14300
G1 X81.912 Y76.438 E1.15772
G1 X81.682 Y76.199 E1.17243
G1 X81.418 Y75.998 E1.18715
G1 X81.126 Y75.839 E1.20187
G1 X80.814 Y75.727 E1.21659
G1 X80.488 Y75.664 E1.23130
G1 X80.157 Y75.651 E1.24602
G1 X79.827 Y75.689 E1.26074
G1 X79.507 Y75.777 E1.27546
G1 X79.204 Y75.913 E1.29017
G1 X79.004 Y76.043 E1.30078
G1 X79.142 Y76.377 F7800.000
G1 F900.000
G1 X78.935 Y76.561 E1.31307
G1 X78.759 Y76.775 E1.32537
G1 X78.617 Y77.013 E1.33767
G1 X78.513 Y77.270 E1.34996
G1 X78.450 Y77.540 E1.36226
G1 X78.429 Y77.817 E1.37455
G1 X78.450 Y78.093 E1.38685
G1 X78.513 Y78.363 E1.39914
G1 X78.617 Y78.620 E1.41144
G1 X78.759 Y78.858 E1.42373
G1 X78.935 Y79.072 E1.43603
G1 X79.142 Y79.257 E1.44832
G1 X79.375 Y79.407 E1.46062
G1 X79.628 Y79.521 E1.47291
G1 X79.895 Y79.594 E1.48521
G1 X80.170 Y79.626 E1.49750
G1 X80.447 Y79.615 E1.50980
G1 X80.720 Y79.563 E1.52209
G1 X80.980 Y79.469 E1.53439
G1 X81.224 Y79.336 E1.54669
G1 X81.444 Y79.168 E1.55898
G1 X81.637 Y78.969 E1.57127
G1 X81.796 Y78.742 E1.58357
G1 X81.919 Y78.494 E1.59587
G1 X82.003 Y78.229 E1.60816
G1 X82.045 Y77.955 E1.62046
G1 X82.045 Y77.678 E1.63275
G1 X82.003 Y77.404 E1.64505
G1 X81.919 Y77.140 E1.65734
G1 X81.796 Y76.891 E1.66964
G1 X81.637 Y76.665 E1.68193
G1 X81.444 Y76.465 E1.69423
G1 X81.224 Y76.297 E1.70652
G1 X80.980 Y76.165 E1.71882
G1 X80.720 Y76.071 E1.73111
G1 X80.447 Y76.018 E1.74341
G1 X80.170 Y76.007 E1.75570
G1 X79.895 Y76.039 E1.76800
G1 X79.628 Y76.113 E1.78030
G1 X79.375 Y76.226 E1.79259
G1 X79.192 Y76.344 E1.80222
G1 X78.886 Y76.270 F7800.000
G92 E0
G1 E-2.00000 F2400.00000
G1 X75.079 Y88.536 F7800.000
G1 E0.00000 F2400.00000
G1 F900.000
G1 X74.611 Y88.410 E0.02152
G1 X74.132 Y88.329 E0.04305
G1 X73.648 Y88.296 E0.06458
G1 X73.163 Y88.309 E0.08610
G1 X72.681 Y88.368 E0.10763
G1 X72.208 Y88.474 E0.12915
G1 X71.747 Y88.625 E0.15068
G1 X71.302 Y88.820 E0.17220
G1 X70.879 Y89.057 E0.19373
G1 X70.480 Y89.334 E0.21525
G1 X70.110 Y89.648 E0.23678
G1 X69.772 Y89.996 E0.25830
G1 X69.469 Y90.375 E0.27983
G1 X69.204 Y90.782 E0.30135
G1 X68.980 Y91.212 E0.32287
G1 X68.798 Y91.662 E0.34440
G1 X68.660 Y92.127 E0.36592
G1 X68.568 Y92.604 E0.38744
G1 X68.523 Y93.087 E0.40897
G1 X68.524 Y93.572 E0.43049
G1 X68.572 Y94.055 E0.45201
G1 X68.666 Y94.531 E0.47354
G1 X68.806 Y94.996 E0.49506
G1 X68.990 Y95.445 E0.51658
G1 X69.217 Y95.874 E0.53811
G1 X69.484 Y96.279 E0.55963
G1 X69.789 Y96.656 E0.58115
G1 X70.129 Y97.003 E0.60268
G1 X70.500 Y97.315 E0.62420
G1 X70.900 Y97.590 E0.64573
G1 X71.325 Y97.824 E0.66725
G1 X71.771 Y98.017 E0.68878
G1 X72.232 Y98.166 E0.71030
G1 X72.707 Y98.269 E0.73183
G1 X73.188 Y98.327 E0.75335
G1 X73.674 Y98.337 E0.77488
G1 X74.158 Y98.301 E0.79641
G1 X74.636 Y98.218 E0.81793
G1 X75.104 Y98.089 E0.83946
G1 X75.557 Y97.916 E0.86098
G1 X75.992 Y97.700 E0.88251
G1 X76.403 Y97.443 E0.90403
G1 X76.788 Y97.147 E0.92556
G1 X77.143 Y96.816 E0.94708
G1 X77.463 Y96.452 E0.96861
G1 X77.748 Y96.058 E0.99014
G1 X77.993 Y95.639 E1.01166
G1 X78.196 Y95.199 E1.03319
G1 X78.356 Y94.741 E1.05471
G1 X78.471 Y94.269 E1.07624
G1 X78.540 Y93.789 E1.09776
G1 X78.562 Y93.304 E1.11929
G1 X78.537 Y92.819 E1.14082
G1 X78.466 Y92.339 E1.16234
G1 X78.349 Y91.868 E1.18386
G1 X78.186 Y91.411 E1.20539
G1 X77.981 Y90.971 E1.22692
G1 X77.734 Y90.554 E1.24844
G1 X77.447 Y90.162 E1.26997
G1 X77.125 Y89.799 E1.29149
G1 X76.768 Y89.470 E1.31302
G1 X76.382 Y89.176 E1.33454
G1 X75.969 Y88.921 E1.35607
G1 X75.534 Y88.707 E1.37759
G1 X75.135 Y88.557 E1.39646
G1 X75.010 Y88.890 F7800.000
G1 F900.000
G1 X74.535 Y88.758 E1.41835
G1 X74.090 Y88.683 E1.43835
G1 X73.640 Y88.652 E1.45835
G1 X73.190 Y88.664 E1.47835
G1 X72.742 Y88.719 E1.49835
G1 X72.302 Y88.818 E1.51835
G1 X71.874 Y88.958 E1.53835
G1 X71.461 Y89.139 E1.55835
G1 X71.067 Y89.359 E1.57835
G1 X70.697 Y89.616 E1.59835
G1 X70.353 Y89.908 E1.61835
G1 X70.039 Y90.232 E1.63834
G1 X69.758 Y90.584 E1.65834
G1 X69.511 Y90.962 E1.67834
G1 X69.303 Y91.361 E1.69834
G1 X69.134 Y91.779 E1.71833
G1 X69.006 Y92.212 E1.73833
G1 X68.921 Y92.654 E1.75833
G1 X68.878 Y93.103 E1.77833
G1 X68.879 Y93.554 E1.79832
G1 X68.924 Y94.003 E1.81832
G1 X69.012 Y94.445 E1.83832
G1 X69.142 Y94.877 E1.85832
G1 X69.313 Y95.294 E1.87831
G1 X69.523 Y95.692 E1.89831
G1 X69.772 Y96.069 E1.91831
G1 X70.055 Y96.420 E1.93831
G1 X70.370 Y96.742 E1.95830
G1 X70.716 Y97.031 E1.97830
G1 X71.087 Y97.287 E1.99830
G1 X71.482 Y97.505 E2.01830
G1 X71.896 Y97.684 E2.03830
G1 X72.325 Y97.822 E2.05830
G1 X72.766 Y97.918 E2.07830
G1 X73.213 Y97.972 E2.09830
G1 X73.664 Y97.981 E2.11830
G1 X74.114 Y97.948 E2.13830
G1 X74.558 Y97.871 E2.15830
G1 X74.993 Y97.751 E2.17830
G1 X75.414 Y97.590 E2.19830
G1 X75.818 Y97.389 E2.21830
G1 X76.200 Y97.150 E2.23830
G1 X76.558 Y96.876 E2.25830
G1 X76.887 Y96.568 E2.27830
G1 X77.185 Y96.229 E2.29829
G1 X77.449 Y95.864 E2.31829
G1 X77.677 Y95.475 E2.33829
G1 X77.866 Y95.065 E2.35829
G1 X78.015 Y94.640 E2.37829
G1 X78.121 Y94.202 E2.39829
G1 X78.185 Y93.755 E2.41829
G1 X78.206 Y93.305 E2.43829
G1 X78.183 Y92.854 E2.45829
G1 X78.117 Y92.408 E2.47829
G1 X78.008 Y91.971 E2.49829
G1 X77.857 Y91.546 E2.51829
G1 X77.666 Y91.138 E2.53829
G1 X77.436 Y90.750 E2.55829
G1 X77.170 Y90.385 E2.57829
G1 X76.871 Y90.049 E2.59829
G1 X76.540 Y89.742 E2.61829
G1 X76.181 Y89.470 E2.63829
G1 X75.797 Y89.233 E2.65829
G1 X75.392 Y89.034 E2.67829
G1 X75.066 Y88.911 E2.69373
G1 X74.941 Y89.244 F7800.000
G1 F900.000
G1 X74.459 Y89.106 E2.71598
G1 X74.048 Y89.037 E2.73446
G1 X73.633 Y89.007 E2.75293
G1 X73.216 Y89.019 E2.77140
G1 X72.803 Y89.070 E2.78988
G1 X72.397 Y89.161 E2.80835
G1 X72.001 Y89.291 E2.82682
G1 X71.619 Y89.458 E2.84530
G1 X71.256 Y89.661 E2.86377
G1 X70.914 Y89.899 E2.88225
G1 X70.596 Y90.168 E2.90072
G1 X70.306 Y90.467 E2.91919
G1 X70.046 Y90.792 E2.93766
G1 X69.819 Y91.141 E2.95613
G1 X69.626 Y91.510 E2.97461
G1 X69.470 Y91.897 E2.99308
G1 X69.352 Y92.296 E3.01155
G1 X69.273 Y92.705 E3.03002
G1 X69.234 Y93.119 E3.04849
G1 X69.235 Y93.536 E3.06697
G1 X69.276 Y93.950 E3.08544
G1 X69.357 Y94.359 E3.10391
G1 X69.477 Y94.758 E3.12238
G1 X69.635 Y95.143 E3.14085
G1 X69.830 Y95.511 E3.15932
G1 X70.059 Y95.859 E3.17780
G1 X70.321 Y96.183 E3.19627
G1 X70.612 Y96.480 E3.21474
G1 X70.931 Y96.748 E3.23321
G1 X71.275 Y96.984 E3.25169
G1 X71.639 Y97.185 E3.27016
G1 X72.021 Y97.351 E3.28863
G1 X72.418 Y97.478 E3.30711
G1 X72.825 Y97.567 E3.32558
G1 X73.238 Y97.616 E3.34405
G1 X73.655 Y97.625 E3.36253
G1 X74.070 Y97.594 E3.38100
G1 X74.480 Y97.523 E3.39947
G1 X74.882 Y97.413 E3.41795
G1 X75.271 Y97.264 E3.43642
G1 X75.644 Y97.078 E3.45489
G1 X75.997 Y96.858 E3.47337
G1 X76.327 Y96.604 E3.49184
G1 X76.632 Y96.320 E3.51032
G1 X76.907 Y96.007 E3.52879
G1 X77.151 Y95.670 E3.54726
G1 X77.361 Y95.310 E3.56574
G1 X77.536 Y94.932 E3.58421
G1 X77.673 Y94.539 E3.60268
G1 X77.772 Y94.134 E3.62116
G1 X77.831 Y93.722 E3.63963
G1 X77.850 Y93.306 E3.65810
G1 X77.829 Y92.890 E3.67658
G1 X77.768 Y92.478 E3.69505
G1 X77.667 Y92.074 E3.71353
G1 X77.528 Y91.681 E3.73200
G1 X77.351 Y91.304 E3.75047
G1 X77.139 Y90.945 E3.76895
G1 X76.893 Y90.609 E3.78742
G1 X76.616 Y90.298 E3.80589
G1 X76.311 Y90.015 E3.82437
G1 X75.979 Y89.763 E3.84284
G1 X75.625 Y89.544 E3.86131
G1 X75.251 Y89.361 E3.87979
G1 X74.997 Y89.265 E3.89180
G1 X74.862 Y88.852 F7800.000
G92 E0
G1 E-2.00000 F2400.00000
G1 X79.694 Y106.357 F7800.000
G1 E0.00000 F2400.00000
G1 F900.000
G1 X79.387 Y106.441 E0.01415
G1 X79.034 Y106.599 E0.03129
G1 X78.710 Y106.809 E0.04843
G1 X78.421 Y107.067 E0.06557
G1 X78.175 Y107.365 E0.08271
G1 X77.978 Y107.697 E0.09985
G1 X77.833 Y108.055 E0.11699
G1 X77.745 Y108.431 E0.13413
G1 X77.716 Y108.817 E0.15127
G1 X77.745 Y109.202 E0.16841
G1 X77.833 Y109.578 E0.18555
G1 X77.978 Y109.937 E0.20268
G1 X78.175 Y110.269 E0.21983
G1 X78.421 Y110.567 E0.23696
G1 X78.710 Y110.824 E0.25410
G1 X79.034 Y111.034 E0.27124
G1 X79.387 Y111.192 E0.28838
G1 X79.759 Y111.294 E0.30552
G1 X80.143 Y111.339 E0.32266
G1 X80.529 Y111.324 E0.33980
G1 X80.909 Y111.250 E0.35694
G1 X81.272 Y111.120 E0.37408
G1 X81.612 Y110.935 E0.39122
G1 X81.919 Y110.701 E0.40836
G1 X82.187 Y110.423 E0.42550
G1 X82.409 Y110.107 E0.44263
G1 X82.581 Y109.760 E0.45977
G1 X82.697 Y109.392 E0.47691
G1 X82.756 Y109.010 E0.49405
G1 X82.756 Y108.624 E0.51119
G1 X82.697 Y108.242 E0.52833
G1 X82.581 Y107.873 E0.54547
G1 X82.409 Y107.527 E0.56261
G1 X82.187 Y107.211 E0.57975
G1 X81.919 Y106.932 E0.59689
G1 X81.612 Y106.698 E0.61403
G1 X81.272 Y106.514 E0.63117
G1 X80.909 Y106.383 E0.64831
G1 X80.529 Y106.309 E0.66545
G1 X80.143 Y106.295 E0.68258
G1 X79.752 Y106.341 E0.70004
G1 X79.827 Y106.689 F7800.000
G1 F900.000
G1 X79.507 Y106.777 E0.71476
G1 X79.204 Y106.913 E0.72948
G1 X78.926 Y107.093 E0.74420
G1 X78.678 Y107.314 E0.75891
G1 X78.467 Y107.570 E0.77363
G1 X78.297 Y107.855 E0.78835
G1 X78.173 Y108.163 E0.80307
G1 X78.098 Y108.486 E0.81778
G1 X78.072 Y108.817 E0.83250
G1 X78.098 Y109.148 E0.84722
G1 X78.173 Y109.471 E0.86193
G1 X78.297 Y109.778 E0.87665
G1 X78.467 Y110.064 E0.89137
G1 X78.678 Y110.320 E0.90609
G1 X78.926 Y110.540 E0.92080
G1 X79.204 Y110.721 E0.93552
G1 X79.507 Y110.856 E0.95024
G1 X79.827 Y110.944 E0.96496
G1 X80.157 Y110.982 E0.97967
G1 X80.488 Y110.970 E0.99439
G1 X80.814 Y110.907 E1.00911
G1 X81.126 Y110.794 E1.02382
G1 X81.418 Y110.636 E1.03854
G1 X81.682 Y110.435 E1.05326
G1 X81.912 Y110.196 E1.06798
G1 X82.103 Y109.924 E1.08269
G1 X82.250 Y109.627 E1.09741
G1 X82.350 Y109.311 E1.11213
G1 X82.401 Y108.983 E1.12685
G1 X82.401 Y108.651 E1.14156
G1 X82.350 Y108.323 E1.15628
G1 X82.250 Y108.007 E1.17100
G1 X82.103 Y107.709 E1.18572
G1 X81.912 Y107.438 E1.20043
G1 X81.682 Y107.199 E1.21515
G1 X81.418 Y106.998 E1.22987
G1 X81.126 Y106.839 E1.24458
G1 X80.814 Y106.727 E1.25930
G1 X80.488 Y106.664 E1.27402
G1 X80.157 Y106.651 E1.28873
G1 X79.887 Y106.682 E1.30079
G1 X79.927 Y107.035 F7800.000
G1 F900.000
G1 X79.628 Y107.113 E1.31452
G1 X79.375 Y107.226 E1.32682
G1 X79.142 Y107.377 E1.33911
G1 X78.935 Y107.561 E1.35141
G1 X78.759 Y107.775 E1.36370
G1 X78.617 Y108.013 E1.37600
G1 X78.513 Y108.270 E1.38829
G1 X78.450 Y108.540 E1.40059
G1 X78.429 Y108.817 E1.41288
G1 X78.450 Y109.093 E1.42518
G1 X78.513 Y109.363 E1.43747
G1 X78.617 Y109.620 E1.44977
G1 X78.759 Y109.858 E1.46206
G1 X78.935 Y110.072 E1.47436
G1 X79.142 Y110.257 E1.48665
G1 X79.375 Y110.407 E1.49895
G1 X79.628 Y110.521 E1.51125
G1 X79.895 Y110.594 E1.52354
G1 X80.170 Y110.626 E1.53584
G1 X80.447 Y110.615 E1.54813
G1 X80.720 Y110.563 E1.56043
G1 X80.980 Y110.469 E1.57272
G1 X81.224 Y110.336 E1.58502
G1 X81.444 Y110.168 E1.59731
G1 X81.637 Y109.969 E1.60961
G1 X81.796 Y109.742 E1.62190
G1 X81.919 Y109.494 E1.63420
G1 X82.003 Y109.229 E1.64649
G1 X82.045 Y108.955 E1.65879
G1 X82.045 Y108.678 E1.67108
G1 X82.003 Y108.404 E1.68338
G1 X81.919 Y108.140 E1.69568
G1 X81.796 Y107.891 E1.70797
G1 X81.637 Y107.665 E1.72027
G1 X81.444 Y107.465 E1.73256
G1 X81.224 Y107.297 E1.74486
G1 X80.980 Y107.165 E1.75715
G1 X80.720 Y107.071 E1.76945
G1 X80.447 Y107.018 E1.78174
G1 X80.170 Y107.007 E1.79404
G1 X79.987 Y107.029 E1.80222
G1 X79.727 Y106.799 F7800.000
G92 E0
G1 E-2.00000 F2400.00000
G1 X85.675 Y102.195 F7800.000
G1 E0.00000 F2400.00000
G1 F1800.000
G1 X86.183 Y102.741 E0.03310
G1 X86.722 Y103.258 E0.06619
G1 X87.288 Y103.743 E0.09929
G1 X87.881 Y104.197 E0.13239
G1 X88.498 Y104.617 E0.16549
G1 X89.137 Y105.002 E0.19858
G1 X89.797 Y105.351 E0.23168
G1 X90.474 Y105.662 E0.26478
G1 X91.169 Y105.936 E0.29787
G1 X91.877 Y106.170 E0.33097
G1 X92.597 Y106.365 E0.36407
G1 X93.327 Y106.520 E0.39717
G1 X94.065 Y106.633 E0.43026
