; generated by Slic3r++ 2.2.50 on 2020-05-24 at 15:00:37 UTC

; 

; external perimeters extrusion width = 0.45mm
; perimeters extrusion width = 0.45mm
; infill extrusion width = 0.45mm
; solid infill extrusion width = 0.45mm
; top infill extrusion width = 0.40mm
; first layer extrusion width = 0.42mm

; object:{"name":"1_Z_Motor_Mount_Right","id":"1_Z_Motor_Mount_Right.stl id:0 copy 0","object_center":[100.147376,108.936918,100.147376],"boundingbox_center":[108.936918,25.000000,59.000000],"boundingbox_size":[59.000000,50.000000,0.000000]}

M201 X9000 Y9000 Z500 E10000 ; sets maximum accelerations, mm/sec^2
M203 X500 Y500 Z12 E120 ; sets maximum feedrates, mm/sec
M204 P1500 R1500 T1500 ; sets acceleration (P, T) and retract acceleration (R), mm/sec^2
M205 X10.00 Y10.00 Z0.20 E2.50 ; sets the jerk limits, mm/sec
M205 S0 T0 ; sets the minimum extruding and travel feed rate, mm/sec
M107
M190 S60 ; set bed temperature and wait for it to be reached
M104 S205 ; set temperature
G28 ; home all axes
G1 Z5 F5000 ; lift nozzle
M109 S205 ; set temperature and wait for it to be reached
G21 ; set units to millimeters
G90 ; use absolute coordinates
M82 ; use absolute distances for extrusion
G92 E0
; Filament gcode
G1 Z0.200 F7800.000
G1 E-2.00000 F2400.00000
G1 X66.611 Y74.786 F7800.000
G1 E0.00000 F2400.00000
M204 S1250
G1 F1200.000
G1 X67.010 Y74.430 E0.01675
G1 X68.075 Y73.808 E0.05542
G1 X69.236 Y73.411 E0.09389
G1 X70.453 Y73.251 E0.13237
G1 X129.654 Y73.248 E1.98857
G1 X130.808 Y73.358 E2.02494
G1 X131.928 Y73.684 E2.06150
G1 X132.961 Y74.210 E2.09786
G1 X133.878 Y74.921 E2.13423
G1 X134.647 Y75.789 E2.17060
G1 X135.242 Y76.792 E2.20716
G1 X135.637 Y77.882 E2.24352
G1 X135.822 Y79.027 E2.27989
G1 X135.834 Y137.597 E4.11629
G1 X135.706 Y138.700 E4.15112
G1 X135.382 Y139.763 E4.18596
G1 X134.874 Y140.751 E4.22079
G1 X134.201 Y141.627 E4.25543
G1 X133.577 Y142.218 E4.28238
G1 X132.876 Y142.716 E4.30934
G1 X132.113 Y143.113 E4.33630
G1 X131.309 Y143.398 E4.36306
G1 X124.380 Y144.551 E4.58331
G1 X123.456 Y144.625 E4.61238
G1 X97.756 Y144.624 E5.41818
G1 X70.359 Y143.619 E6.27776
G1 X69.294 Y143.476 E6.31144
G1 X68.265 Y143.148 E6.34532
G1 X67.308 Y142.647 E6.37919
G1 X66.457 Y141.991 E6.41287
G1 X65.619 Y141.045 E6.45250
G1 X64.989 Y139.942 E6.49231
G1 X64.596 Y138.735 E6.53213
G1 X64.459 Y137.472 E6.57195
G1 X64.461 Y79.277 E8.39661
G1 X64.589 Y78.174 E8.43145
G1 X64.913 Y77.111 E8.46628
G1 X65.421 Y76.123 E8.50111
G1 X66.093 Y75.247 E8.53575
G1 X66.566 Y74.826 E8.55560
M204 S1500
; printing object 1_Z_Motor_Mount_Right.stl id:0 copy 0
G92 E0
G1 E-2.00000 F2400.00000
G1 X84.280 Y116.371 F7800.000
G1 E0.00000 F2400.00000
M204 S1250
G1 F900.000
G1 X83.921 Y116.532 E0.01232
G1 X83.591 Y116.745 E0.02464
G1 X83.298 Y117.007 E0.03697
G1 X83.048 Y117.310 E0.04929
G1 X82.847 Y117.648 E0.06161
G1 X82.700 Y118.012 E0.07393
G1 X82.610 Y118.395 E0.08626
G1 X82.580 Y118.787 E0.09858
G1 X82.610 Y119.179 E0.11090
G1 X82.700 Y119.561 E0.12322
G1 X82.847 Y119.926 E0.13555
G1 X83.048 Y120.264 E0.14787
G1 X83.298 Y120.567 E0.16019
G1 X83.591 Y120.828 E0.17251
G1 X83.921 Y121.042 E0.18483
G1 X84.280 Y121.203 E0.19716
G1 X84.659 Y121.307 E0.20948
G1 X85.049 Y121.352 E0.22180
G1 X85.442 Y121.337 E0.23412
G1 X85.828 Y121.262 E0.24645
G1 X86.197 Y121.129 E0.25877
G1 X86.543 Y120.942 E0.27109
G1 X86.855 Y120.703 E0.28341
G1 X87.128 Y120.420 E0.29574
G1 X87.354 Y120.099 E0.30806
G1 X87.528 Y119.747 E0.32038
G1 X87.647 Y119.372 E0.33270
G1 X87.707 Y118.983 E0.34503
G1 X87.707 Y118.590 E0.35734
G1 X87.647 Y118.202 E0.36967
G1 X87.528 Y117.827 E0.38199
G1 X87.354 Y117.475 E0.39431
G1 X87.128 Y117.154 E0.40664
G1 X86.855 Y116.871 E0.41896
G1 X86.543 Y116.632 E0.43128
G1 X86.197 Y116.445 E0.44360
G1 X85.828 Y116.312 E0.45593
G1 X85.442 Y116.237 E0.46825
G1 X85.049 Y116.222 E0.48057
G1 X84.659 Y116.267 E0.49289
G1 X84.338 Y116.355 E0.50333
M204 S1500
G1 X84.437 Y116.719 F7800.000
M204 S1250
G1 F900.000
G1 X84.102 Y116.864 E0.51480
G1 X83.820 Y117.046 E0.52531
G1 X83.570 Y117.269 E0.53582
G1 X83.357 Y117.528 E0.54633
G1 X83.186 Y117.816 E0.55683
G1 X83.061 Y118.126 E0.56734
G1 X82.984 Y118.453 E0.57785
G1 X82.959 Y118.787 E0.58835
G1 X82.984 Y119.121 E0.59886
G1 X83.061 Y119.447 E0.60937
G1 X83.186 Y119.758 E0.61987
G1 X83.357 Y120.046 E0.63038
G1 X83.570 Y120.305 E0.64089
G1 X83.820 Y120.528 E0.65139
G1 X84.102 Y120.710 E0.66190
G1 X84.408 Y120.847 E0.67241
G1 X84.731 Y120.936 E0.68291
G1 X85.064 Y120.974 E0.69342
G1 X85.398 Y120.961 E0.70393
G1 X85.727 Y120.897 E0.71443
G1 X86.043 Y120.784 E0.72494
G1 X86.337 Y120.624 E0.73545
G1 X86.604 Y120.421 E0.74595
G1 X86.836 Y120.180 E0.75646
G1 X87.029 Y119.905 E0.76697
G1 X87.177 Y119.605 E0.77748
G1 X87.279 Y119.286 E0.78798
G1 X87.330 Y118.954 E0.79849
G1 X87.330 Y118.619 E0.80900
G1 X87.279 Y118.288 E0.81950
G1 X87.177 Y117.969 E0.83001
G1 X87.029 Y117.668 E0.84052
G1 X86.836 Y117.394 E0.85102
G1 X86.604 Y117.153 E0.86153
G1 X86.337 Y116.950 E0.87204
G1 X86.043 Y116.790 E0.88255
G1 X85.727 Y116.676 E0.89305
G1 X85.398 Y116.613 E0.90356
G1 X85.064 Y116.600 E0.91407
G1 X84.731 Y116.638 E0.92457
G1 X84.495 Y116.703 E0.93222
M204 S1500
G1 X84.535 Y117.083 F7800.000
M204 S1250
G1 F900.000
G1 X84.282 Y117.196 E0.94092
G1 X84.050 Y117.347 E0.94961
G1 X83.843 Y117.531 E0.95830
G1 X83.666 Y117.745 E0.96699
G1 X83.525 Y117.984 E0.97568
G1 X83.421 Y118.241 E0.98437
G1 X83.358 Y118.511 E0.99307
G1 X83.337 Y118.787 E1.00176
G1 X83.358 Y119.063 E1.01045
G1 X83.421 Y119.333 E1.01914
G1 X83.525 Y119.590 E1.02783
G1 X83.666 Y119.829 E1.03652
G1 X83.843 Y120.042 E1.04521
G1 X84.050 Y120.227 E1.05391
G1 X84.282 Y120.378 E1.06260
G1 X84.535 Y120.491 E1.07129
G1 X84.803 Y120.564 E1.07998
G1 X85.078 Y120.596 E1.08867
G1 X85.355 Y120.586 E1.09736
G1 X85.627 Y120.533 E1.10605
G1 X85.888 Y120.439 E1.11474
G1 X86.132 Y120.307 E1.12344
G1 X86.352 Y120.139 E1.13213
G1 X86.544 Y119.939 E1.14082
G1 X86.704 Y119.712 E1.14951
G1 X86.827 Y119.464 E1.15820
G1 X86.910 Y119.199 E1.16690
G1 X86.953 Y118.926 E1.17559
G1 X86.953 Y118.648 E1.18428
G1 X86.910 Y118.374 E1.19297
G1 X86.827 Y118.110 E1.20166
G1 X86.704 Y117.862 E1.21035
G1 X86.544 Y117.635 E1.21904
G1 X86.352 Y117.435 E1.22774
G1 X86.132 Y117.267 E1.23643
G1 X85.888 Y117.135 E1.24512
G1 X85.627 Y117.041 E1.25381
G1 X85.355 Y116.988 E1.26250
G1 X85.078 Y116.978 E1.27119
G1 X84.803 Y117.009 E1.27988
G1 X84.593 Y117.067 E1.28669
M204 S1500
G1 X84.319 Y116.909 F7800.000
G92 E0
G1 E-2.00000 F2400.00000
G1 X80.458 Y107.936 F7800.000
G1 E0.00000 F2400.00000
M204 S1250
G1 F900.000
G1 X80.898 Y107.720 E0.01535
G1 X81.314 Y107.463 E0.03069
G1 X81.704 Y107.167 E0.04604
G1 X82.063 Y106.834 E0.06139
G1 X82.388 Y106.469 E0.07673
G1 X82.677 Y106.074 E0.09208
G1 X82.926 Y105.652 E0.10742
G1 X83.134 Y105.209 E0.12277
G1 X83.297 Y104.748 E0.13812
G1 X83.416 Y104.273 E0.15346
G1 X83.488 Y103.789 E0.16881
G1 X83.513 Y103.300 E0.18416
G1 X83.490 Y102.811 E0.19950
G1 X83.421 Y102.327 E0.21485
G1 X83.305 Y101.851 E0.23020
G1 X83.144 Y101.389 E0.24554
G1 X82.939 Y100.945 E0.26089
G1 X82.691 Y100.522 E0.27624
G1 X82.405 Y100.125 E0.29158
G1 X82.081 Y99.758 E0.30693
G1 X81.724 Y99.424 E0.32228
G1 X81.335 Y99.126 E0.33762
G1 X80.920 Y98.866 E0.35297
G1 X80.482 Y98.648 E0.36831
G1 X80.025 Y98.474 E0.38366
G1 X79.553 Y98.344 E0.39901
G1 X79.071 Y98.260 E0.41435
G1 X78.583 Y98.223 E0.42970
G1 X78.093 Y98.234 E0.44504
G1 X77.607 Y98.292 E0.46039
G1 X77.129 Y98.396 E0.47574
G1 X76.663 Y98.546 E0.49109
G1 X76.214 Y98.741 E0.50643
G1 X75.786 Y98.977 E0.52178
G1 X75.382 Y99.254 E0.53712
G1 X75.007 Y99.569 E0.55247
G1 X74.665 Y99.918 E0.56781
G1 X74.357 Y100.299 E0.58316
G1 X74.088 Y100.708 E0.59851
G1 X73.859 Y101.141 E0.61385
G1 X73.674 Y101.593 E0.62920
G1 X73.532 Y102.062 E0.64454
G1 X73.437 Y102.542 E0.65989
G1 X73.389 Y103.029 E0.67523
G1 X73.387 Y103.519 E0.69058
G1 X73.433 Y104.006 E0.70592
G1 X73.526 Y104.486 E0.72127
G1 X73.665 Y104.956 E0.73661
G1 X73.848 Y105.409 E0.75196
G1 X74.075 Y105.843 E0.76730
G1 X74.342 Y106.254 E0.78265
G1 X74.647 Y106.636 E0.79799
G1 X74.988 Y106.987 E0.81334
G1 X75.361 Y107.304 E0.82869
G1 X75.763 Y107.583 E0.84403
G1 X76.191 Y107.822 E0.85938
G1 X76.639 Y108.018 E0.87473
G1 X77.104 Y108.171 E0.89007
G1 X77.582 Y108.278 E0.90542
G1 X78.067 Y108.338 E0.92076
G1 X78.557 Y108.351 E0.93611
G1 X79.045 Y108.317 E0.95146
G1 X79.528 Y108.236 E0.96680
G1 X80.000 Y108.108 E0.98215
G1 X80.402 Y107.957 E0.99562
M204 S1500
G1 X80.269 Y107.604 F7800.000
M204 S1250
G1 F900.000
G1 X80.715 Y107.390 E1.01112
G1 X81.100 Y107.152 E1.02532
G1 X81.461 Y106.878 E1.03953
G1 X81.793 Y106.570 E1.05373
G1 X82.095 Y106.232 E1.06793
G1 X82.362 Y105.866 E1.08214
G1 X82.593 Y105.476 E1.09634
G1 X82.784 Y105.066 E1.11054
G1 X82.936 Y104.639 E1.12474
G1 X83.045 Y104.199 E1.13894
G1 X83.112 Y103.751 E1.15315
G1 X83.135 Y103.299 E1.16735
G1 X83.114 Y102.847 E1.18155
G1 X83.050 Y102.398 E1.19576
G1 X82.943 Y101.958 E1.20996
G1 X82.794 Y101.530 E1.22416
G1 X82.604 Y101.119 E1.23836
G1 X82.375 Y100.728 E1.25257
G1 X82.110 Y100.361 E1.26677
G1 X81.810 Y100.021 E1.28097
G1 X81.479 Y99.712 E1.29517
G1 X81.120 Y99.436 E1.30938
G1 X80.736 Y99.196 E1.32358
G1 X80.330 Y98.994 E1.33778
G1 X79.907 Y98.832 E1.35198
G1 X79.471 Y98.712 E1.36619
G1 X79.024 Y98.635 E1.38039
G1 X78.573 Y98.601 E1.39459
G1 X78.120 Y98.611 E1.40879
G1 X77.670 Y98.664 E1.42300
G1 X77.227 Y98.761 E1.43720
G1 X76.796 Y98.900 E1.45140
G1 X76.380 Y99.079 E1.46560
G1 X75.984 Y99.299 E1.47981
G1 X75.611 Y99.555 E1.49401
G1 X75.264 Y99.846 E1.50821
G1 X74.946 Y100.169 E1.52241
G1 X74.662 Y100.522 E1.53662
G1 X74.413 Y100.900 E1.55082
G1 X74.201 Y101.301 E1.56502
G1 X74.029 Y101.720 E1.57922
G1 X73.899 Y102.153 E1.59342
G1 X73.811 Y102.598 E1.60762
G1 X73.766 Y103.048 E1.62183
G1 X73.765 Y103.501 E1.63603
G1 X73.807 Y103.952 E1.65023
G1 X73.893 Y104.397 E1.66443
G1 X74.021 Y104.831 E1.67863
G1 X74.191 Y105.251 E1.69283
G1 X74.400 Y105.653 E1.70704
G1 X74.648 Y106.032 E1.72124
G1 X74.930 Y106.386 E1.73544
G1 X75.246 Y106.711 E1.74964
G1 X75.591 Y107.004 E1.76384
G1 X75.964 Y107.263 E1.77805
G1 X76.359 Y107.484 E1.79225
G1 X76.774 Y107.666 E1.80645
G1 X77.204 Y107.807 E1.82065
G1 X77.646 Y107.906 E1.83486
G1 X78.096 Y107.961 E1.84906
G1 X78.548 Y107.974 E1.86326
G1 X79.000 Y107.942 E1.87746
G1 X79.447 Y107.867 E1.89167
G1 X79.884 Y107.749 E1.90587
G1 X80.213 Y107.625 E1.91688
M204 S1500
G1 X80.080 Y107.272 F7800.000
M204 S1250
G1 F900.000
G1 X80.532 Y107.059 E1.93255
G1 X80.887 Y106.841 E1.94561
G1 X81.218 Y106.588 E1.95867
G1 X81.524 Y106.306 E1.97173
G1 X81.801 Y105.995 E1.98478
G1 X82.047 Y105.658 E1.99784
G1 X82.259 Y105.300 E2.01090
G1 X82.435 Y104.923 E2.02396
G1 X82.574 Y104.530 E2.03702
G1 X82.675 Y104.126 E2.05008
G1 X82.736 Y103.714 E2.06314
G1 X82.758 Y103.298 E2.07620
G1 X82.739 Y102.882 E2.08925
G1 X82.679 Y102.470 E2.10231
G1 X82.581 Y102.065 E2.11537
G1 X82.444 Y101.672 E2.12843
G1 X82.269 Y101.294 E2.14149
G1 X82.059 Y100.934 E2.15455
G1 X81.815 Y100.597 E2.16761
G1 X81.539 Y100.284 E2.18067
G1 X81.235 Y100.000 E2.19373
G1 X80.905 Y99.746 E2.20678
G1 X80.552 Y99.525 E2.21984
G1 X80.179 Y99.340 E2.23290
G1 X79.790 Y99.191 E2.24596
G1 X79.388 Y99.081 E2.25902
G1 X78.978 Y99.009 E2.27208
G1 X78.562 Y98.978 E2.28514
G1 X78.146 Y98.987 E2.29820
G1 X77.733 Y99.036 E2.31126
G1 X77.326 Y99.125 E2.32431
G1 X76.929 Y99.253 E2.33737
G1 X76.547 Y99.418 E2.35043
G1 X76.182 Y99.620 E2.36349
G1 X75.839 Y99.855 E2.37655
G1 X75.520 Y100.123 E2.38961
G1 X75.228 Y100.421 E2.40267
G1 X74.967 Y100.745 E2.41572
G1 X74.738 Y101.092 E2.42878
G1 X74.543 Y101.461 E2.44184
G1 X74.385 Y101.846 E2.45490
G1 X74.265 Y102.245 E2.46796
G1 X74.184 Y102.653 E2.48101
G1 X74.143 Y103.068 E2.49407
G1 X74.142 Y103.484 E2.50713
G1 X74.181 Y103.899 E2.52019
G1 X74.260 Y104.308 E2.53325
G1 X74.378 Y104.707 E2.54630
G1 X74.534 Y105.093 E2.55936
G1 X74.726 Y105.462 E2.57242
G1 X74.954 Y105.811 E2.58548
G1 X75.214 Y106.137 E2.59853
G1 X75.504 Y106.435 E2.61159
G1 X75.821 Y106.705 E2.62465
G1 X76.164 Y106.942 E2.63771
G1 X76.527 Y107.146 E2.65077
G1 X76.908 Y107.313 E2.66383
G1 X77.304 Y107.443 E2.67689
G1 X77.711 Y107.534 E2.68995
G1 X78.124 Y107.585 E2.70300
G1 X78.540 Y107.596 E2.71606
G1 X78.956 Y107.567 E2.72912
G1 X79.367 Y107.498 E2.74218
G1 X79.769 Y107.390 E2.75524
G1 X80.024 Y107.294 E2.76380
M204 S1500
G1 X80.403 Y107.509 F7800.000
G92 E0
G1 E-2.00000 F2400.00000
G1 X84.469 Y90.255 F7800.000
G1 E0.00000 F2400.00000
M204 S1250
G1 F900.000
G1 X84.659 Y90.307 E0.00616
G1 X85.049 Y90.352 E0.01848
G1 X85.442 Y90.337 E0.03081
G1 X85.828 Y90.262 E0.04313
G1 X86.197 Y90.129 E0.05545
G1 X86.543 Y89.942 E0.06777
G1 X86.855 Y89.703 E0.08009
G1 X87.128 Y89.420 E0.09242
G1 X87.354 Y89.099 E0.10474
G1 X87.528 Y88.747 E0.11706
G1 X87.647 Y88.372 E0.12939
G1 X87.707 Y87.983 E0.14171
G1 X87.707 Y87.590 E0.15403
G1 X87.647 Y87.202 E0.16635
G1 X87.528 Y86.827 E0.17867
G1 X87.354 Y86.475 E0.19100
G1 X87.128 Y86.154 E0.20332
G1 X86.855 Y85.871 E0.21564
G1 X86.543 Y85.632 E0.22796
G1 X86.197 Y85.445 E0.24029
G1 X85.828 Y85.312 E0.25261
G1 X85.442 Y85.237 E0.26493
G1 X85.049 Y85.222 E0.27725
G1 X84.659 Y85.267 E0.28957
G1 X84.280 Y85.371 E0.30190
G1 X83.921 Y85.532 E0.31422
G1 X83.591 Y85.745 E0.32654
G1 X83.298 Y86.007 E0.33886
G1 X83.048 Y86.310 E0.35119
G1 X82.847 Y86.648 E0.36351
G1 X82.700 Y87.012 E0.37583
G1 X82.610 Y87.395 E0.38816
G1 X82.580 Y87.787 E0.40048
G1 X82.610 Y88.179 E0.41279
G1 X82.700 Y88.561 E0.42512
G1 X82.847 Y88.926 E0.43744
G1 X83.048 Y89.264 E0.44976
G1 X83.298 Y89.567 E0.46209
G1 X83.591 Y89.828 E0.47441
G1 X83.921 Y90.042 E0.48673
G1 X84.280 Y90.203 E0.49905
G1 X84.411 Y90.239 E0.50333
M204 S1500
G1 X84.569 Y89.891 F7800.000
M204 S1250
G1 F900.000
G1 X84.731 Y89.936 E0.50859
G1 X85.064 Y89.974 E0.51909
G1 X85.398 Y89.961 E0.52960
G1 X85.727 Y89.897 E0.54011
G1 X86.043 Y89.784 E0.55061
G1 X86.337 Y89.624 E0.56112
G1 X86.604 Y89.421 E0.57163
G1 X86.836 Y89.180 E0.58214
G1 X87.029 Y88.905 E0.59264
G1 X87.177 Y88.605 E0.60315
G1 X87.279 Y88.286 E0.61366
G1 X87.330 Y87.954 E0.62416
G1 X87.330 Y87.619 E0.63467
G1 X87.279 Y87.288 E0.64518
G1 X87.177 Y86.969 E0.65568
G1 X87.029 Y86.668 E0.66619
G1 X86.836 Y86.394 E0.67670
G1 X86.604 Y86.153 E0.68720
G1 X86.337 Y85.950 E0.69771
G1 X86.043 Y85.790 E0.70822
G1 X85.727 Y85.676 E0.71873
G1 X85.398 Y85.613 E0.72923
G1 X85.064 Y85.600 E0.73974
G1 X84.731 Y85.638 E0.75025
G1 X84.408 Y85.727 E0.76075
G1 X84.102 Y85.864 E0.77126
G1 X83.820 Y86.046 E0.78177
G1 X83.570 Y86.269 E0.79227
G1 X83.357 Y86.528 E0.80278
G1 X83.186 Y86.816 E0.81329
G1 X83.061 Y87.126 E0.82379
G1 X82.984 Y87.453 E0.83430
G1 X82.959 Y87.787 E0.84481
G1 X82.984 Y88.121 E0.85531
G1 X83.061 Y88.447 E0.86582
G1 X83.186 Y88.758 E0.87633
G1 X83.357 Y89.046 E0.88683
G1 X83.570 Y89.305 E0.89734
G1 X83.820 Y89.528 E0.90785
G1 X84.102 Y89.710 E0.91836
G1 X84.511 Y89.875 E0.93221
M204 S1500
G1 X84.611 Y89.512 F7800.000
M204 S1250
G1 F900.000
G1 X84.803 Y89.564 E0.93843
G1 X85.078 Y89.596 E0.94712
G1 X85.355 Y89.586 E0.95581
G1 X85.627 Y89.533 E0.96451
G1 X85.888 Y89.439 E0.97320
G1 X86.132 Y89.307 E0.98189
G1 X86.352 Y89.139 E0.99058
G1 X86.544 Y88.939 E0.99927
G1 X86.704 Y88.712 E1.00796
G1 X86.827 Y88.464 E1.01666
G1 X86.910 Y88.199 E1.02535
G1 X86.953 Y87.925 E1.03404
G1 X86.953 Y87.648 E1.04273
G1 X86.910 Y87.374 E1.05142
G1 X86.827 Y87.110 E1.06011
G1 X86.704 Y86.862 E1.06880
G1 X86.544 Y86.635 E1.07750
G1 X86.352 Y86.435 E1.08619
G1 X86.132 Y86.267 E1.09488
G1 X85.888 Y86.135 E1.10357
G1 X85.627 Y86.041 E1.11226
G1 X85.355 Y85.988 E1.12095
G1 X85.078 Y85.978 E1.12964
G1 X84.803 Y86.009 E1.13834
G1 X84.535 Y86.083 E1.14703
G1 X84.282 Y86.196 E1.15572
G1 X84.050 Y86.347 E1.16441
G1 X83.843 Y86.531 E1.17310
G1 X83.666 Y86.745 E1.18179
G1 X83.525 Y86.984 E1.19048
G1 X83.421 Y87.241 E1.19918
G1 X83.358 Y87.511 E1.20787
G1 X83.337 Y87.787 E1.21656
G1 X83.358 Y88.063 E1.22525
G1 X83.421 Y88.333 E1.23394
G1 X83.525 Y88.590 E1.24263
G1 X83.666 Y88.829 E1.25132
G1 X83.843 Y89.042 E1.26002
G1 X84.050 Y89.227 E1.26871
G1 X84.282 Y89.378 E1.27740
