; generated by Slic3r++ 2.2.50 on 2020-05-15 at 18:37:26 UTC

; 

; external perimeters extrusion width = 0.45mm
; perimeters extrusion width = 0.45mm
; infill extrusion width = 0.45mm
; solid infill extrusion width = 0.45mm
; top infill extrusion width = 0.40mm
; first layer extrusion width = 0.42mm

; object:{"name":"1_Z_Motor_Mount_Right","id":"1_Z_Motor_Mount_Right.stl id:0 copy 0","object_center":[100.000000,100.000000,100.000000],"boundingbox_center":[100.000000,25.000000,59.000000],"boundingbox_size":[59.000000,50.000000,0.000000]}

M201 X9000 Y9000 Z500 E10000 ; sets maximum accelerations, mm/sec^2
M203 X500 Y500 Z12 E120 ; sets maximum feedrates, mm/sec
M204 P1500 R1500 T1500 ; sets acceleration (P, T) and retract acceleration (R), mm/sec^2
M205 X10.00 Y10.00 Z0.20 E2.50 ; sets the jerk limits, mm/sec
M205 S0 T0 ; sets the minimum extruding and travel feed rate, mm/sec
M107
M190 S60 ; set bed temperature and wait for it to be reached
M104 S185 ; set temperature
G28 ; home all axes
G1 Z5 F5000 ; lift nozzle
M109 S185 ; set temperature and wait for it to be reached
G21 ; set units to millimeters
G90 ; use absolute coordinates
M82 ; use absolute distances for extrusion
G92 E0
; Filament gcode
G1 Z0.300 F7800.000
G1 E-2.00000 F2400.00000
G1 X65.941 Y66.307 F7800.000
G1 E0.00000 F2400.00000
G1 F1800.000
G1 X66.862 Y65.487 E0.05473
G1 X67.922 Y64.868 E0.10918
G1 X69.084 Y64.470 E0.16363
G1 X70.307 Y64.309 E0.21836
G1 X129.506 Y64.306 E2.84412
G1 X130.661 Y64.416 E2.89559
G1 X131.781 Y64.742 E2.94733
G1 X132.815 Y65.268 E2.99880
G1 X133.733 Y65.978 E3.05027
G1 X134.502 Y66.847 E3.10173
G1 X135.096 Y67.844 E3.15320
G1 X135.493 Y68.935 E3.20467
G1 X135.680 Y70.086 E3.25641
G1 X135.692 Y128.660 E5.85444
G1 X135.564 Y129.764 E5.90374
G1 X135.240 Y130.827 E5.95303
G1 X134.732 Y131.815 E6.00233
G1 X134.059 Y132.693 E6.05135
G1 X133.435 Y133.284 E6.08950
G1 X132.734 Y133.783 E6.12765
G1 X131.971 Y134.180 E6.16580
G1 X131.166 Y134.466 E6.20368
G1 X124.233 Y135.619 E6.51543
G1 X123.309 Y135.694 E6.55657
G1 X97.608 Y135.693 E7.69651
G1 X70.217 Y134.687 E8.91224
G1 X69.152 Y134.545 E8.95990
G1 X68.122 Y134.219 E9.00784
G1 X67.164 Y133.719 E9.05578
G1 X66.308 Y133.059 E9.10372
G1 X65.465 Y132.108 E9.16007
G1 X64.835 Y131.005 E9.21642
G1 X64.443 Y129.796 E9.27278
G1 X64.306 Y128.533 E9.32913
G1 X64.308 Y70.340 E11.91027
G1 X64.436 Y69.236 E11.95957
G1 X64.760 Y68.173 E12.00886
G1 X65.268 Y67.185 E12.05816
G1 X65.904 Y66.355 E12.10452
; printing object 1_Z_Motor_Mount_Right.stl id:0 copy 0
G92 E0
G1 E-2.00000 F2400.00000
G1 X84.147 Y107.475 F7800.000
G1 E0.00000 F2400.00000
G1 F900.000
G1 X83.794 Y107.633 E0.01714
G1 X83.470 Y107.843 E0.03428
G1 X83.181 Y108.100 E0.05142
G1 X82.936 Y108.398 E0.06856
G1 X82.738 Y108.730 E0.08570
G1 X82.594 Y109.088 E0.10283
G1 X82.506 Y109.465 E0.11998
G1 X82.476 Y109.850 E0.13711
G1 X82.506 Y110.235 E0.15425
G1 X82.594 Y110.612 E0.17139
G1 X82.738 Y110.970 E0.18853
G1 X82.936 Y111.302 E0.20567
G1 X83.181 Y111.600 E0.22281
G1 X83.470 Y111.857 E0.23995
G1 X83.794 Y112.067 E0.25709
G1 X84.147 Y112.225 E0.27423
G1 X84.519 Y112.328 E0.29137
G1 X84.903 Y112.372 E0.30851
G1 X85.094 Y112.365 E0.31696
G1 X85.289 Y112.357 E0.32564
G1 X85.669 Y112.284 E0.34278
G1 X86.032 Y112.153 E0.35992
G1 X86.372 Y111.969 E0.37706
G1 X86.679 Y111.734 E0.39420
G1 X86.947 Y111.456 E0.41134
G1 X87.169 Y111.140 E0.42848
G1 X87.341 Y110.794 E0.44562
G1 X87.458 Y110.425 E0.46276
G1 X87.517 Y110.043 E0.47990
G1 X87.517 Y109.657 E0.49703
G1 X87.458 Y109.275 E0.51417
G1 X87.341 Y108.906 E0.53132
G1 X87.169 Y108.560 E0.54846
G1 X86.947 Y108.244 E0.56559
G1 X86.679 Y107.966 E0.58273
G1 X86.372 Y107.731 E0.59987
G1 X86.032 Y107.547 E0.61701
G1 X85.669 Y107.416 E0.63415
G1 X85.289 Y107.343 E0.65129
G1 X84.903 Y107.328 E0.66843
G1 X84.519 Y107.372 E0.68557
G1 X84.205 Y107.459 E0.70005
G1 X84.299 Y107.802 F7800.000
G1 F900.000
G1 X83.965 Y107.946 E0.71620
G1 X83.686 Y108.126 E0.73092
G1 X83.438 Y108.347 E0.74563
G1 X83.227 Y108.603 E0.76035
G1 X83.058 Y108.888 E0.77507
G1 X82.934 Y109.196 E0.78978
G1 X82.858 Y109.519 E0.80450
G1 X82.833 Y109.850 E0.81922
G1 X82.858 Y110.181 E0.83393
G1 X82.934 Y110.504 E0.84865
G1 X83.058 Y110.812 E0.86337
G1 X83.227 Y111.097 E0.87809
G1 X83.438 Y111.353 E0.89281
G1 X83.686 Y111.574 E0.90752
G1 X83.965 Y111.754 E0.92224
G1 X84.267 Y111.890 E0.93696
G1 X84.587 Y111.978 E0.95168
G1 X84.917 Y112.016 E0.96639
G1 X85.080 Y112.009 E0.97364
G1 X85.249 Y112.003 E0.98111
G1 X85.574 Y111.940 E0.99583
G1 X85.887 Y111.828 E1.01054
G1 X86.178 Y111.669 E1.02526
G1 X86.442 Y111.468 E1.03998
G1 X86.672 Y111.229 E1.05470
G1 X86.863 Y110.958 E1.06941
G1 X87.010 Y110.660 E1.08413
G1 X87.110 Y110.344 E1.09885
G1 X87.161 Y110.016 E1.11357
G1 X87.161 Y109.684 E1.12828
G1 X87.110 Y109.356 E1.14300
G1 X87.010 Y109.040 E1.15772
G1 X86.863 Y108.742 E1.17243
G1 X86.672 Y108.471 E1.18715
G1 X86.442 Y108.232 E1.20187
G1 X86.178 Y108.031 E1.21659
G1 X85.887 Y107.872 E1.23130
G1 X85.574 Y107.760 E1.24602
G1 X85.249 Y107.697 E1.26074
G1 X84.917 Y107.684 E1.27545
G1 X84.587 Y107.722 E1.29017
G1 X84.357 Y107.786 E1.30078
G1 X85.069 Y108.046 F7800.000
G1 F900.000
G1 X84.931 Y108.041 E1.30692
G1 X84.655 Y108.073 E1.31922
G1 X84.388 Y108.146 E1.33152
G1 X84.135 Y108.259 E1.34381
G1 X83.902 Y108.410 E1.35611
G1 X83.695 Y108.594 E1.36840
G1 X83.519 Y108.808 E1.38070
G1 X83.377 Y109.047 E1.39299
G1 X83.274 Y109.304 E1.40529
G1 X83.211 Y109.574 E1.41758
G1 X83.189 Y109.850 E1.42988
G1 X83.211 Y110.126 E1.44217
G1 X83.274 Y110.396 E1.45447
G1 X83.377 Y110.653 E1.46676
G1 X83.519 Y110.892 E1.47906
G1 X83.695 Y111.106 E1.49135
G1 X83.902 Y111.290 E1.50365
G1 X84.135 Y111.441 E1.51595
G1 X84.388 Y111.554 E1.52824
G1 X84.655 Y111.627 E1.54054
G1 X84.931 Y111.659 E1.55283
G1 X85.208 Y111.649 E1.56512
G1 X85.480 Y111.596 E1.57742
G1 X85.741 Y111.502 E1.58971
G1 X85.984 Y111.370 E1.60201
G1 X86.205 Y111.202 E1.61431
G1 X86.397 Y111.002 E1.62660
G1 X86.556 Y110.775 E1.63890
G1 X86.679 Y110.527 E1.65119
G1 X86.763 Y110.263 E1.66349
G1 X86.805 Y109.989 E1.67578
G1 X86.805 Y109.711 E1.68808
G1 X86.763 Y109.437 E1.70037
G1 X86.679 Y109.173 E1.71267
G1 X86.556 Y108.925 E1.72496
G1 X86.397 Y108.698 E1.73726
G1 X86.205 Y108.498 E1.74955
G1 X85.984 Y108.330 E1.76185
G1 X85.741 Y108.198 E1.77415
G1 X85.480 Y108.104 E1.78644
G1 X85.129 Y108.048 E1.80219
G1 X85.009 Y107.921 F7800.000
G92 E0
G1 E-2.00000 F2400.00000
G1 X80.593 Y98.813 F7800.000
G1 E0.00000 F2400.00000
G1 F900.000
G1 X81.142 Y98.491 E0.02826
G1 X81.529 Y98.197 E0.04979
G1 X81.885 Y97.867 E0.07132
G1 X82.208 Y97.505 E0.09284
G1 X82.494 Y97.113 E0.11437
G1 X82.741 Y96.695 E0.13589
G1 X82.947 Y96.256 E0.15742
G1 X83.109 Y95.798 E0.17894
G1 X83.226 Y95.328 E0.20047
G1 X83.298 Y94.847 E0.22199
G1 X83.322 Y94.363 E0.24352
G1 X83.300 Y93.878 E0.26504
G1 X83.231 Y93.398 E0.28657
G1 X83.116 Y92.926 E0.30810
G1 X82.956 Y92.468 E0.32962
G1 X82.753 Y92.027 E0.35114
G1 X82.508 Y91.608 E0.37267
G1 X82.224 Y91.215 E0.39420
G1 X81.903 Y90.851 E0.41572
G1 X81.548 Y90.520 E0.43725
G1 X81.163 Y90.224 E0.45877
G1 X80.752 Y89.967 E0.48030
G1 X80.317 Y89.751 E0.50183
G1 X79.864 Y89.577 E0.52335
G1 X79.396 Y89.449 E0.54488
G1 X78.918 Y89.366 E0.56640
G1 X78.434 Y89.329 E0.58793
G1 X77.949 Y89.340 E0.60945
G1 X77.467 Y89.397 E0.63098
G1 X76.993 Y89.501 E0.65251
G1 X76.531 Y89.650 E0.67403
G1 X76.085 Y89.842 E0.69555
G1 X75.661 Y90.077 E0.71708
G1 X75.261 Y90.352 E0.73861
G1 X74.889 Y90.664 E0.76013
G1 X74.549 Y91.010 E0.78165
G1 X74.244 Y91.388 E0.80318
G1 X73.977 Y91.793 E0.82470
G1 X73.751 Y92.222 E0.84622
G1 X73.567 Y92.671 E0.86775
G1 X73.427 Y93.136 E0.88927
G1 X73.332 Y93.612 E0.91079
G1 X73.284 Y94.095 E0.93232
G1 X73.283 Y94.580 E0.95384
G1 X73.329 Y95.063 E0.97536
G1 X73.421 Y95.539 E0.99689
G1 X73.558 Y96.005 E1.01841
G1 X73.740 Y96.455 E1.03993
G1 X73.964 Y96.885 E1.06146
G1 X74.229 Y97.291 E1.08298
G1 X74.532 Y97.671 E1.10450
G1 X74.870 Y98.019 E1.12603
G1 X75.240 Y98.333 E1.14755
G1 X75.639 Y98.609 E1.16908
G1 X76.062 Y98.846 E1.19061
G1 X76.507 Y99.041 E1.21213
G1 X76.968 Y99.192 E1.23366
G1 X77.442 Y99.298 E1.25518
G1 X77.923 Y99.358 E1.27671
G1 X78.408 Y99.371 E1.29823
G1 X78.892 Y99.337 E1.31976
G1 X79.371 Y99.257 E1.34128
G1 X79.840 Y99.130 E1.36281
G1 X80.294 Y98.960 E1.38433
G1 X80.539 Y98.839 E1.39644
G1 X80.382 Y98.520 F7800.000
G1 F900.000
G1 X80.557 Y98.434 E1.40510
G1 X80.941 Y98.197 E1.42510
G1 X81.300 Y97.924 E1.44510
G1 X81.631 Y97.618 E1.46510
G1 X81.931 Y97.281 E1.48509
G1 X82.197 Y96.917 E1.50509
G1 X82.426 Y96.529 E1.52509
G1 X82.617 Y96.121 E1.54509
G1 X82.768 Y95.696 E1.56509
G1 X82.877 Y95.258 E1.58509
G1 X82.943 Y94.812 E1.60509
G1 X82.966 Y94.362 E1.62509
G1 X82.946 Y93.911 E1.64509
G1 X82.882 Y93.465 E1.66509
G1 X82.775 Y93.027 E1.68509
G1 X82.626 Y92.601 E1.70509
G1 X82.437 Y92.192 E1.72509
G1 X82.210 Y91.803 E1.74509
G1 X81.946 Y91.437 E1.76509
G1 X81.647 Y91.099 E1.78509
G1 X81.318 Y90.791 E1.80509
G1 X80.960 Y90.516 E1.82509
G1 X80.578 Y90.278 E1.84509
G1 X80.174 Y90.077 E1.86509
G1 X79.753 Y89.916 E1.88509
G1 X79.318 Y89.796 E1.90509
G1 X78.874 Y89.719 E1.92509
G1 X78.424 Y89.685 E1.94508
G1 X77.974 Y89.695 E1.96508
G1 X77.526 Y89.748 E1.98508
G1 X77.085 Y89.845 E2.00508
G1 X76.656 Y89.983 E2.02508
G1 X76.242 Y90.162 E2.04508
G1 X75.848 Y90.380 E2.06508
G1 X75.476 Y90.635 E2.08508
G1 X75.131 Y90.925 E2.10508
G1 X74.815 Y91.247 E2.12508
G1 X74.532 Y91.598 E2.14508
G1 X74.284 Y91.974 E2.16507
G1 X74.073 Y92.373 E2.18507
G1 X73.902 Y92.790 E2.20507
G1 X73.772 Y93.222 E2.22507
G1 X73.684 Y93.664 E2.24506
G1 X73.640 Y94.113 E2.26506
G1 X73.639 Y94.564 E2.28506
G1 X73.681 Y95.012 E2.30506
G1 X73.766 Y95.455 E2.32505
G1 X73.894 Y95.887 E2.34505
G1 X74.063 Y96.305 E2.36505
G1 X74.272 Y96.705 E2.38505
G1 X74.518 Y97.083 E2.40504
G1 X74.799 Y97.435 E2.42504
G1 X75.113 Y97.759 E2.44504
G1 X75.457 Y98.050 E2.46504
G1 X75.828 Y98.307 E2.48504
G1 X76.221 Y98.528 E2.50504
G1 X76.634 Y98.709 E2.52504
G1 X77.062 Y98.849 E2.54504
G1 X77.502 Y98.948 E2.56504
G1 X77.950 Y99.003 E2.58503
G1 X78.401 Y99.015 E2.60504
G1 X78.850 Y98.984 E2.62504
G1 X79.295 Y98.909 E2.64503
G1 X79.730 Y98.792 E2.66503
G1 X80.152 Y98.633 E2.68503
G1 X80.328 Y98.547 E2.69371
G1 X80.171 Y98.227 F7800.000
G1 F900.000
G1 X80.385 Y98.122 E2.70427
G1 X80.739 Y97.904 E2.72274
G1 X81.071 Y97.652 E2.74122
G1 X81.377 Y97.369 E2.75969
G1 X81.654 Y97.058 E2.77816
G1 X81.899 Y96.721 E2.79664
G1 X82.111 Y96.363 E2.81511
G1 X82.288 Y95.986 E2.83359
G1 X82.427 Y95.593 E2.85206
G1 X82.528 Y95.189 E2.87053
G1 X82.589 Y94.777 E2.88901
G1 X82.610 Y94.361 E2.90748
G1 X82.591 Y93.945 E2.92595
G1 X82.532 Y93.533 E2.94443
G1 X82.433 Y93.128 E2.96290
G1 X82.296 Y92.735 E2.98137
G1 X82.122 Y92.357 E2.99985
G1 X81.911 Y91.997 E3.01832
G1 X81.667 Y91.660 E3.03680
G1 X81.392 Y91.347 E3.05527
G1 X81.088 Y91.063 E3.07374
G1 X80.757 Y90.809 E3.09222
G1 X80.404 Y90.588 E3.11069
G1 X80.031 Y90.403 E3.12916
G1 X79.642 Y90.254 E3.14764
G1 X79.241 Y90.144 E3.16611
G1 X78.830 Y90.073 E3.18459
G1 X78.415 Y90.041 E3.20306
G1 X77.999 Y90.050 E3.22153
G1 X77.585 Y90.099 E3.24000
G1 X77.178 Y90.188 E3.25848
G1 X76.782 Y90.316 E3.27695
G1 X76.399 Y90.481 E3.29542
G1 X76.035 Y90.683 E3.31390
G1 X75.692 Y90.919 E3.33237
G1 X75.373 Y91.186 E3.35085
G1 X75.081 Y91.484 E3.36932
G1 X74.819 Y91.808 E3.38779
G1 X74.590 Y92.156 E3.40626
G1 X74.396 Y92.524 E3.42473
G1 X74.238 Y92.909 E3.44320
G1 X74.118 Y93.308 E3.46168
G1 X74.037 Y93.716 E3.48015
G1 X73.995 Y94.131 E3.49862
G1 X73.994 Y94.547 E3.51709
G1 X74.033 Y94.962 E3.53556
G1 X74.112 Y95.371 E3.55403
G1 X74.230 Y95.770 E3.57251
G1 X74.386 Y96.156 E3.59098
G1 X74.579 Y96.525 E3.60945
G1 X74.806 Y96.874 E3.62792
G1 X75.066 Y97.200 E3.64639
G1 X75.356 Y97.499 E3.66487
G1 X75.674 Y97.768 E3.68334
G1 X76.016 Y98.005 E3.70181
G1 X76.380 Y98.209 E3.72029
G1 X76.761 Y98.376 E3.73876
G1 X77.157 Y98.506 E3.75723
G1 X77.563 Y98.597 E3.77571
G1 X77.977 Y98.648 E3.79418
G1 X78.393 Y98.659 E3.81265
G1 X78.808 Y98.630 E3.83113
G1 X79.219 Y98.561 E3.84960
G1 X79.621 Y98.453 E3.86807
G1 X80.117 Y98.254 E3.89178
G1 X80.366 Y98.364 F7800.000
G92 E0
G1 E-2.00000 F2400.00000
G1 X84.519 Y81.328 F7800.000
G1 E0.00000 F2400.00000
G1 F900.000
G1 X84.903 Y81.372 E0.01714
G1 X85.289 Y81.357 E0.03428
G1 X85.669 Y81.284 E0.05142
G1 X86.032 Y81.153 E0.06856
G1 X86.372 Y80.969 E0.08569
G1 X86.679 Y80.734 E0.10283
G1 X86.947 Y80.456 E0.11997
G1 X87.169 Y80.140 E0.13711
G1 X87.341 Y79.794 E0.15425
G1 X87.458 Y79.425 E0.17140
G1 X87.517 Y79.043 E0.18853
G1 X87.517 Y78.657 E0.20567
G1 X87.458 Y78.275 E0.22281
G1 X87.341 Y77.906 E0.23995
G1 X87.169 Y77.560 E0.25709
G1 X86.947 Y77.244 E0.27423
G1 X86.679 Y76.966 E0.29137
G1 X86.372 Y76.731 E0.30851
G1 X86.032 Y76.547 E0.32565
G1 X85.669 Y76.416 E0.34278
G1 X85.289 Y76.343 E0.35992
G1 X85.094 Y76.335 E0.36861
G1 X84.903 Y76.328 E0.37706
G1 X84.519 Y76.372 E0.39420
G1 X84.147 Y76.475 E0.41134
G1 X83.794 Y76.633 E0.42848
G1 X83.470 Y76.843 E0.44562
G1 X83.181 Y77.100 E0.46276
G1 X82.936 Y77.398 E0.47990
G1 X82.738 Y77.730 E0.49704
G1 X82.594 Y78.088 E0.51418
G1 X82.506 Y78.465 E0.53132
G1 X82.476 Y78.850 E0.54846
G1 X82.506 Y79.235 E0.56559
G1 X82.594 Y79.612 E0.58273
G1 X82.738 Y79.970 E0.59987
G1 X82.936 Y80.302 E0.61701
G1 X83.181 Y80.600 E0.63415
G1 X83.470 Y80.857 E0.65129
G1 X83.794 Y81.067 E0.66843
G1 X84.147 Y81.225 E0.68557
G1 X84.462 Y81.312 E0.70005
G1 X84.556 Y80.969 F7800.000
G1 F900.000
G1 X84.917 Y81.016 E0.71620
G1 X85.249 Y81.003 E0.73092
G1 X85.574 Y80.940 E0.74563
G1 X85.887 Y80.828 E0.76035
G1 X86.178 Y80.669 E0.77507
G1 X86.442 Y80.468 E0.78978
G1 X86.672 Y80.229 E0.80450
G1 X86.863 Y79.958 E0.81922
G1 X87.010 Y79.660 E0.83394
G1 X87.110 Y79.344 E0.84866
G1 X87.161 Y79.016 E0.86337
G1 X87.161 Y78.684 E0.87809
G1 X87.110 Y78.356 E0.89280
G1 X87.010 Y78.040 E0.90752
G1 X86.863 Y77.742 E0.92224
G1 X86.672 Y77.471 E0.93696
G1 X86.442 Y77.232 E0.95168
G1 X86.178 Y77.031 E0.96639
G1 X85.887 Y76.872 E0.98111
G1 X85.574 Y76.760 E0.99583
G1 X85.249 Y76.697 E1.01054
G1 X85.080 Y76.691 E1.01802
G1 X84.917 Y76.684 E1.02526
G1 X84.587 Y76.722 E1.03998
G1 X84.267 Y76.810 E1.05470
G1 X83.965 Y76.946 E1.06941
G1 X83.686 Y77.126 E1.08413
G1 X83.438 Y77.347 E1.09885
G1 X83.227 Y77.603 E1.11357
G1 X83.058 Y77.888 E1.12828
G1 X82.934 Y78.196 E1.14300
G1 X82.858 Y78.519 E1.15772
G1 X82.833 Y78.850 E1.17243
G1 X82.858 Y79.181 E1.18715
G1 X82.934 Y79.504 E1.20187
G1 X83.058 Y79.812 E1.21659
G1 X83.227 Y80.097 E1.23130
G1 X83.438 Y80.353 E1.24602
G1 X83.686 Y80.574 E1.26074
G1 X83.965 Y80.754 E1.27545
G1 X84.267 Y80.890 E1.29017
G1 X84.498 Y80.953 E1.30078
G1 X84.655 Y80.627 F7800.000
G1 F900.000
G1 X84.931 Y80.659 E1.31307
G1 X85.208 Y80.649 E1.32537
G1 X85.480 Y80.596 E1.33766
G1 X85.741 Y80.502 E1.34996
G1 X85.984 Y80.370 E1.36225
G1 X86.205 Y80.202 E1.37455
G1 X86.397 Y80.002 E1.38684
G1 X86.556 Y79.775 E1.39914
G1 X86.679 Y79.527 E1.41143
G1 X86.763 Y79.263 E1.42373
G1 X86.805 Y78.989 E1.43603
G1 X86.805 Y78.711 E1.44832
G1 X86.763 Y78.437 E1.46061
G1 X86.679 Y78.173 E1.47291
G1 X86.556 Y77.925 E1.48521
G1 X86.397 Y77.698 E1.49750
G1 X86.205 Y77.498 E1.50980
G1 X85.984 Y77.330 E1.52209
G1 X85.741 Y77.198 E1.53439
G1 X85.480 Y77.104 E1.54668
G1 X85.208 Y77.051 E1.55898
G1 X85.067 Y77.046 E1.56524
G1 X84.931 Y77.041 E1.57127
G1 X84.655 Y77.073 E1.58357
G1 X84.388 Y77.146 E1.59586
G1 X84.135 Y77.259 E1.60816
G1 X83.902 Y77.410 E1.62045
G1 X83.695 Y77.594 E1.63275
G1 X83.519 Y77.808 E1.64505
G1 X83.377 Y78.047 E1.65734
G1 X83.274 Y78.304 E1.66964
G1 X83.211 Y78.574 E1.68193
G1 X83.189 Y78.850 E1.69423
G1 X83.211 Y79.126 E1.70652
G1 X83.274 Y79.396 E1.71882
G1 X83.377 Y79.653 E1.73111
G1 X83.519 Y79.892 E1.74341
G1 X83.695 Y80.106 E1.75570
G1 X83.902 Y80.290 E1.76800
G1 X84.135 Y80.441 E1.78029
G1 X84.388 Y80.554 E1.79259
G1 X84.597 Y80.612 E1.80222
G1 X84.752 Y80.887 F7800.000
G92 E0
G1 E-2.00000 F2400.00000
G1 X90.435 Y85.471 F7800.000
G1 E0.00000 F2400.00000
G1 F1800.000
G1 X89.957 Y86.044 E0.03310
G1 X89.512 Y86.643 E0.06620
G1 X89.100 Y87.266 E0.09929
