; generated by Slic3r++ 2.2.50 on 2020-05-22 at 19:50:16 UTC

; 

; external perimeters extrusion width = 0.45mm
; perimeters extrusion width = 0.45mm
; infill extrusion width = 0.45mm
; solid infill extrusion width = 0.45mm
; top infill extrusion width = 0.40mm
; first layer extrusion width = 0.42mm

; object:{"name":"1_Z_Endstop","id":"1_Z_Endstop.stl id:0 copy 0","object_center":[93.341133,94.946612,93.341133],"boundingbox_center":[94.946612,7.000000,40.000000],"boundingbox_size":[20.000000,14.000000,0.000000]}

M201 X9000 Y9000 Z500 E10000 ; sets maximum accelerations, mm/sec^2
M203 X500 Y500 Z12 E120 ; sets maximum feedrates, mm/sec
M204 P1500 R1500 T1500 ; sets acceleration (P, T) and retract acceleration (R), mm/sec^2
M205 X10.00 Y10.00 Z0.20 E2.50 ; sets the jerk limits, mm/sec
M205 S0 T0 ; sets the minimum extruding and travel feed rate, mm/sec
M107
M190 S60 ; set bed temperature and wait for it to be reached
M104 S200 ; set temperature
G28 ; home all axes
G1 Z5 F5000 ; lift nozzle
M109 S200 ; set temperature and wait for it to be reached
G21 ; set units to millimeters
G90 ; use absolute coordinates
M82 ; use absolute distances for extrusion
G92 E0
; Filament gcode
G1 Z0.200 F7800.000
G1 E-2.00000 F2400.00000
G1 X69.674 Y79.962 F7800.000
G1 E0.00000 F2400.00000
M204 S1250
G1 F1200.000
G1 X71.017 Y79.211 E0.04824
G1 X72.128 Y78.878 E0.08461
G1 X73.275 Y78.758 E0.12078
G1 X113.347 Y78.758 E1.37721
G1 X114.496 Y78.867 E1.41339
G1 X115.610 Y79.189 E1.44975
G1 X116.639 Y79.710 E1.48593
G1 X117.559 Y80.418 E1.52229
G1 X118.326 Y81.279 E1.55847
G1 X118.923 Y82.274 E1.59484
G1 X119.322 Y83.356 E1.63101
G1 X119.514 Y84.500 E1.66738
G1 X119.530 Y104.959 E2.30885
G1 X119.464 Y105.847 E2.33676
G1 X119.297 Y106.628 E2.36180
G1 X119.029 Y107.386 E2.38702
G1 X118.664 Y108.103 E2.41225
G1 X118.210 Y108.767 E2.43747
G1 X117.673 Y109.366 E2.46270
G1 X117.063 Y109.891 E2.48793
G1 X116.390 Y110.332 E2.51315
G1 X115.665 Y110.682 E2.53838
G1 X114.554 Y111.015 E2.57475
G1 X113.401 Y111.135 E2.61111
G1 X93.274 Y111.135 E3.24219
G1 X92.471 Y111.074 E3.26741
G1 X91.678 Y110.907 E3.29283
G1 X90.600 Y110.495 E3.32901
G1 X70.292 Y100.332 E4.04106
G1 X69.435 Y99.746 E4.07359
G1 X68.688 Y99.026 E4.10612
G1 X68.072 Y98.192 E4.13865
G1 X67.604 Y97.266 E4.17117
G1 X67.281 Y96.203 E4.20601
G1 X67.155 Y95.105 E4.24065
G1 X67.153 Y84.891 E4.56090
G1 X67.260 Y83.798 E4.59535
G1 X67.734 Y82.328 E4.64378
G1 X68.553 Y81.025 E4.69203
G1 X69.630 Y80.003 E4.73858
M204 S1500
; printing object 1_Z_Endstop.stl id:0 copy 0
G92 E0
G1 E-2.00000 F2400.00000
G1 X100.106 Y89.126 F7800.000
G1 E0.00000 F2400.00000
M204 S1250
G1 F900.000
G1 X100.045 Y89.416 E0.00929
G1 X100.002 Y89.947 E0.02598
G1 X100.046 Y90.489 E0.04305
G1 X100.178 Y91.017 E0.06011
G1 X100.394 Y91.517 E0.07718
G1 X100.689 Y91.975 E0.09425
G1 X101.045 Y92.370 E0.11094
G1 X101.269 Y92.564 E0.12023
G1 X101.701 Y92.854 E0.13654
G1 X101.965 Y92.988 E0.14583
G1 X102.455 Y93.165 E0.16214
G1 X102.743 Y93.231 E0.17143
G1 X103.273 Y93.285 E0.18812
G1 X103.816 Y93.252 E0.20519
G1 X104.335 Y93.133 E0.22188
G1 X104.614 Y93.033 E0.23117
G1 X105.089 Y92.792 E0.24785
G1 X105.528 Y92.470 E0.26492
G1 X105.900 Y92.090 E0.28161
G1 X106.080 Y91.855 E0.29090
G1 X106.349 Y91.395 E0.30759
G1 X106.545 Y90.887 E0.32466
G1 X106.653 Y90.366 E0.34135
G1 X106.677 Y90.071 E0.35064
G1 X106.655 Y89.539 E0.36733
G1 X106.547 Y89.018 E0.38402
G1 X106.452 Y88.737 E0.39331
G1 X106.221 Y88.257 E0.41000
G1 X105.909 Y87.812 E0.42706
G1 X105.536 Y87.432 E0.44375
G1 X105.305 Y87.247 E0.45304
G1 X104.851 Y86.968 E0.46973
G1 X104.347 Y86.763 E0.48680
G1 X103.828 Y86.644 E0.50349
G1 X103.579 Y86.619 E0.51132
G1 X103.001 Y86.625 E0.52946
G1 X102.466 Y86.724 E0.54652
G1 X101.965 Y86.905 E0.56321
G1 X101.701 Y87.039 E0.57250
G1 X101.269 Y87.329 E0.58881
G1 X101.045 Y87.523 E0.59810
G1 X100.689 Y87.918 E0.61479
G1 X100.401 Y88.366 E0.63148
G1 X100.272 Y88.633 E0.64077
G1 X100.125 Y89.069 E0.65520
M204 S1500
G1 X100.676 Y88.663 F7800.000
M204 S1250
G1 F900.000
G1 X100.470 Y89.225 E0.67397
G1 X100.419 Y89.470 E0.68181
G1 X100.380 Y89.947 E0.69680
G1 X100.420 Y90.428 E0.71194
G1 X100.537 Y90.896 E0.72707
G1 X100.728 Y91.339 E0.74220
G1 X100.989 Y91.745 E0.75734
G1 X101.310 Y92.100 E0.77233
G1 X101.499 Y92.264 E0.78018
G1 X101.892 Y92.528 E0.79504
G1 X102.115 Y92.641 E0.80288
G1 X102.561 Y92.802 E0.81774
G1 X102.805 Y92.858 E0.82558
G1 X103.281 Y92.907 E0.84058
G1 X103.762 Y92.877 E0.85571
G1 X104.229 Y92.771 E0.87071
G1 X104.464 Y92.686 E0.87855
G1 X104.891 Y92.469 E0.89355
G1 X105.280 Y92.184 E0.90869
G1 X105.615 Y91.842 E0.92368
G1 X105.767 Y91.644 E0.93152
G1 X106.009 Y91.231 E0.94652
G1 X106.182 Y90.781 E0.96166
G1 X106.279 Y90.312 E0.97665
G1 X106.299 Y90.063 E0.98449
G1 X106.280 Y89.585 E0.99949
G1 X106.183 Y89.117 E1.01449
G1 X106.103 Y88.880 E1.02233
G1 X105.895 Y88.449 E1.03733
G1 X105.618 Y88.054 E1.05246
G1 X105.283 Y87.712 E1.06746
G1 X105.087 Y87.556 E1.07530
G1 X104.680 Y87.306 E1.09030
G1 X104.233 Y87.123 E1.10543
G1 X103.767 Y87.017 E1.12043
G1 X103.541 Y86.994 E1.12754
G1 X103.040 Y87.001 E1.14326
G1 X102.565 Y87.089 E1.15840
G1 X102.115 Y87.252 E1.17340
G1 X101.892 Y87.365 E1.18124
G1 X101.499 Y87.629 E1.19610
G1 X101.310 Y87.793 E1.20394
G1 X100.989 Y88.148 E1.21894
G1 X100.702 Y88.609 E1.23596
M204 S1500
G1 X100.279 Y88.706 F7800.000
G92 E0
G1 E-2.00000 F2400.00000
G1 X99.490 Y97.771 F7800.000
G1 E0.00000 F2400.00000
M204 S1250
G1 F900.000
G1 X99.329 Y97.742 E0.00511
G1 X98.853 Y97.742 E0.02005
G1 X98.532 Y97.800 E0.03028
G1 X98.059 Y97.980 E0.04615
G1 X97.618 Y98.284 E0.06294
G1 X97.283 Y98.663 E0.07880
G1 X97.114 Y98.942 E0.08903
G1 X96.945 Y99.388 E0.10397
G1 X96.886 Y99.708 E0.11420
G1 X96.886 Y100.185 E0.12914
G1 X96.945 Y100.506 E0.13937
G1 X97.124 Y100.979 E0.15524
G1 X97.429 Y101.420 E0.17203
G1 X97.807 Y101.755 E0.18789
G1 X98.086 Y101.924 E0.19812
G1 X98.532 Y102.093 E0.21306
G1 X98.853 Y102.152 E0.22329
G1 X99.329 Y102.152 E0.23823
G1 X99.650 Y102.093 E0.24846
G1 X100.123 Y101.913 E0.26432
G1 X100.564 Y101.609 E0.28111
G1 X100.900 Y101.230 E0.29698
G1 X101.068 Y100.951 E0.30721
G1 X101.237 Y100.506 E0.32215
G1 X101.296 Y100.185 E0.33238
G1 X101.296 Y99.708 E0.34732
G1 X101.237 Y99.387 E0.35755
G1 X101.058 Y98.914 E0.37341
G1 X100.754 Y98.474 E0.39020
G1 X100.375 Y98.138 E0.40607
G1 X100.096 Y97.969 E0.41630
G1 X99.650 Y97.800 E0.43124
G1 X99.549 Y97.782 E0.43447
M204 S1500
G1 X99.481 Y98.153 F7800.000
M204 S1250
G1 F900.000
G1 X99.295 Y98.119 E0.44039
G1 X98.887 Y98.119 E0.45318
G1 X98.634 Y98.165 E0.46126
G1 X98.235 Y98.316 E0.47462
G1 X97.870 Y98.568 E0.48854
G1 X97.588 Y98.887 E0.50189
G1 X97.454 Y99.108 E0.50997
G1 X97.310 Y99.489 E0.52277
G1 X97.263 Y99.743 E0.53085
G1 X97.263 Y100.151 E0.54364
G1 X97.310 Y100.404 E0.55172
G1 X97.461 Y100.802 E0.56507
G1 X97.713 Y101.168 E0.57899
G1 X98.032 Y101.450 E0.59235
G1 X98.252 Y101.583 E0.60043
G1 X98.634 Y101.728 E0.61322
G1 X98.887 Y101.775 E0.62130
G1 X99.295 Y101.775 E0.63409
G1 X99.549 Y101.728 E0.64217
G1 X99.947 Y101.577 E0.65553
G1 X100.312 Y101.325 E0.66944
G1 X100.595 Y101.006 E0.68280
G1 X100.728 Y100.786 E0.69088
G1 X100.873 Y100.404 E0.70367
G1 X100.919 Y100.151 E0.71175
G1 X100.919 Y99.743 E0.72454
G1 X100.873 Y99.489 E0.73262
G1 X100.722 Y99.091 E0.74598
G1 X100.469 Y98.726 E0.75990
G1 X100.151 Y98.443 E0.77325
G1 X99.930 Y98.310 E0.78133
G1 X99.540 Y98.163 E0.79440
M204 S1500
G1 X99.447 Y98.530 F7800.000
M204 S1250
G1 F900.000
G1 X99.261 Y98.496 E0.80033
G1 X98.921 Y98.496 E0.81097
G1 X98.735 Y98.530 E0.81690
G1 X98.412 Y98.652 E0.82775
G1 X98.122 Y98.853 E0.83880
G1 X97.893 Y99.112 E0.84964
G1 X97.795 Y99.273 E0.85557
G1 X97.674 Y99.591 E0.86622
G1 X97.640 Y99.777 E0.87215
G1 X97.640 Y100.116 E0.88279
G1 X97.674 Y100.302 E0.88872
G1 X97.797 Y100.626 E0.89957
G1 X97.997 Y100.916 E0.91061
G1 X98.256 Y101.145 E0.92146
G1 X98.418 Y101.243 E0.92739
G1 X98.735 Y101.363 E0.93804
G1 X98.921 Y101.398 E0.94397
G1 X99.261 Y101.398 E0.95461
G1 X99.447 Y101.363 E0.96054
G1 X99.770 Y101.241 E0.97139
G1 X100.060 Y101.041 E0.98243
G1 X100.290 Y100.782 E0.99328
G1 X100.388 Y100.620 E0.99921
G1 X100.508 Y100.302 E1.00985
G1 X100.542 Y100.116 E1.01578
G1 X100.542 Y99.777 E1.02643
G1 X100.508 Y99.591 E1.03236
G1 X100.385 Y99.267 E1.04320
G1 X100.185 Y98.977 E1.05425
G1 X99.926 Y98.748 E1.06510
G1 X99.764 Y98.650 E1.07103
G1 X99.503 Y98.551 E1.07979
M204 S1500
G1 X99.394 Y98.348 F7800.000
G92 E0
G1 E-2.00000 F2400.00000
G1 X105.386 Y99.708 F7800.000
G1 E0.00000 F2400.00000
M204 S1250
G1 F900.000
G1 X105.386 Y100.185 E0.01494
G1 X105.445 Y100.506 E0.02517
G1 X105.624 Y100.979 E0.04104
G1 X105.929 Y101.420 E0.05782
G1 X106.307 Y101.755 E0.07369
G1 X106.586 Y101.924 E0.08392
G1 X107.032 Y102.093 E0.09886
G1 X107.353 Y102.152 E0.10909
G1 X107.829 Y102.152 E0.12403
G1 X108.150 Y102.093 E0.13426
G1 X108.623 Y101.913 E0.15012
G1 X109.064 Y101.609 E0.16691
G1 X109.400 Y101.230 E0.18278
G1 X109.568 Y100.951 E0.19301
G1 X109.737 Y100.506 E0.20795
G1 X109.796 Y100.185 E0.21818
G1 X109.796 Y99.708 E0.23312
G1 X109.737 Y99.387 E0.24335
G1 X109.558 Y98.914 E0.25921
G1 X109.254 Y98.474 E0.27600
G1 X108.875 Y98.138 E0.29187
G1 X108.596 Y97.969 E0.30209
G1 X108.150 Y97.800 E0.31704
G1 X107.829 Y97.742 E0.32726
G1 X107.353 Y97.742 E0.34221
G1 X107.032 Y97.800 E0.35243
G1 X106.559 Y97.980 E0.36830
G1 X106.118 Y98.284 E0.38509
G1 X105.783 Y98.663 E0.40095
G1 X105.614 Y98.942 E0.41118
G1 X105.445 Y99.388 E0.42613
G1 X105.397 Y99.649 E0.43447
M204 S1500
G1 X105.768 Y99.717 F7800.000
M204 S1250
G1 F900.000
G1 X105.763 Y100.151 E0.44806
G1 X105.810 Y100.404 E0.45614
G1 X105.961 Y100.802 E0.46949
G1 X106.213 Y101.168 E0.48341
G1 X106.532 Y101.450 E0.49677
G1 X106.752 Y101.583 E0.50485
G1 X107.134 Y101.728 E0.51764
G1 X107.387 Y101.775 E0.52572
G1 X107.795 Y101.775 E0.53851
G1 X108.049 Y101.728 E0.54659
G1 X108.447 Y101.577 E0.55995
G1 X108.812 Y101.325 E0.57387
G1 X109.095 Y101.006 E0.58722
G1 X109.228 Y100.786 E0.59530
G1 X109.373 Y100.404 E0.60809
G1 X109.419 Y100.151 E0.61617
G1 X109.419 Y99.743 E0.62897
G1 X109.373 Y99.489 E0.63704
G1 X109.222 Y99.091 E0.65040
G1 X108.969 Y98.726 E0.66432
G1 X108.651 Y98.443 E0.67767
G1 X108.430 Y98.310 E0.68575
G1 X108.049 Y98.165 E0.69855
G1 X107.795 Y98.119 E0.70663
G1 X107.387 Y98.119 E0.71942
G1 X107.134 Y98.165 E0.72750
G1 X106.735 Y98.316 E0.74085
G1 X106.370 Y98.568 E0.75477
G1 X106.088 Y98.887 E0.76813
G1 X105.954 Y99.108 E0.77621
G1 X105.810 Y99.489 E0.78900
G1 X105.779 Y99.658 E0.79439
M204 S1500
G1 X106.140 Y99.777 F7800.000
M204 S1250
G1 F900.000
G1 X106.140 Y100.116 E0.80504
G1 X106.174 Y100.302 E0.81096
G1 X106.297 Y100.626 E0.82181
G1 X106.497 Y100.916 E0.83286
G1 X106.756 Y101.145 E0.84370
G1 X106.918 Y101.243 E0.84963
G1 X107.235 Y101.363 E0.86028
G1 X107.421 Y101.398 E0.86621
G1 X107.761 Y101.398 E0.87685
G1 X107.947 Y101.363 E0.88278
G1 X108.270 Y101.241 E0.89363
G1 X108.560 Y101.041 E0.90468
G1 X108.790 Y100.782 E0.91552
G1 X108.888 Y100.620 E0.92145
G1 X109.008 Y100.302 E0.93210
G1 X109.042 Y100.116 E0.93803
G1 X109.042 Y99.777 E0.94867
G1 X109.008 Y99.591 E0.95460
G1 X108.885 Y99.267 E0.96545
G1 X108.685 Y98.977 E0.97650
G1 X108.426 Y98.748 E0.98734
G1 X108.264 Y98.650 E0.99327
G1 X107.947 Y98.530 E1.00392
G1 X107.761 Y98.496 E1.00985
G1 X107.421 Y98.496 E1.02049
G1 X107.235 Y98.530 E1.02642
G1 X106.912 Y98.652 E1.03727
G1 X106.622 Y98.853 E1.04831
G1 X106.393 Y99.112 E1.05916
G1 X106.295 Y99.273 E1.06509
G1 X106.174 Y99.591 E1.07573
G1 X106.151 Y99.718 E1.07978
M204 S1500
G1 X105.837 Y99.929 F7800.000
G92 E0
G1 E-2.00000 F2400.00000
G1 X94.305 Y93.982 F7800.000
G1 E0.00000 F2400.00000
M204 S1250
G1 F1200.000
G1 X83.739 Y93.982 E0.33131
G1 X83.703 Y93.664 E0.34134
G1 X84.442 Y93.496 E0.36511
G1 X84.764 Y93.379 E0.37584
G1 X85.287 Y93.114 E0.39423
G1 X85.775 Y92.756 E0.41323
G1 X86.186 Y92.337 E0.43161
G1 X86.394 Y92.065 E0.44235
G1 X86.690 Y91.560 E0.46073
G1 X86.908 Y90.994 E0.47973
G1 X87.027 Y90.420 E0.49811
G1 X87.055 Y90.078 E0.50885
G1 X87.031 Y89.493 E0.52723
G1 X86.912 Y88.919 E0.54561
G1 X86.802 Y88.594 E0.55635
G1 X86.548 Y88.066 E0.57473
G1 X86.200 Y87.570 E0.59373
G1 X85.789 Y87.151 E0.61211
G1 X85.522 Y86.938 E0.62285
G1 X85.022 Y86.631 E0.64123
G1 X84.461 Y86.402 E0.66023
G1 X83.889 Y86.271 E0.67861
G1 X83.687 Y86.251 E0.68500
G1 X83.704 Y85.911 E0.69567
G1 X102.999 Y85.911 E1.30066
G1 X103.029 Y86.236 E1.31090
G1 X102.367 Y86.359 E1.33204
G1 X101.815 Y86.558 E1.35042
G1 X101.510 Y86.713 E1.36116
G1 X101.040 Y87.029 E1.37892
G1 X100.781 Y87.254 E1.38966
G1 X100.388 Y87.689 E1.40804
G1 X100.071 Y88.182 E1.42642
G1 X99.923 Y88.490 E1.43716
G1 X99.741 Y89.027 E1.45492
G1 X99.672 Y89.362 E1.46566
G1 X99.624 Y89.947 E1.48404
G1 X99.673 Y90.551 E1.50304
G1 X99.820 Y91.139 E1.52204
G1 X100.060 Y91.695 E1.54104
G1 X100.388 Y92.205 E1.56004
G1 X100.781 Y92.640 E1.57842
G1 X101.040 Y92.864 E1.58916
G1 X101.510 Y93.180 E1.60692
G1 X101.815 Y93.335 E1.61766
G1 X102.348 Y93.527 E1.63542
G1 X102.682 Y93.604 E1.64616
G1 X103.265 Y93.663 E1.66454
G1 X103.870 Y93.626 E1.68354
G1 X104.442 Y93.496 E1.70192
G1 X104.764 Y93.379 E1.71266
G1 X105.287 Y93.114 E1.73104
G1 X105.775 Y92.756 E1.75004
G1 X106.186 Y92.337 E1.76842
G1 X106.394 Y92.065 E1.77916
G1 X106.690 Y91.560 E1.79754
G1 X106.908 Y90.994 E1.81654
G1 X107.027 Y90.420 E1.83493
G1 X107.055 Y90.078 E1.84566
G1 X107.031 Y89.493 E1.86404
G1 X106.912 Y88.919 E1.88242
G1 X106.802 Y88.594 E1.89316
G1 X106.548 Y88.066 E1.91154
G1 X106.200 Y87.570 E1.93055
G1 X105.789 Y87.151 E1.94893
G1 X105.522 Y86.938 E1.95967
G1 X105.022 Y86.631 E1.97805
G1 X104.461 Y86.402 E1.99705
G1 X103.889 Y86.271 E2.01543
G1 X103.687 Y86.251 E2.02181
G1 X103.704 Y85.911 E2.03249
G1 X112.377 Y85.911 E2.30441
G1 X112.377 Y103.982 E2.87104
G1 X94.305 Y103.982 E3.43766
G1 X94.305 Y94.042 E3.74933
M204 S1500
G92 E0
G1 E-2.00000 F2400.00000
G1 X83.063 Y93.642 F7800.000
G1 E0.00000 F2400.00000
M204 S1250
G1 F900.000
G1 X83.045 Y93.982 E0.01067
G1 X74.305 Y93.982 E0.28472
G1 X74.305 Y85.911 E0.53780
G1 X82.999 Y85.911 E0.81040
G1 X83.029 Y86.236 E0.82064
G1 X82.367 Y86.359 E0.84178
G1 X81.815 Y86.558 E0.86016
G1 X81.510 Y86.713 E0.87090
G1 X81.040 Y87.029 E0.88866
G1 X80.781 Y87.254 E0.89940
G1 X80.388 Y87.689 E0.91778
G1 X80.071 Y88.182 E0.93616
G1 X79.923 Y88.490 E0.94690
G1 X79.735 Y89.046 E0.96528
G1 X79.639 Y89.624 E0.98366
G1 X79.625 Y89.966 E0.99440
G1 X79.673 Y90.551 E1.01278
G1 X79.820 Y91.139 E1.03178
G1 X80.060 Y91.695 E1.05078
G1 X80.388 Y92.205 E1.06978
G1 X80.781 Y92.640 E1.08816
G1 X81.040 Y92.864 E1.09890
G1 X81.510 Y93.180 E1.11666
G1 X81.815 Y93.335 E1.12740
G1 X82.348 Y93.527 E1.14516
G1 X82.682 Y93.604 E1.15590
G1 X83.003 Y93.636 E1.16602
M204 S1500
G1 X83.273 Y93.285 F7800.000
M204 S1250
G1 F900.000
G1 X83.816 Y93.252 E1.18308
G1 X84.335 Y93.133 E1.19977
G1 X84.614 Y93.033 E1.20906
G1 X85.089 Y92.792 E1.22575
G1 X85.528 Y92.470 E1.24282
G1 X85.900 Y92.090 E1.25951
G1 X86.080 Y91.855 E1.26880
G1 X86.349 Y91.395 E1.28549
G1 X86.545 Y90.887 E1.30256
G1 X86.653 Y90.366 E1.31925
G1 X86.677 Y90.071 E1.32854
G1 X86.655 Y89.539 E1.34522
G1 X86.547 Y89.018 E1.36191
G1 X86.452 Y88.737 E1.37120
G1 X86.221 Y88.257 E1.38789
G1 X85.909 Y87.812 E1.40496
G1 X85.536 Y87.432 E1.42165
G1 X85.305 Y87.247 E1.43094
G1 X84.851 Y86.968 E1.44763
G1 X84.347 Y86.763 E1.46470
G1 X83.828 Y86.644 E1.48139
G1 X83.533 Y86.614 E1.49068
G1 X83.001 Y86.625 E1.50737
G1 X82.466 Y86.724 E1.52443
G1 X81.965 Y86.905 E1.54112
G1 X81.701 Y87.039 E1.55041
G1 X81.269 Y87.329 E1.56672
G1 X81.045 Y87.523 E1.57601
G1 X80.689 Y87.918 E1.59270
G1 X80.401 Y88.366 E1.60939
G1 X80.272 Y88.633 E1.61868
G1 X80.102 Y89.137 E1.63537
G1 X80.015 Y89.663 E1.65206
G1 X80.003 Y89.959 E1.66135
G1 X80.046 Y90.489 E1.67804
G1 X80.178 Y91.017 E1.69511
G1 X80.394 Y91.517 E1.71217
G1 X80.689 Y91.975 E1.72924
G1 X81.045 Y92.370 E1.74593
G1 X81.269 Y92.564 E1.75522
G1 X81.701 Y92.854 E1.77153
G1 X81.965 Y92.988 E1.78082
G1 X82.455 Y93.165 E1.79713
G1 X82.743 Y93.231 E1.80642
G1 X83.213 Y93.279 E1.82123
M204 S1500
G1 X83.252 Y92.904 F7800.000
