; generated by Slic3r++ 2.2.50 on 2020-05-23 at 13:09:47 UTC

; 

; external perimeters extrusion width = 0.45mm
; perimeters extrusion width = 0.45mm
; infill extrusion width = 0.45mm
; solid infill extrusion width = 0.45mm
; top infill extrusion width = 0.40mm
; first layer extrusion width = 0.42mm

; object:{"name":"1_Z_Rod_Holder_Right","id":"1_Z_Rod_Holder_Right.stl id:0 copy 0","object_center":[100.000000,100.000000,100.000000],"boundingbox_center":[100.000000,15.000000,66.139488],"boundingbox_size":[60.000000,30.000000,0.000000]}

M201 X9000 Y9000 Z500 E10000 ; sets maximum accelerations, mm/sec^2
M203 X500 Y500 Z12 E120 ; sets maximum feedrates, mm/sec
M204 P1500 R1500 T1500 ; sets acceleration (P, T) and retract acceleration (R), mm/sec^2
M205 X10.00 Y10.00 Z0.20 E2.50 ; sets the jerk limits, mm/sec
M205 S0 T0 ; sets the minimum extruding and travel feed rate, mm/sec
M107
M190 S60 ; set bed temperature and wait for it to be reached
M104 S205 ; set temperature
G28 ; home all axes
G1 Z5 F5000 ; lift nozzle
M109 S205 ; set temperature and wait for it to be reached
G21 ; set units to millimeters
G90 ; use absolute coordinates
M82 ; use absolute distances for extrusion
G92 E0
; Filament gcode
G1 Z0.200 F7800.000
G1 E-2.00000 F2400.00000
G1 X62.327 Y65.864 F7800.000
G1 E0.00000 F2400.00000
M204 S1250
G1 F1200.000
G1 X63.068 Y65.165 E0.03195
G1 X63.908 Y64.599 E0.06371
G1 X64.830 Y64.179 E0.09547
G1 X65.814 Y63.913 E0.12742
G1 X66.908 Y63.812 E0.16187
G1 X91.936 Y63.811 E0.94663
G1 X133.267 Y64.517 E2.24273
G1 X134.633 Y64.714 E2.28600
G1 X135.921 Y65.209 E2.32926
G1 X137.133 Y66.034 E2.37521
G1 X138.116 Y67.120 E2.42116
G1 X138.817 Y68.407 E2.46711
G1 X139.196 Y69.823 E2.51305
G1 X139.258 Y70.686 E2.54020
G1 X139.241 Y88.369 E3.09461
G1 X139.075 Y89.399 E3.12733
G1 X138.738 Y90.386 E3.16005
G1 X138.240 Y91.304 E3.19277
G1 X137.594 Y92.124 E3.22549
G1 X96.086 Y134.585 E5.08729
G1 X95.390 Y135.131 E5.11501
G1 X94.624 Y135.572 E5.14274
G1 X93.802 Y135.899 E5.17047
G1 X92.936 Y136.106 E5.19838
G1 X91.994 Y136.188 E5.22803
G1 X86.464 Y136.171 E5.40145
G1 X84.991 Y135.877 E5.44854
G1 X83.632 Y135.236 E5.49564
G1 X82.472 Y134.292 E5.54254
G1 X81.569 Y133.091 E5.58963
G1 X61.157 Y92.228 E7.02184
G1 X60.856 Y91.184 E7.05590
G1 X60.743 Y90.110 E7.08977
G1 X60.759 Y69.533 E7.73493
G1 X60.918 Y68.533 E7.76669
G1 X61.238 Y67.572 E7.79845
G1 X61.714 Y66.671 E7.83040
G1 X62.290 Y65.912 E7.86028
M204 S1500
; printing object 1_Z_Rod_Holder_Right.stl id:0 copy 0
G92 E0
G1 E-2.00000 F2400.00000
G1 X91.270 Y91.669 F7800.000
G1 E0.00000 F2400.00000
M204 S1250
G1 F1200.000
G1 X91.034 Y92.102 E0.01547
G1 X90.966 Y92.505 E0.02826
G1 X90.966 Y121.706 E0.94384
G1 X91.042 Y122.122 E0.95712
G1 X91.258 Y122.508 E0.97098
G1 X91.484 Y122.746 E0.98128
G1 X91.872 Y122.988 E0.99562
G1 X92.319 Y123.087 E1.00996
G1 X92.647 Y123.074 E1.02027
G1 X93.072 Y122.950 E1.03413
G1 X93.417 Y122.704 E1.04741
G1 X108.054 Y107.726 E1.70405
G1 X108.295 Y107.368 E1.71757
G1 X108.418 Y106.873 E1.73357
G1 X108.373 Y106.418 E1.74792
G1 X108.255 Y106.100 E1.75855
G1 X108.028 Y105.781 E1.77082
G1 X93.422 Y91.507 E2.41116
G1 X93.226 Y91.348 E2.41905
G1 X92.860 Y91.177 E2.43174
G1 X92.531 Y91.118 E2.44222
G1 X92.091 Y91.147 E2.45605
G1 X91.637 Y91.338 E2.47148
G1 X91.315 Y91.629 E2.48510
M204 S1500
G1 X92.675 Y91.527 F7800.000
M204 S1250
G1 F1200.000
G1 X92.510 Y91.497 E2.49037
G1 X92.179 Y91.519 E2.50076
G1 X91.842 Y91.661 E2.51221
G1 X91.570 Y91.906 E2.52370
G1 X91.395 Y92.227 E2.53516
G1 X91.343 Y92.536 E2.54499
G1 X91.343 Y121.672 E3.45851
G1 X91.401 Y121.993 E3.46875
G1 X91.564 Y122.283 E3.47915
G1 X91.724 Y122.452 E3.48647
G1 X92.017 Y122.634 E3.49727
G1 X92.353 Y122.708 E3.50807
G1 X92.586 Y122.699 E3.51538
G1 X92.905 Y122.606 E3.52579
G1 X93.171 Y122.417 E3.53603
G1 X107.760 Y107.487 E4.19053
G1 X107.945 Y107.213 E4.20089
G1 X108.036 Y106.846 E4.21276
G1 X108.002 Y106.503 E4.22355
G1 X107.919 Y106.278 E4.23109
G1 X107.741 Y106.027 E4.24073
G1 X93.171 Y91.789 E4.87948
G1 X93.025 Y91.670 E4.88536
G1 X92.734 Y91.538 E4.89539
M204 S1500
G1 X91.987 Y92.039 F7800.000
M204 S1250
G1 F1200.000
G1 X91.871 Y92.143 E4.90029
G1 X91.756 Y92.352 E4.90776
G1 X91.720 Y92.568 E4.91461
G1 X91.720 Y121.638 E5.82608
G1 X91.761 Y121.864 E5.83328
G1 X91.870 Y122.057 E5.84023
G1 X91.964 Y122.157 E5.84455
G1 X92.161 Y122.279 E5.85181
G1 X92.387 Y122.329 E5.85908
G1 X92.525 Y122.324 E5.86340
G1 X92.738 Y122.262 E5.87035
G1 X92.925 Y122.129 E5.87754
G1 X107.467 Y107.248 E6.52991
G1 X107.595 Y107.057 E6.53711
G1 X107.655 Y106.818 E6.54486
G1 X107.632 Y106.588 E6.55208
G1 X107.583 Y106.455 E6.55653
G1 X107.453 Y106.273 E6.56354
G1 X92.920 Y92.071 E7.20069
G1 X92.823 Y91.992 E7.20458
G1 X92.629 Y91.902 E7.21128
G1 X92.488 Y91.876 E7.21578
G1 X92.267 Y91.891 E7.22273
G1 X92.031 Y91.998 E7.23085
M204 S1500
G1 X91.842 Y91.978 F7800.000
G92 E0
G1 E-2.00000 F2400.00000
G1 X95.267 Y88.582 F7800.000
G1 E0.00000 F2400.00000
M204 S1250
G1 F1200.000
G1 X95.410 Y89.059 E0.01562
G1 X95.653 Y89.392 E0.02854
G1 X110.179 Y103.587 E0.66534
G1 X110.536 Y103.828 E0.67886
G1 X111.031 Y103.951 E0.69486
G1 X111.487 Y103.906 E0.70921
G1 X111.805 Y103.788 E0.71984
G1 X112.124 Y103.562 E0.73211
G1 X125.997 Y89.365 E1.35449
G1 X126.232 Y89.021 E1.36756
G1 X126.350 Y88.595 E1.38139
G1 X126.357 Y88.269 E1.39161
G1 X126.253 Y87.828 E1.40582
G1 X126.010 Y87.446 E1.42002
G1 X125.772 Y87.224 E1.43024
G1 X125.386 Y87.010 E1.44407
G1 X124.975 Y86.938 E1.45714
G1 X96.653 Y86.938 E2.34517
G1 X96.281 Y87.001 E2.35700
G1 X95.971 Y87.145 E2.36771
G1 X95.628 Y87.423 E2.38157
G1 X95.387 Y87.809 E2.39582
G1 X95.289 Y88.125 E2.40621
G1 X95.270 Y88.522 E2.41868
M204 S1500
G1 X95.647 Y88.535 F7800.000
M204 S1250
G1 F1200.000
G1 X95.753 Y88.889 E2.43026
G1 X95.939 Y89.145 E2.44017
G1 X110.418 Y103.293 E3.07490
G1 X110.692 Y103.478 E3.08526
G1 X111.059 Y103.569 E3.09713
G1 X111.402 Y103.536 E3.10792
G1 X111.627 Y103.452 E3.11546
G1 X111.878 Y103.274 E3.12510
G1 X125.704 Y89.125 E3.74539
G1 X125.885 Y88.860 E3.75545
G1 X125.974 Y88.540 E3.76585
G1 X125.979 Y88.309 E3.77310
G1 X125.901 Y87.977 E3.78380
G1 X125.718 Y87.689 E3.79450
G1 X125.549 Y87.531 E3.80175
G1 X125.258 Y87.371 E3.81214
G1 X124.942 Y87.315 E3.82221
G1 X96.685 Y87.315 E4.70820
G1 X96.394 Y87.364 E4.71746
G1 X96.172 Y87.467 E4.72512
G1 X95.914 Y87.676 E4.73552
G1 X95.733 Y87.967 E4.74627
G1 X95.663 Y88.191 E4.75364
G1 X95.650 Y88.475 E4.76256
M204 S1500
G1 X96.038 Y88.257 F7800.000
M204 S1250
G1 F1200.000
G1 X96.027 Y88.489 E4.76983
G1 X96.096 Y88.719 E4.77737
G1 X96.225 Y88.897 E4.78428
G1 X110.657 Y103.000 E5.41694
G1 X110.847 Y103.128 E5.42414
G1 X111.087 Y103.188 E5.43189
G1 X111.316 Y103.165 E5.43911
G1 X111.449 Y103.116 E5.44356
G1 X111.631 Y102.986 E5.45057
G1 X125.412 Y88.885 E6.06877
G1 X125.539 Y88.699 E6.07583
G1 X125.598 Y88.485 E6.08278
G1 X125.601 Y88.349 E6.08707
G1 X125.548 Y88.125 E6.09426
G1 X125.425 Y87.932 E6.10145
G1 X125.325 Y87.838 E6.10574
G1 X125.131 Y87.731 E6.11269
G1 X124.909 Y87.692 E6.11975
G1 X96.717 Y87.692 E7.00372
G1 X96.507 Y87.727 E7.01039
G1 X96.373 Y87.790 E7.01501
G1 X96.201 Y87.929 E7.02196
G1 X96.079 Y88.125 E7.02920
G1 X96.055 Y88.200 E7.03166
M204 S1500
G1 X95.823 Y88.346 F7800.000
G92 E0
G1 E-2.00000 F2400.00000
G1 X87.894 Y89.036 F7800.000
G1 E0.00000 F2400.00000
M204 S1250
G1 F1200.000
G1 X67.894 Y89.036 E0.62709
G1 X67.894 Y70.964 E1.19371
G1 X91.906 Y70.964 E1.94657
G1 X105.683 Y71.666 E2.37910
G1 X132.106 Y71.666 E3.20757
G1 X132.106 Y75.458 E3.32645
G1 X125.565 Y75.458 E3.53152
G1 X125.306 Y75.026 E3.54732
G1 X125.074 Y74.701 E3.55982
G1 X124.818 Y74.396 E3.57232
G1 X124.539 Y74.111 E3.58482
G1 X124.238 Y73.850 E3.59732
G1 X123.902 Y73.602 E3.61040
G1 X123.250 Y73.229 E3.63397
G1 X122.865 Y73.066 E3.64705
G1 X122.487 Y72.940 E3.65955
G1 X122.101 Y72.843 E3.67205
G1 X121.708 Y72.777 E3.68454
G1 X121.310 Y72.743 E3.69704
G1 X120.912 Y72.740 E3.70954
G1 X120.514 Y72.768 E3.72204
G1 X120.119 Y72.827 E3.73455
G1 X119.706 Y72.923 E3.74786
G1 X118.999 Y73.179 E3.77144
G1 X118.626 Y73.366 E3.78453
G1 X118.284 Y73.572 E3.79702
G1 X117.960 Y73.804 E3.80952
G1 X117.655 Y74.061 E3.82204
G1 X117.353 Y74.360 E3.83535
G1 X116.885 Y74.948 E3.85892
G1 X116.665 Y75.302 E3.87201
G1 X116.482 Y75.656 E3.88451
G1 X116.327 Y76.024 E3.89700
G1 X116.202 Y76.403 E3.90952
G1 X116.106 Y76.797 E3.92223
G1 X116.043 Y77.183 E3.93451
G1 X116.010 Y77.580 E3.94700
G1 X116.008 Y77.979 E3.95950
G1 X116.038 Y78.376 E3.97200
G1 X116.098 Y78.770 E3.98450
G1 X116.190 Y79.158 E3.99700
G1 X116.312 Y79.538 E4.00950
G1 X116.463 Y79.907 E4.02199
G1 X116.643 Y80.262 E4.03449
G1 X116.850 Y80.603 E4.04699
G1 X117.083 Y80.926 E4.05949
G1 X117.341 Y81.230 E4.07199
G1 X117.622 Y81.513 E4.08449
G1 X117.925 Y81.772 E4.09699
G1 X118.247 Y82.007 E4.10949
G1 X118.586 Y82.216 E4.12199
G1 X118.941 Y82.398 E4.13448
G1 X119.309 Y82.551 E4.14698
G1 X119.688 Y82.675 E4.15948
G1 X120.076 Y82.768 E4.17198
G1 X120.470 Y82.831 E4.18448
G1 X120.867 Y82.863 E4.19698
G1 X121.265 Y82.863 E4.20948
G1 X121.663 Y82.832 E4.22198
G1 X122.057 Y82.770 E4.23448
G1 X122.444 Y82.677 E4.24697
G1 X122.823 Y82.554 E4.25947
G1 X123.192 Y82.401 E4.27197
G1 X123.547 Y82.220 E4.28447
G1 X123.887 Y82.011 E4.29697
G1 X124.209 Y81.777 E4.30947
G1 X124.512 Y81.518 E4.32197
G1 X124.793 Y81.235 E4.33447
G1 X125.052 Y80.932 E4.34697
G1 X125.286 Y80.609 E4.35947
G1 X125.549 Y80.178 E4.37531
G1 X132.106 Y80.178 E4.58089
G1 X132.106 Y87.509 E4.81075
G1 X91.524 Y129.036 E6.63128
G1 X87.894 Y129.036 E6.74509
G1 X87.894 Y89.096 E7.99738
M204 S1500
G1 X87.517 Y89.413 F7800.000
M204 S1250
G1 F1200.000
G1 X67.517 Y89.413 E8.62447
G1 X67.517 Y70.587 E9.21474
G1 X91.915 Y70.587 E9.97972
G1 X105.692 Y71.289 E10.41225
G1 X132.483 Y71.289 E11.25224
G1 X132.483 Y75.835 E11.39477
G1 X125.323 Y75.835 E11.61927
G1 X125.180 Y75.549 E11.62929
G1 X124.990 Y75.232 E11.64086
G1 X124.776 Y74.932 E11.65243
G1 X124.539 Y74.650 E11.66399
G1 X124.280 Y74.386 E11.67556
G1 X124.002 Y74.145 E11.68713
G1 X123.696 Y73.919 E11.69905
G1 X123.082 Y73.568 E11.72123
G1 X122.732 Y73.419 E11.73315
G1 X122.382 Y73.302 E11.74472
G1 X122.024 Y73.213 E11.75629
G1 X121.660 Y73.152 E11.76785
G1 X121.292 Y73.120 E11.77942
G1 X120.924 Y73.117 E11.79099
G1 X120.556 Y73.143 E11.80256
G1 X120.190 Y73.198 E11.81413
G1 X119.813 Y73.286 E11.82628
G1 X119.148 Y73.526 E11.84846
G1 X118.808 Y73.696 E11.86038
G1 X118.492 Y73.887 E11.87195
G1 X118.192 Y74.102 E11.88352
G1 X117.910 Y74.340 E11.89510
G1 X117.634 Y74.612 E11.90724
G1 X117.193 Y75.165 E11.92942
G1 X116.993 Y75.488 E11.94134
G1 X116.824 Y75.816 E11.95291
G1 X116.681 Y76.156 E11.96448
G1 X116.565 Y76.507 E11.97606
G1 X116.476 Y76.872 E11.98783
G1 X116.417 Y77.229 E11.99919
G1 X116.387 Y77.597 E12.01075
G1 X116.385 Y77.966 E12.02232
G1 X116.412 Y78.334 E12.03389
G1 X116.469 Y78.698 E12.04545
G1 X116.553 Y79.057 E12.05702
G1 X116.666 Y79.409 E12.06859
G1 X116.806 Y79.750 E12.08016
G1 X116.973 Y80.079 E12.09172
G1 X117.164 Y80.394 E12.10329
G1 X117.380 Y80.693 E12.11486
G1 X117.619 Y80.975 E12.12643
G1 X117.879 Y81.236 E12.13800
G1 X118.159 Y81.476 E12.14956
G1 X118.457 Y81.694 E12.16113
G1 X118.771 Y81.887 E12.17270
G1 X119.100 Y82.055 E12.18427
G1 X119.440 Y82.197 E12.19583
G1 X119.791 Y82.312 E12.20740
G1 X120.150 Y82.398 E12.21897
G1 X120.554 Y82.460 E12.23178
G1 X120.882 Y82.486 E12.24210
G1 X121.251 Y82.486 E12.25367
G1 X121.619 Y82.457 E12.26524
G1 X121.983 Y82.400 E12.27680
G1 X122.342 Y82.314 E12.28837
G1 X122.693 Y82.200 E12.29994
G1 X123.034 Y82.058 E12.31151
G1 X123.362 Y81.891 E12.32307
G1 X123.677 Y81.698 E12.33464
G1 X123.975 Y81.481 E12.34621
G1 X124.255 Y81.241 E12.35778
G1 X124.516 Y80.980 E12.36935
G1 X124.755 Y80.699 E12.38091
G1 X124.971 Y80.400 E12.39248
G1 X125.164 Y80.085 E12.40405
G1 X125.308 Y79.801 E12.41404
G1 X132.483 Y79.801 E12.63900
G1 X132.483 Y87.663 E12.88551
G1 X91.683 Y129.413 E14.71583
G1 X87.517 Y129.413 E14.84644
G1 X87.517 Y89.473 E16.09873
M204 S1500
G1 X87.140 Y89.790 F7800.000
M204 S1250
G1 F1200.000
G1 X67.140 Y89.790 E16.72582
G1 X67.140 Y70.210 E17.33973
G1 X91.925 Y70.210 E18.11684
G1 X105.702 Y70.912 E18.54937
G1 X132.860 Y70.912 E19.40088
G1 X132.860 Y76.212 E19.56706
G1 X125.072 Y76.212 E19.81123
G1 X124.849 Y75.730 E19.82788
G1 X124.675 Y75.439 E19.83851
G1 X124.478 Y75.163 E19.84915
G1 X124.260 Y74.903 E19.85978
G1 X124.022 Y74.661 E19.87042
G1 X123.766 Y74.439 E19.88106
G1 X123.490 Y74.235 E19.89182
G1 X122.914 Y73.906 E19.91261
G1 X122.598 Y73.772 E19.92337
G1 X122.276 Y73.664 E19.93401
G1 X121.947 Y73.582 E19.94465
G1 X121.612 Y73.526 E19.95528
G1 X121.275 Y73.497 E19.96592
G1 X120.935 Y73.494 E19.97656
G1 X120.597 Y73.518 E19.98719
G1 X120.261 Y73.568 E19.99783
G1 X119.921 Y73.648 E20.00880
G1 X119.297 Y73.873 E20.02960
G1 X118.990 Y74.027 E20.04036
G1 X118.699 Y74.202 E20.05100
G1 X118.424 Y74.400 E20.06163
G1 X118.164 Y74.618 E20.07227
G1 X117.915 Y74.864 E20.08324
G1 X117.502 Y75.383 E20.10404
G1 X117.321 Y75.675 E20.11480
G1 X117.165 Y75.976 E20.12544
G1 X117.034 Y76.289 E20.13607
G1 X116.927 Y76.611 E20.14671
G1 X116.845 Y76.947 E20.15755
G1 X116.792 Y77.275 E20.16798
G1 X116.764 Y77.613 E20.17862
G1 X116.762 Y77.952 E20.18925
G1 X116.787 Y78.291 E20.19989
G1 X116.839 Y78.626 E20.21053
G1 X116.917 Y78.956 E20.22116
G1 X117.021 Y79.279 E20.23180
G1 X117.149 Y79.593 E20.24244
G1 X117.302 Y79.896 E20.25307
G1 X117.479 Y80.186 E20.26371
G1 X117.677 Y80.461 E20.27435
G1 X117.897 Y80.719 E20.28498
G1 X118.136 Y80.960 E20.29562
G1 X118.394 Y81.181 E20.30625
G1 X118.668 Y81.381 E20.31689
G1 X118.956 Y81.558 E20.32753
G1 X119.258 Y81.713 E20.33816
G1 X119.572 Y81.843 E20.34880
G1 X119.894 Y81.949 E20.35944
G1 X120.224 Y82.028 E20.37007
G1 X120.584 Y82.084 E20.38149
G1 X120.897 Y82.109 E20.39134
G1 X121.236 Y82.109 E20.40198
G1 X121.574 Y82.082 E20.41262
G1 X121.910 Y82.029 E20.42325
G1 X122.239 Y81.950 E20.43389
G1 X122.562 Y81.846 E20.44453
G1 X122.875 Y81.716 E20.45516
G1 X123.178 Y81.561 E20.46580
G1 X123.467 Y81.384 E20.47644
G1 X123.741 Y81.184 E20.48707
G1 X123.999 Y80.964 E20.49771
G1 X124.238 Y80.724 E20.50834
G1 X124.458 Y80.465 E20.51898
G1 X124.657 Y80.191 E20.52962
G1 X124.834 Y79.901 E20.54025
G1 X125.060 Y79.424 E20.55681
G1 X132.860 Y79.424 E20.80138
G1 X132.860 Y87.816 E21.06452
G1 X91.842 Y129.790 E22.90464
G1 X87.140 Y129.790 E23.05205
G1 X87.140 Y89.850 E24.30434
M204 S1500
G1 X87.140 Y89.390 F7800.000
G1 X87.581 Y88.923
M204 S1250
G1 F1200.000
G1 X69.905 Y71.247 E25.06798
G1 X69.372 Y71.247 E25.08428
G1 X86.878 Y88.753 E25.84059
G1 X86.345 Y88.753 E25.85688
G1 X68.839 Y71.247 E26.61319
G1 X68.305 Y71.247 E26.62948
G1 X85.811 Y88.753 E27.38579
G1 X85.278 Y88.753 E27.40208
G1 X68.177 Y71.652 E28.14089
G1 X68.177 Y72.185 E28.15718
G1 X84.745 Y88.753 E28.87295
G1 X84.212 Y88.753 E28.88924
G1 X68.177 Y72.719 E29.58197
G1 X68.177 Y73.252 E29.59826
G1 X83.678 Y88.753 E30.26795
G1 X83.145 Y88.753 E30.28424
G1 X68.177 Y73.785 E30.93089
G1 X68.177 Y74.318 E30.94718
G1 X82.612 Y88.753 E31.57080
G1 X82.079 Y88.753 E31.58709
G1 X68.177 Y74.852 E32.18767
G1 X68.177 Y75.385 E32.20396
G1 X81.545 Y88.753 E32.78149
G1 X81.012 Y88.753 E32.79778
G1 X68.177 Y75.918 E33.35228
G1 X68.177 Y76.451 E33.36857
G1 X80.479 Y88.753 E33.90003
G1 X79.945 Y88.753 E33.91632
G1 X68.177 Y76.985 E34.42474
G1 X68.177 Y77.518 E34.44104
G1 X79.412 Y88.753 E34.92642
G1 X78.879 Y88.753 E34.94271
G1 X68.177 Y78.051 E35.40505
G1 X68.177 Y78.585 E35.42134
G1 X78.346 Y88.753 E35.86065
G1 X77.812 Y88.753 E35.87694
G1 X68.177 Y79.118 E36.29320
G1 X68.177 Y79.651 E36.30950
G1 X77.279 Y88.753 E36.70272
G1 X76.746 Y88.753 E36.71901
G1 X68.177 Y80.184 E37.08920
G1 X68.177 Y80.718 E37.10549
G1 X76.213 Y88.753 E37.45264
G1 X75.679 Y88.753 E37.46893
G1 X68.177 Y81.251 E37.79305
G1 X68.177 Y81.784 E37.80934
G1 X75.146 Y88.753 E38.11041
G1 X74.613 Y88.753 E38.12670
G1 X68.177 Y82.317 E38.40474
G1 X68.177 Y82.851 E38.42103
G1 X74.080 Y88.753 E38.67602
G1 X73.546 Y88.753 E38.69231
G1 X68.177 Y83.384 E38.92427
G1 X68.177 Y83.917 E38.94056
G1 X73.013 Y88.753 E39.14948
