; generated by Slic3r++ 2.2.50 on 2020-06-05 at 20:06:10 UTC

; 

; external perimeters extrusion width = 0.45mm
; perimeters extrusion width = 0.45mm
; infill extrusion width = 0.45mm
; solid infill extrusion width = 0.45mm
; top infill extrusion width = 0.40mm
; first layer extrusion width = 0.42mm

; object:{"name":"1eurcent_opener","id":"1eurcent_opener.stl id:0 copy 0","object_center":[97.378570,100.249011,97.378570],"boundingbox_center":[100.249011,10.500000,56.202538],"boundingbox_size":[20.110203,21.000000,0.000000]}

M201 X9000 Y9000 Z500 E10000 ; sets maximum accelerations, mm/sec^2
M203 X500 Y500 Z12 E120 ; sets maximum feedrates, mm/sec
M204 P1500 R1500 T1500 ; sets acceleration (P, T) and retract acceleration (R), mm/sec^2
M205 X10.00 Y10.00 Z0.20 E2.50 ; sets the jerk limits, mm/sec
M205 S0 T0 ; sets the minimum extruding and travel feed rate, mm/sec
M107
M190 S60 ; set bed temperature and wait for it to be reached
M104 S205 ; set temperature
G28 ; home all axes
G1 Z5 F5000 ; lift nozzle
M109 S205 ; set temperature and wait for it to be reached
G21 ; set units to millimeters
G90 ; use absolute coordinates
M82 ; use absolute distances for extrusion
G92 E0
; Filament gcode
G1 Z0.200 F7800.000
G1 E-2.00000 F2400.00000
G1 X69.794 Y98.622 F7800.000
G1 E0.00000 F2400.00000
M204 S1250
G1 F1200.000
G1 X71.211 Y97.907 E0.04978
G1 X93.644 Y89.632 E0.79948
G1 X94.587 Y89.364 E0.83021
G1 X95.472 Y89.232 E0.85828
G1 X121.833 Y86.960 E1.68786
G1 X122.803 Y87.036 E1.71839
G1 X123.644 Y87.215 E1.74534
G1 X124.517 Y87.522 E1.77433
G1 X125.409 Y87.984 E1.80583
G1 X126.168 Y88.523 E1.83502
G1 X126.877 Y89.190 E1.86555
G1 X127.479 Y89.940 E1.89570
G1 X127.971 Y90.766 E1.92585
G1 X128.353 Y91.682 E1.95696
G1 X128.595 Y92.606 E1.98692
G1 X128.708 Y93.579 E2.01764
G1 X128.689 Y94.486 E2.04606
G1 X128.564 Y95.330 E2.07282
G1 X128.298 Y96.260 E2.10316
G1 X127.926 Y97.107 E2.13215
G1 X127.408 Y97.946 E2.16307
G1 X126.420 Y99.046 E2.20945
G1 X125.310 Y99.863 E2.25265
G1 X106.951 Y110.463 E2.91733
G1 X105.079 Y111.425 E2.98334
G1 X103.643 Y112.027 E3.03217
G1 X102.057 Y112.564 E3.08466
G1 X99.952 Y113.088 E3.15269
G1 X98.342 Y113.351 E3.20382
G1 X96.259 Y113.523 E3.26935
G1 X73.342 Y113.501 E3.98790
G1 X72.286 Y113.325 E4.02147
G1 X71.111 Y112.954 E4.06012
G1 X70.146 Y112.489 E4.09369
G1 X69.181 Y111.846 E4.13003
G1 X68.387 Y111.146 E4.16322
G1 X67.697 Y110.352 E4.19622
G1 X67.051 Y109.360 E4.23333
G1 X66.598 Y108.397 E4.26671
G1 X66.171 Y106.887 E4.31592
G1 X66.043 Y105.298 E4.36590
G1 X66.229 Y103.721 E4.41568
G1 X66.724 Y102.200 E4.46584
G1 X67.502 Y100.815 E4.51563
G1 X68.539 Y99.605 E4.56560
G1 X69.746 Y98.659 E4.61369
M204 S1500
; printing object 1eurcent_opener.stl id:0 copy 0
G92 E0
G1 E-2.00000 F2400.00000
G1 X76.907 Y106.109 F7800.000
G1 E0.00000 F2400.00000
M204 S1250
G1 F900.000
G1 X76.842 Y106.385 E0.00889
G1 X74.178 Y106.386 E0.09241
G1 X73.948 Y106.363 E0.09968
G1 X73.708 Y106.283 E0.10760
G1 X73.535 Y106.167 E0.11413
G1 X73.363 Y105.982 E0.12205
G1 X73.255 Y105.776 E0.12934
G1 X73.203 Y105.529 E0.13726
G1 X73.205 Y105.345 E0.14303
G1 X73.249 Y105.141 E0.14956
G1 X73.367 Y104.918 E0.15748
G1 X73.486 Y104.778 E0.16326
G1 X73.631 Y104.664 E0.16904
G1 X73.796 Y104.581 E0.17481
G1 X74.041 Y104.520 E0.18273
G1 X74.249 Y104.526 E0.18926
G1 X74.452 Y104.573 E0.19579
G1 X74.688 Y104.702 E0.20423
G1 X75.075 Y105.020 E0.21993
G1 X75.717 Y105.476 E0.24461
G1 X76.088 Y105.699 E0.25819
G1 X76.854 Y106.083 E0.28504
M204 S1500
G92 E0
G1 E-2.00000 F2400.00000
G1 X89.779 Y106.086 F7800.000
G1 E0.00000 F2400.00000
M204 S1250
G1 F1200.000
G1 X90.192 Y105.929 E0.01383
G1 X90.997 Y105.533 E0.04196
G1 X91.761 Y105.065 E0.07008
G1 X92.470 Y104.534 E0.09785
G1 X93.152 Y103.917 E0.12668
G1 X93.751 Y103.264 E0.15445
G1 X94.286 Y102.559 E0.18222
G1 X94.545 Y102.165 E0.19699
G1 X94.977 Y101.392 E0.22476
G1 X95.341 Y100.572 E0.25289
G1 X95.624 Y99.733 E0.28066
G1 X95.740 Y99.288 E0.29507
G1 X95.835 Y98.838 E0.30949
G1 X95.956 Y97.972 E0.33691
G1 X95.989 Y97.506 E0.35154
G1 X95.999 Y96.366 E0.38731
G1 X120.158 Y94.254 E1.14769
G1 X120.245 Y94.528 E1.15670
G1 X102.979 Y104.487 E1.78166
G1 X102.028 Y104.956 E1.81491
G1 X101.560 Y105.159 E1.83092
G1 X100.567 Y105.532 E1.86416
G1 X99.560 Y105.838 E1.89716
G1 X98.535 Y106.077 E1.93015
G1 X97.489 Y106.250 E1.96340
G1 X96.982 Y106.308 E1.97940
G1 X95.924 Y106.377 E2.01265
G1 X89.833 Y106.380 E2.20361
G1 X89.790 Y106.145 E2.21108
M204 S1500
G92 E0
G1 E-2.00000 F2400.00000
G1 X121.908 Y94.004 F7800.000
G1 E0.00000 F2400.00000
M204 S1250
G1 F1200.000
G1 X103.157 Y104.820 E0.67871
G1 X102.186 Y105.298 E0.71264
G1 X101.701 Y105.509 E0.72923
G1 X100.689 Y105.890 E0.76315
G1 X99.658 Y106.202 E0.79692
G1 X98.609 Y106.447 E0.83069
G1 X97.542 Y106.623 E0.86461
G1 X97.016 Y106.684 E0.88119
G1 X95.936 Y106.754 E0.91512
G1 X74.160 Y106.763 E1.59791
G1 X73.873 Y106.735 E1.60695
G1 X73.611 Y106.655 E1.61553
G1 X73.293 Y106.458 E1.62725
G1 X73.042 Y106.182 E1.63897
G1 X72.875 Y105.830 E1.65115
G1 X72.825 Y105.561 E1.65974
G1 X72.829 Y105.302 E1.66787
G1 X72.922 Y104.940 E1.67959
G1 X73.056 Y104.701 E1.68817
G1 X73.224 Y104.504 E1.69630
G1 X73.428 Y104.344 E1.70443
G1 X73.660 Y104.227 E1.71256
G1 X74.024 Y104.143 E1.72428
G1 X74.297 Y104.150 E1.73286
G1 X74.658 Y104.249 E1.74458
G1 X74.904 Y104.391 E1.75349
G1 X75.305 Y104.720 E1.76975
G1 X75.923 Y105.161 E1.79357
G1 X76.270 Y105.369 E1.80623
G1 X76.958 Y105.713 E1.83036
G1 X77.678 Y105.985 E1.85450
G1 X78.066 Y106.098 E1.86716
G1 X78.812 Y106.254 E1.89105
G1 X79.212 Y106.306 E1.90372
G1 X79.966 Y106.345 E1.92738
G1 X86.779 Y106.342 E2.14099
G1 X87.127 Y106.321 E2.15194
G1 X87.564 Y106.274 E2.16570
G1 X88.405 Y106.122 E2.19252
G1 X89.236 Y105.890 E2.21954
G1 X90.041 Y105.583 E2.24657
G1 X90.814 Y105.203 E2.27359
G1 X91.549 Y104.752 E2.30062
G1 X92.234 Y104.240 E2.32743
G1 X92.565 Y103.953 E2.34116
G1 X92.883 Y103.652 E2.35489
G1 X93.461 Y103.022 E2.38170
G1 X93.978 Y102.341 E2.40851
G1 X94.222 Y101.969 E2.42246
G1 X94.640 Y101.223 E2.44927
G1 X94.989 Y100.435 E2.47629
G1 X95.262 Y99.625 E2.50311
G1 X95.463 Y98.773 E2.53056
G1 X95.581 Y97.933 E2.55716
G1 X95.612 Y97.492 E2.57101
G1 X95.625 Y96.404 E2.60513
G1 X95.659 Y96.274 E2.60932
G1 X95.729 Y96.148 E2.61385
G1 X95.841 Y96.057 E2.61837
G1 X95.949 Y96.007 E2.62211
G1 X96.096 Y95.979 E2.62680
G1 X121.821 Y93.730 E3.43648
G1 X121.890 Y93.947 E3.44362
M204 S1500
G1 X122.263 Y94.124 F7800.000
M204 S1250
G1 F1200.000
G1 X122.173 Y94.256 E3.44863
G1 X122.035 Y94.366 E3.45415
G1 X103.335 Y105.152 E4.13104
G1 X102.345 Y105.640 E4.16564
G1 X101.843 Y105.858 E4.18281
G1 X100.810 Y106.247 E4.21741
G1 X99.756 Y106.567 E4.25195
G1 X98.683 Y106.817 E4.28650
G1 X97.594 Y106.997 E4.32110
G1 X97.050 Y107.059 E4.33826
G1 X95.949 Y107.131 E4.37286
G1 X74.141 Y107.141 E5.05662
G1 X73.798 Y107.106 E5.06743
G1 X73.474 Y107.007 E5.07807
G1 X73.332 Y106.939 E5.08299
G1 X73.051 Y106.749 E5.09363
G1 X72.813 Y106.508 E5.10427
G1 X72.720 Y106.381 E5.10919
G1 X72.561 Y106.075 E5.12000
G1 X72.510 Y105.927 E5.12492
G1 X72.448 Y105.593 E5.13556
G1 X72.452 Y105.259 E5.14604
G1 X72.524 Y104.927 E5.15668
G1 X72.579 Y104.781 E5.16160
G1 X72.745 Y104.484 E5.17224
G1 X72.962 Y104.230 E5.18272
G1 X73.225 Y104.024 E5.19319
G1 X73.523 Y103.874 E5.20367
G1 X73.850 Y103.784 E5.21431
G1 X74.006 Y103.765 E5.21923
G1 X74.346 Y103.774 E5.22987
G1 X74.676 Y103.851 E5.24051
G1 X74.822 Y103.908 E5.24543
G1 X75.119 Y104.080 E5.25619
G1 X75.534 Y104.420 E5.27301
G1 X76.130 Y104.845 E5.29597
G1 X76.451 Y105.038 E5.30771
G1 X77.109 Y105.367 E5.33078
G1 X77.797 Y105.627 E5.35385
G1 X78.157 Y105.732 E5.36559
G1 X78.875 Y105.882 E5.38857
G1 X79.246 Y105.930 E5.40032
G1 X79.975 Y105.968 E5.42322
G1 X86.768 Y105.965 E5.63618
G1 X87.096 Y105.946 E5.64648
G1 X87.510 Y105.900 E5.65954
G1 X88.321 Y105.754 E5.68539
G1 X89.118 Y105.532 E5.71132
G1 X89.890 Y105.237 E5.73725
G1 X90.632 Y104.872 E5.76317
G1 X91.337 Y104.440 E5.78910
G1 X91.997 Y103.946 E5.81495
G1 X92.312 Y103.674 E5.82800
G1 X92.614 Y103.388 E5.84104
G1 X93.171 Y102.780 E5.86689
G1 X93.670 Y102.123 E5.89274
G1 X93.899 Y101.773 E5.90586
G1 X94.302 Y101.054 E5.93171
G1 X94.638 Y100.298 E5.95764
G1 X94.901 Y99.517 E5.98349
G1 X95.006 Y99.114 E5.99654
G1 X95.092 Y98.707 E6.00958
G1 X95.206 Y97.893 E6.03536
G1 X95.235 Y97.477 E6.04844
G1 X95.244 Y96.450 E6.08063
G1 X95.251 Y96.344 E6.08397
G1 X95.306 Y96.133 E6.09080
G1 X95.471 Y95.872 E6.10049
G1 X95.640 Y95.734 E6.10732
G1 X95.833 Y95.646 E6.11398
G1 X96.044 Y95.605 E6.12071
G1 X121.718 Y93.360 E6.92880
G1 X121.894 Y93.372 E6.93432
G1 X122.043 Y93.428 E6.93933
G1 X122.169 Y93.527 E6.94434
G1 X122.260 Y93.658 E6.94936
G1 X122.309 Y93.811 E6.95437
G1 X122.309 Y93.971 E6.95939
G1 X122.280 Y94.067 E6.96252
M204 S1500
G1 X122.103 Y94.128 F7800.000
G1 X120.367 Y94.339
M204 S1250
G1 F1200.000
G1 X120.427 Y94.320 E6.96581
M204 S1500
M204 S1250
G1 X120.487 Y94.301 E6.96888
M204 S1500
M204 S1250
G1 X120.547 Y94.282 E6.97174
M204 S1500
M204 S1250
G1 X120.701 Y94.234 E6.97848
M204 S1500
M204 S1250
G1 X120.794 Y94.204 E6.98220
M204 S1500
M204 S1250
G1 X120.888 Y94.175 E6.98554
M204 S1500
M204 S1250
G1 X120.981 Y94.146 E6.98849
M204 S1500
M204 S1250
G1 X121.074 Y94.116 E6.99107
M204 S1500
M204 S1250
G1 X121.168 Y94.087 E6.99325
M204 S1500
M204 S1250
G1 X121.261 Y94.057 E6.99506
M204 S1500
M204 S1250
G1 X121.354 Y94.028 E6.99648
M204 S1500
M204 S1250
G1 X121.448 Y93.998 E6.99752
M204 S1500
M204 S1250
G1 X121.580 Y93.957 E6.99845
M204 S1500
G92 E0
G1 E-2.00000 F2400.00000
G1 X119.595 Y94.772 F7800.000
G1 E0.00000 F2400.00000
M204 S1250
G1 F1200.000
G1 X119.425 Y94.602 E0.00725
G1 X118.935 Y94.645 E0.02206
G1 X119.133 Y94.843 E0.03050
G1 X118.795 Y95.038 E0.04224
G1 X118.444 Y94.688 E0.05716
G1 X117.954 Y94.730 E0.07197
G1 X118.457 Y95.233 E0.09336
G1 X118.118 Y95.428 E0.10511
G1 X117.464 Y94.773 E0.13297
G1 X116.973 Y94.816 E0.14779
G1 X117.780 Y95.623 E0.18213
G1 X117.442 Y95.818 E0.19388
G1 X116.483 Y94.859 E0.23470
G1 X115.992 Y94.902 E0.24951
G1 X117.104 Y96.013 E0.29681
G1 X116.766 Y96.209 E0.30855
G1 X115.502 Y94.945 E0.36233
G1 X115.012 Y94.988 E0.37714
G1 X116.427 Y96.404 E0.43739
G1 X116.089 Y96.599 E0.44913
G1 X114.521 Y95.031 E0.51586
G1 X114.031 Y95.073 E0.53067
G1 X115.751 Y96.794 E0.60388
G1 X115.413 Y96.989 E0.61562
G1 X113.540 Y95.116 E0.69530
G1 X113.050 Y95.159 E0.71011
G1 X115.075 Y97.184 E0.79627
G1 X114.736 Y97.379 E0.80802
G1 X112.560 Y95.202 E0.90065
G1 X112.069 Y95.245 E0.91546
G1 X114.398 Y97.574 E1.01457
G1 X114.060 Y97.769 E1.02632
G1 X111.579 Y95.288 E1.13190
G1 X111.088 Y95.331 E1.14671
G1 X113.722 Y97.964 E1.25877
G1 X113.384 Y98.159 E1.27052
G1 X110.598 Y95.373 E1.38906
G1 X110.107 Y95.416 E1.40387
G1 X113.045 Y98.354 E1.52888
G1 X112.707 Y98.549 E1.54063
G1 X109.617 Y95.459 E1.67212
G1 X109.127 Y95.502 E1.68693
G1 X112.369 Y98.744 E1.82490
G1 X112.031 Y98.939 E1.83665
G1 X108.636 Y95.545 E1.98109
G1 X108.146 Y95.588 E1.99590
G1 X111.693 Y99.135 E2.14683
G1 X111.354 Y99.330 E2.15857
G1 X107.655 Y95.631 E2.31597
G1 X107.165 Y95.674 E2.33078
G1 X111.016 Y99.525 E2.49465
G1 X110.678 Y99.720 E2.50640
G1 X106.675 Y95.716 E2.67675
G1 X106.184 Y95.759 E2.69156
G1 X110.340 Y99.915 E2.86839
G1 X110.002 Y100.110 E2.88014
G1 X105.694 Y95.802 E3.06344
G1 X105.203 Y95.845 E3.07825
G1 X109.663 Y100.305 E3.26803
G1 X109.325 Y100.500 E3.27978
G1 X104.713 Y95.888 E3.47603
G1 X104.223 Y95.931 E3.49085
G1 X108.987 Y100.695 E3.69358
G1 X108.649 Y100.890 E3.70532
G1 X103.732 Y95.974 E3.91453
G1 X103.242 Y96.017 E3.92935
G1 X108.311 Y101.085 E4.14503
G1 X107.972 Y101.280 E4.15678
G1 X102.751 Y96.059 E4.37894
G1 X102.261 Y96.102 E4.39375
G1 X107.634 Y101.475 E4.62239
G1 X107.296 Y101.670 E4.63414
G1 X101.771 Y96.145 E4.86925
G1 X101.280 Y96.188 E4.88406
G1 X106.958 Y101.866 E5.12565
G1 X106.620 Y102.061 E5.13740
G1 X100.790 Y96.231 E5.38547
G1 X100.299 Y96.274 E5.40028
G1 X106.281 Y102.256 E5.65482
G1 X105.943 Y102.451 E5.66657
G1 X99.809 Y96.317 E5.92759
G1 X99.319 Y96.359 E5.94240
G1 X105.605 Y102.646 E6.20990
G1 X105.267 Y102.841 E6.22165
G1 X98.828 Y96.402 E6.49562
G1 X98.338 Y96.445 E6.51043
G1 X104.929 Y103.036 E6.79088
G1 X104.590 Y103.231 E6.80263
G1 X97.847 Y96.488 E7.08956
G1 X97.357 Y96.531 E7.10437
G1 X104.252 Y103.426 E7.39777
G1 X103.914 Y103.621 E7.40952
G1 X96.867 Y96.574 E7.70940
G1 X96.376 Y96.617 E7.72421
G1 X103.576 Y103.816 E8.03057
G1 X103.238 Y104.011 E8.04231
G1 X96.276 Y97.050 E8.33855
G1 X96.268 Y97.575 E8.35435
G1 X102.899 Y104.206 E8.63654
G1 X102.545 Y104.385 E8.64849
G1 X96.228 Y98.069 E8.91728
G1 X96.163 Y98.536 E8.93149
G1 X102.188 Y104.562 E9.18788
G1 X101.828 Y104.734 E9.19990
G1 X96.090 Y98.997 E9.44404
G1 X95.994 Y99.434 E9.45749
G1 X101.456 Y104.896 E9.68991
G1 X101.068 Y105.042 E9.70236
G1 X95.881 Y99.854 E9.92309
G1 X95.747 Y100.253 E9.93575
G1 X100.681 Y105.188 E10.14571
G1 X100.283 Y105.323 E10.15835
G1 X95.612 Y100.652 E10.35711
G1 X95.450 Y101.023 E10.36929
G1 X99.874 Y105.447 E10.55754
G1 X99.464 Y105.570 E10.57043
G1 X95.286 Y101.393 E10.74818
G1 X95.104 Y101.744 E10.76008
G1 X99.031 Y105.671 E10.92718
G1 X98.599 Y105.772 E10.94054
G1 X94.913 Y102.086 E11.09739
G1 X94.715 Y102.421 E11.10910
G1 X98.148 Y105.854 E11.25519
G1 X97.690 Y105.930 E11.26915
G1 X94.502 Y102.742 E11.40480
G1 X94.272 Y103.045 E11.41625
G1 X97.223 Y105.996 E11.54181
G1 X96.735 Y106.041 E11.55656
G1 X94.042 Y103.348 E11.67114
G1 X93.795 Y103.634 E11.68252
G1 X96.234 Y106.074 E11.78632
G1 X95.722 Y106.095 E11.80174
G1 X93.540 Y103.912 E11.89461
G1 X93.280 Y104.185 E11.90596
G1 X95.189 Y106.095 E11.98721
G1 X94.656 Y106.095 E12.00325
G1 X93.006 Y104.445 E12.07347
G1 X92.720 Y104.692 E12.08485
G1 X94.123 Y106.095 E12.14456
G1 X93.590 Y106.095 E12.16060
G1 X92.419 Y104.925 E12.21041
G1 X92.114 Y105.153 E12.22187
G1 X93.057 Y106.096 E12.26197
G1 X92.524 Y106.096 E12.27801
G1 X91.800 Y105.372 E12.30880
G1 X91.470 Y105.575 E12.32047
G1 X91.991 Y106.096 E12.34264
G1 X91.458 Y106.096 E12.35868
G1 X91.139 Y105.778 E12.37224
G1 X90.782 Y105.954 E12.38422
G1 X91.094 Y106.266 E12.39751
M204 S1500
G1 X89.638 Y106.276 F7800.000
M204 S1250
G1 F1200.000
G1 X89.511 Y106.294 E12.40393
M204 S1500
M204 S1250
G1 X89.216 Y106.335 E12.41696
M204 S1500
M204 S1250
G1 X89.069 Y106.355 E12.42298
M204 S1500
M204 S1250
G1 X88.923 Y106.375 E12.42841
M204 S1500
M204 S1250
G1 X88.777 Y106.395 E12.43326
M204 S1500
M204 S1250
G1 X88.630 Y106.415 E12.43752
M204 S1500
M204 S1250
G1 X88.296 Y106.452 E12.44587
M204 S1500
M204 S1250
G1 X88.123 Y106.467 E12.44960
M204 S1500
M204 S1250
G1 X87.949 Y106.483 E12.45276
M204 S1500
M204 S1250
G1 X87.775 Y106.499 E12.45536
M204 S1500
M204 S1250
G1 X87.371 Y106.527 E12.46008
M204 S1500
M204 S1250
G1 X86.935 Y106.546 E12.46337
M204 S1500
G92 E0
G1 E-2.00000 F2400.00000
G1 X77.049 Y106.263 F7800.000
G1 E0.00000 F2400.00000
M204 S1250
G1 F1200.000
G1 X77.115 Y106.277 E0.00363
M204 S1500
M204 S1250
G1 X77.181 Y106.292 E0.00705
M204 S1500
M204 S1250
G1 X77.247 Y106.306 E0.01026
M204 S1500
M204 S1250
G1 X77.428 Y106.341 E0.01852
M204 S1500
M204 S1250
G1 X77.665 Y106.379 E0.02758
M204 S1500
M204 S1250
G1 X77.769 Y106.394 E0.03116
M204 S1500
M204 S1250
G1 X77.873 Y106.409 E0.03439
M204 S1500
M204 S1250
G1 X78.145 Y106.442 E0.04188
M204 S1500
M204 S1250
G1 X78.301 Y106.458 E0.04558
M204 S1500
M204 S1250
G1 X78.456 Y106.474 E0.04876
M204 S1500
M204 S1250
G1 X78.611 Y106.490 E0.05142
M204 S1500
M204 S1250
G1 X78.981 Y106.520 E0.05651
M204 S1500
M204 S1250
G1 X79.470 Y106.540 E0.06097
M204 S1500
M204 S1250
G1 X79.786 Y106.548 E0.06309
M204 S1500
G92 E0
G1 E-2.00000 F2400.00000
G1 X76.067 Y106.273 F7800.000
G1 E0.00000 F2400.00000
M204 S1250
G1 F1200.000
G1 X75.374 Y105.580 E0.03185
G1 X75.152 Y105.448 E0.04024
M204 S1500
G1 X74.468 Y106.273 F7800.000
M204 S1250
G1 F1200.000
G1 X73.505 Y105.310 E0.08450
G1 X73.531 Y105.204 E0.08806
G1 X73.600 Y105.080 E0.09266
G1 X73.699 Y104.971 E0.09746
G1 X74.831 Y106.103 E0.14952
G1 X75.365 Y106.103 E0.16684
G1 X74.070 Y104.809 E0.22634
M204 S1500
; stop printing object 1eurcent_opener.stl id:0 copy 0
