; generated by Slic3r++ 2.2.50 on 2020-06-11 at 09:41:07 UTC

; 

; external perimeters extrusion width = 0.45mm
; perimeters extrusion width = 0.45mm
; infill extrusion width = 0.45mm
; solid infill extrusion width = 0.45mm
; top infill extrusion width = 0.40mm
; first layer extrusion width = 0.42mm

; object:{"name":"Cabel_Holder","id":"Cabel_Holder.stl id:0 copy 0","object_center":[100.000000,100.000000,100.000000],"boundingbox_center":[100.000000,6.186345,20.000000],"boundingbox_size":[20.000000,12.372690,0.000000]}
; object:{"name":"Cabel_Holder","id":"Cabel_Holder.stl id:1 copy 0","object_center":[99.694579,125.347133,99.694579],"boundingbox_center":[125.347133,6.186345,20.000000],"boundingbox_size":[20.000000,12.372690,0.000000]}
; object:{"name":"Cabel_Holder","id":"Cabel_Holder.stl id:2 copy 0","object_center":[99.842390,75.170864,99.842390],"boundingbox_center":[75.170864,6.186345,20.000000],"boundingbox_size":[20.000000,12.372690,0.000000]}
; object:{"name":"Cabel_Holder","id":"Cabel_Holder.stl id:3 copy 0","object_center":[99.931606,49.436879,99.931606],"boundingbox_center":[49.436879,6.186345,20.000000],"boundingbox_size":[20.000000,12.372690,0.000000]}

M201 X9000 Y9000 Z500 E10000 ; sets maximum accelerations, mm/sec^2
M203 X500 Y500 Z12 E120 ; sets maximum feedrates, mm/sec
M204 P1500 R1500 T1500 ; sets acceleration (P, T) and retract acceleration (R), mm/sec^2
M205 X10.00 Y10.00 Z0.20 E2.50 ; sets the jerk limits, mm/sec
M205 S0 T0 ; sets the minimum extruding and travel feed rate, mm/sec
M107
M190 S60 ; set bed temperature and wait for it to be reached
M104 S205 ; set temperature
G28 ; home all axes
G1 Z5 F5000 ; lift nozzle
M109 S205 ; set temperature and wait for it to be reached
G21 ; set units to millimeters
G90 ; use absolute coordinates
M82 ; use absolute distances for extrusion
G92 E0
; Filament gcode
G1 Z0.200 F7800.000
G1 E-2.00000 F2400.00000
G1 X85.062 Y39.167 F7800.000
G1 E0.00000 F2400.00000
M204 S1250
G1 F1200.000
G1 X85.859 Y37.890 E0.04719
G1 X86.709 Y36.850 E0.08931
G1 X87.802 Y35.814 E0.13651
G1 X88.830 Y35.059 E0.17651
G1 X90.138 Y34.327 E0.22351
G1 X91.147 Y33.908 E0.25774
G1 X92.173 Y33.594 E0.29140
G1 X94.237 Y33.271 E0.35691
G1 X104.938 Y33.248 E0.69242
G1 X107.007 Y33.443 E0.75760
G1 X108.843 Y33.955 E0.81736
G1 X110.717 Y34.860 E0.88259
G1 X111.603 Y35.455 E0.91606
G1 X112.433 Y36.136 E0.94971
G1 X113.845 Y37.675 E1.01522
G1 X114.857 Y39.273 E1.07452
G1 X115.642 Y41.202 E1.13983
G1 X116.059 Y43.269 E1.20592
G1 X116.120 Y44.420 E1.24208
G1 X116.189 Y105.018 E3.14209
G1 X115.825 Y131.482 E3.97192
G1 X115.572 Y132.966 E4.01912
G1 X115.184 Y134.239 E4.06085
G1 X114.558 Y135.628 E4.10862
G1 X113.745 Y136.924 E4.15658
G1 X112.900 Y137.952 E4.19832
G1 X111.786 Y139.001 E4.24628
G1 X110.545 Y139.884 E4.29405
G1 X109.365 Y140.514 E4.33598
G1 X107.400 Y141.204 E4.40129
G1 X105.315 Y141.518 E4.46738
G1 X94.676 Y141.536 E4.80097
G1 X93.559 Y141.478 E4.83603
G1 X91.581 Y141.093 E4.89923
G1 X89.898 Y140.455 E4.95565
G1 X88.148 Y139.419 E5.01943
G1 X86.777 Y138.253 E5.07584
G1 X85.478 Y136.688 E5.13962
G1 X84.580 Y135.129 E5.19604
G1 X83.946 Y133.449 E5.25234
G1 X83.560 Y131.448 E5.31623
G1 X83.506 Y120.329 E5.66488
G1 X83.743 Y44.415 E8.04510
G1 X83.801 Y43.302 E8.08007
G1 X84.053 Y41.824 E8.12707
G1 X84.440 Y40.551 E8.16880
G1 X85.038 Y39.221 E8.21450
M204 S1500
; printing object Cabel_Holder.stl id:0 copy 0
G92 E0
G1 E-2.00000 F2400.00000
G1 X94.396 Y91.011 F7800.000
G1 E0.00000 F2400.00000
M204 S1250
G1 F1200.000
G1 X95.035 Y90.964 E0.02009
G1 X105.198 Y90.970 E0.33872
G1 X105.592 Y91.009 E0.35115
G1 X105.969 Y91.084 E0.36319
G1 X106.543 Y91.274 E0.38217
G1 X107.084 Y91.546 E0.40115
G1 X107.403 Y91.759 E0.41319
G1 X107.700 Y92.003 E0.42523
G1 X108.126 Y92.450 E0.44458
G1 X108.355 Y92.758 E0.45662
G1 X108.552 Y93.088 E0.46867
G1 X108.797 Y93.641 E0.48765
G1 X108.958 Y94.222 E0.50655
G1 X109.015 Y94.605 E0.51867
G1 X109.036 Y95.023 E0.53181
G1 X109.030 Y105.198 E0.85082
G1 X108.992 Y105.580 E0.86287
G1 X108.860 Y106.171 E0.88185
G1 X108.646 Y106.724 E0.90046
G1 X108.348 Y107.251 E0.91944
G1 X108.126 Y107.550 E0.93111
G1 X107.700 Y107.997 E0.95046
G1 X107.403 Y108.241 E0.96250
G1 X107.074 Y108.461 E0.97491
G1 X106.725 Y108.647 E0.98733
G1 X106.359 Y108.799 E0.99974
G1 X105.992 Y108.910 E1.01179
G1 X105.384 Y109.016 E1.03114
G1 X104.977 Y109.036 E1.04391
G1 X94.814 Y109.030 E1.36255
G1 X94.213 Y108.956 E1.38154
G1 X93.641 Y108.797 E1.40014
G1 X93.088 Y108.552 E1.41912
G1 X92.758 Y108.355 E1.43116
G1 X92.440 Y108.119 E1.44358
G1 X92.147 Y107.853 E1.45599
G1 X91.889 Y107.568 E1.46804
G1 X91.534 Y107.064 E1.48739
G1 X91.353 Y106.725 E1.49943
G1 X91.206 Y106.370 E1.51147
G1 X91.041 Y105.775 E1.53082
G1 X90.985 Y105.395 E1.54287
G1 X90.964 Y104.977 E1.55601
G1 X90.970 Y94.814 E1.87465
G1 X91.044 Y94.213 E1.89364
G1 X91.206 Y93.630 E1.91262
G1 X91.348 Y93.286 E1.92429
G1 X91.646 Y92.759 E1.94327
G1 X92.019 Y92.282 E1.96224
G1 X92.290 Y92.010 E1.97429
G1 X92.597 Y91.759 E1.98670
G1 X92.926 Y91.539 E1.99912
G1 X93.275 Y91.353 E2.01153
G1 X93.641 Y91.201 E2.02394
G1 X94.020 Y91.086 E2.03636
G1 X94.338 Y91.023 E2.04652
M204 S1500
G1 X94.264 Y90.653 F7800.000
M204 S1250
G1 F1200.000
G1 X95.021 Y90.587 E2.07036
G1 X105.216 Y90.593 E2.39001
G1 X105.647 Y90.636 E2.40360
G1 X106.065 Y90.719 E2.41695
G1 X106.688 Y90.924 E2.43752
G1 X107.274 Y91.220 E2.45810
G1 X107.628 Y91.456 E2.47145
G1 X107.957 Y91.726 E2.48480
G1 X108.415 Y92.207 E2.50560
G1 X108.669 Y92.549 E2.51895
G1 X108.888 Y92.914 E2.53230
G1 X109.153 Y93.514 E2.55288
G1 X109.328 Y94.144 E2.57338
G1 X109.391 Y94.568 E2.58681
G1 X109.413 Y95.014 E2.60083
G1 X109.407 Y105.216 E2.92071
G1 X109.365 Y105.640 E2.93406
G1 X109.221 Y106.281 E2.95464
G1 X108.988 Y106.886 E2.97499
G1 X108.664 Y107.457 E2.99557
G1 X108.415 Y107.793 E3.00869
G1 X107.957 Y108.274 E3.02949
G1 X107.628 Y108.544 E3.04284
G1 X107.268 Y108.784 E3.05642
G1 X106.886 Y108.989 E3.07000
G1 X106.486 Y109.154 E3.08357
G1 X106.079 Y109.278 E3.09692
G1 X105.425 Y109.391 E3.11773
G1 X104.986 Y109.413 E3.13152
G1 X94.791 Y109.407 E3.45118
G1 X94.139 Y109.327 E3.47176
G1 X93.514 Y109.153 E3.49211
G1 X92.914 Y108.888 E3.51268
G1 X92.549 Y108.669 E3.52603
G1 X92.201 Y108.411 E3.53961
G1 X91.880 Y108.120 E3.55319
G1 X91.594 Y107.804 E3.56654
G1 X91.212 Y107.262 E3.58734
G1 X91.011 Y106.886 E3.60069
G1 X90.848 Y106.493 E3.61404
G1 X90.672 Y105.854 E3.63484
G1 X90.609 Y105.432 E3.64819
G1 X90.587 Y104.986 E3.66222
G1 X90.593 Y94.791 E3.98187
G1 X90.673 Y94.139 E4.00245
G1 X90.848 Y93.507 E4.02303
G1 X91.009 Y93.120 E4.03615
G1 X91.332 Y92.549 E4.05673
G1 X91.736 Y92.032 E4.07731
G1 X92.037 Y91.731 E4.09065
G1 X92.372 Y91.456 E4.10423
G1 X92.732 Y91.216 E4.11781
G1 X93.114 Y91.011 E4.13138
G1 X93.514 Y90.846 E4.14496
G1 X93.928 Y90.720 E4.15854
G1 X94.205 Y90.665 E4.16740
M204 S1500
G1 X94.132 Y90.295 F7800.000
M204 S1250
G1 F1200.000
G1 X94.295 Y90.263 E4.17261
G1 X95.008 Y90.210 E4.19503
G1 X105.235 Y90.216 E4.51570
G1 X105.703 Y90.262 E4.53044
G1 X106.161 Y90.353 E4.54509
G1 X106.833 Y90.575 E4.56727
G1 X107.465 Y90.893 E4.58945
G1 X107.853 Y91.153 E4.60410
G1 X108.215 Y91.449 E4.61876
G1 X108.704 Y91.963 E4.64102
G1 X108.983 Y92.339 E4.65567
G1 X109.223 Y92.740 E4.67033
G1 X109.509 Y93.386 E4.69251
G1 X109.698 Y94.068 E4.71468
G1 X109.767 Y94.531 E4.72934
G1 X109.790 Y95.005 E4.74424
G1 X109.784 Y105.235 E5.06499
G1 X109.738 Y105.700 E5.07964
G1 X109.583 Y106.390 E5.10182
G1 X109.330 Y107.048 E5.12391
G1 X108.981 Y107.663 E5.14609
G1 X108.704 Y108.037 E5.16067
G1 X108.215 Y108.551 E5.18292
G1 X107.853 Y108.847 E5.19758
G1 X107.462 Y109.108 E5.21232
G1 X107.048 Y109.330 E5.22705
G1 X106.614 Y109.510 E5.24179
G1 X106.166 Y109.645 E5.25645
G1 X105.467 Y109.767 E5.27871
G1 X104.995 Y109.790 E5.29352
G1 X94.768 Y109.784 E5.61419
G1 X94.066 Y109.697 E5.63637
G1 X93.386 Y109.509 E5.65846
G1 X92.740 Y109.223 E5.68064
G1 X92.339 Y108.983 E5.69530
G1 X91.961 Y108.703 E5.71003
G1 X91.613 Y108.387 E5.72477
G1 X91.299 Y108.040 E5.73943
G1 X90.890 Y107.460 E5.76168
G1 X90.670 Y107.048 E5.77634
G1 X90.491 Y106.616 E5.79100
G1 X90.302 Y105.932 E5.81326
G1 X90.233 Y105.469 E5.82791
G1 X90.210 Y104.995 E5.84281
G1 X90.216 Y94.768 E6.16348
G1 X90.303 Y94.066 E6.18566
G1 X90.491 Y93.384 E6.20783
G1 X90.669 Y92.955 E6.22241
G1 X91.018 Y92.339 E6.24458
G1 X91.453 Y91.782 E6.26676
G1 X91.783 Y91.451 E6.28142
G1 X92.147 Y91.153 E6.29615
G1 X92.538 Y90.892 E6.31089
G1 X92.952 Y90.670 E6.32563
G1 X93.386 Y90.490 E6.34037
G1 X93.836 Y90.354 E6.35510
G1 X94.073 Y90.307 E6.36267
M204 S1500
G1 X94.241 Y90.420 F7800.000
G92 E0
G1 E-2.00000 F2400.00000
G1 X91.369 Y106.468 F7800.000
G1 E0.00000 F2400.00000
M204 S1250
G1 F1200.000
G1 X93.176 Y108.275 E0.07882
G1 X93.737 Y108.530 E0.09780
G1 X94.052 Y108.618 E0.10788
G1 X91.382 Y105.948 E0.22426
G1 X91.318 Y105.717 E0.23167
G1 X91.263 Y105.296 E0.24476
G1 X94.698 Y108.731 E0.39453
G1 X95.248 Y108.747 E0.41149
G1 X91.247 Y104.746 E0.58593
G1 X91.247 Y104.214 E0.60236
G1 X95.782 Y108.748 E0.80005
G1 X96.315 Y108.748 E0.81650
G1 X91.248 Y103.681 E1.03743
G1 X91.248 Y103.148 E1.05386
G1 X96.849 Y108.748 E1.29805
G1 X97.382 Y108.749 E1.31450
G1 X91.248 Y102.615 E1.58194
G1 X91.249 Y102.082 E1.59837
G1 X97.916 Y108.749 E1.88906
G1 X98.449 Y108.749 E1.90551
G1 X91.249 Y101.549 E2.21945
G1 X91.249 Y101.016 E2.23588
G1 X98.983 Y108.750 E2.57307
G1 X99.517 Y108.750 E2.58952
G1 X91.250 Y100.483 E2.94996
G1 X91.250 Y99.950 E2.96639
G1 X100.050 Y108.750 E3.35008
G1 X100.584 Y108.750 E3.36653
G1 X91.250 Y99.417 E3.77347
G1 X91.251 Y98.884 E3.78990
G1 X101.117 Y108.751 E4.22009
G1 X101.651 Y108.751 E4.23654
G1 X91.251 Y98.351 E4.68999
G1 X91.251 Y97.818 E4.70642
G1 X102.185 Y108.751 E5.18311
G1 X102.718 Y108.752 E5.19956
G1 X91.251 Y97.285 E5.69950
G1 X91.252 Y96.752 E5.71593
G1 X103.252 Y108.752 E6.23913
G1 X103.785 Y108.752 E6.25558
G1 X91.252 Y96.219 E6.80202
G1 X91.252 Y95.686 E6.81845
G1 X104.319 Y108.753 E7.38815
G1 X104.852 Y108.753 E7.40460
G1 X91.253 Y95.153 E7.99754
G1 X91.253 Y94.832 E8.00745
G1 X91.276 Y94.643 E8.01330
G1 X105.365 Y108.732 E8.62757
G1 X105.819 Y108.653 E8.64179
G1 X91.347 Y94.181 E9.27279
G1 X91.462 Y93.763 E9.28615
G1 X106.239 Y108.540 E9.93041
G1 X106.617 Y108.384 E9.94301
G1 X91.617 Y93.385 E10.59699
G1 X91.810 Y93.044 E10.60906
G1 X106.962 Y108.196 E11.26966
G1 X107.277 Y107.978 E11.28148
G1 X92.029 Y92.729 E11.94633
G1 X92.267 Y92.434 E11.95802
G1 X107.563 Y107.731 E12.62495
G1 X107.823 Y107.458 E12.63658
G1 X92.538 Y92.173 E13.30300
G1 X92.765 Y91.987 E13.31204
G1 X92.837 Y91.938 E13.31472
G1 X108.061 Y107.162 E13.97847
G1 X108.262 Y106.829 E13.99045
G1 X93.165 Y91.732 E14.64868
G1 X93.522 Y91.556 E14.66096
G1 X108.439 Y106.474 E15.31136
G1 X108.588 Y106.089 E15.32408
G1 X93.913 Y91.414 E15.96390
G1 X94.342 Y91.310 E15.97753
G1 X108.686 Y105.654 E16.60290
G1 X108.747 Y105.182 E16.61757
G1 X94.828 Y91.263 E17.22443
G1 X95.346 Y91.247 E17.24038
G1 X108.747 Y104.649 E17.82469
G1 X108.748 Y104.116 E17.84113
G1 X95.879 Y91.247 E18.40218
G1 X96.413 Y91.248 E18.41863
G1 X108.748 Y103.583 E18.95644
G1 X108.748 Y103.050 E18.97287
G1 X96.946 Y91.248 E19.48743
G1 X97.480 Y91.248 E19.50388
G1 X108.749 Y102.517 E19.99519
G1 X108.749 Y101.984 E20.01162
G1 X98.014 Y91.249 E20.47968
G1 X98.547 Y91.249 E20.49613
G1 X108.749 Y101.451 E20.94093
G1 X108.750 Y100.918 E20.95737
G1 X99.081 Y91.249 E21.37892
G1 X99.614 Y91.250 E21.39537
G1 X108.750 Y100.385 E21.79368
G1 X108.750 Y99.852 E21.81011
G1 X100.148 Y91.250 E22.18516
G1 X100.682 Y91.250 E22.20161
G1 X108.751 Y99.319 E22.55342
G1 X108.751 Y98.786 E22.56985
G1 X101.215 Y91.251 E22.89841
G1 X101.749 Y91.251 E22.91486
G1 X108.751 Y98.253 E23.22016
G1 X108.751 Y97.720 E23.23659
G1 X102.282 Y91.251 E23.51864
G1 X102.816 Y91.252 E23.53509
G1 X108.752 Y97.187 E23.79390
G1 X108.752 Y96.654 E23.81033
G1 X103.349 Y91.252 E24.04588
G1 X103.883 Y91.252 E24.06233
G1 X108.752 Y96.122 E24.27463
G1 X108.753 Y95.589 E24.29106
G1 X104.417 Y91.252 E24.48012
G1 X104.950 Y91.253 E24.49657
G1 X108.753 Y95.056 E24.66237
G1 X108.711 Y94.480 E24.68016
G1 X105.516 Y91.286 E24.81943
G1 X105.896 Y91.358 E24.83136
G1 X106.233 Y91.469 E24.84229
G1 X108.785 Y94.021 E24.95357
M204 S1500
; stop printing object Cabel_Holder.stl id:0 copy 0
; printing object Cabel_Holder.stl id:2 copy 0
G92 E0
G1 E-2.00000 F2400.00000
G1 X105.834 Y84.081 F7800.000
G1 E0.00000 F2400.00000
M204 S1250
G1 F1200.000
G1 X105.226 Y84.187 E0.01935
G1 X104.819 Y84.207 E0.03213
G1 X94.657 Y84.201 E0.35076
G1 X94.056 Y84.127 E0.36975
G1 X93.484 Y83.968 E0.38836
G1 X92.930 Y83.723 E0.40734
G1 X92.601 Y83.526 E0.41938
G1 X92.283 Y83.290 E0.43179
G1 X91.989 Y83.024 E0.44421
G1 X91.732 Y82.739 E0.45625
G1 X91.376 Y82.235 E0.47560
G1 X91.195 Y81.896 E0.48764
G1 X91.048 Y81.541 E0.49969
G1 X90.883 Y80.946 E0.51904
G1 X90.827 Y80.566 E0.53108
G1 X90.807 Y80.147 E0.54423
G1 X90.813 Y69.985 E0.86286
G1 X90.887 Y69.384 E0.88185
G1 X91.048 Y68.801 E0.90083
G1 X91.191 Y68.457 E0.91250
G1 X91.489 Y67.930 E0.93148
G1 X91.861 Y67.453 E0.95046
G1 X92.133 Y67.181 E0.96250
G1 X92.439 Y66.930 E0.97491
G1 X92.768 Y66.710 E0.98733
G1 X93.117 Y66.524 E0.99974
G1 X93.483 Y66.372 E1.01216
G1 X93.862 Y66.257 E1.02457
G1 X94.239 Y66.182 E1.03661
G1 X94.878 Y66.135 E1.05670
G1 X105.040 Y66.141 E1.37534
G1 X105.434 Y66.180 E1.38776
G1 X105.811 Y66.255 E1.39980
G1 X106.386 Y66.445 E1.41878
G1 X106.926 Y66.717 E1.43776
G1 X107.246 Y66.930 E1.44980
G1 X107.543 Y67.174 E1.46185
G1 X107.968 Y67.621 E1.48120
G1 X108.197 Y67.929 E1.49324
G1 X108.395 Y68.259 E1.50528
G1 X108.640 Y68.812 E1.52426
G1 X108.801 Y69.393 E1.54317
G1 X108.858 Y69.776 E1.55529
G1 X108.878 Y70.194 E1.56843
G1 X108.872 Y80.369 E1.88744
G1 X108.835 Y80.751 E1.89949
G1 X108.702 Y81.342 E1.91847
G1 X108.488 Y81.895 E1.93707
G1 X108.190 Y82.422 E1.95605
G1 X107.968 Y82.721 E1.96772
G1 X107.543 Y83.168 E1.98707
G1 X107.246 Y83.412 E1.99912
G1 X106.917 Y83.632 E2.01153
G1 X106.567 Y83.818 E2.02394
G1 X106.202 Y83.970 E2.03636
G1 X105.892 Y84.064 E2.04652
M204 S1500
G1 X106.001 Y84.425 F7800.000
M204 S1250
G1 F1200.000
G1 X105.268 Y84.562 E2.06991
G1 X104.828 Y84.584 E2.08371
G1 X94.633 Y84.578 E2.40336
G1 X93.982 Y84.497 E2.42395
G1 X93.356 Y84.324 E2.44430
G1 X92.756 Y84.058 E2.46487
G1 X92.391 Y83.839 E2.47822
G1 X92.043 Y83.582 E2.49180
G1 X91.722 Y83.291 E2.50538
G1 X91.437 Y82.975 E2.51872
G1 X91.054 Y82.433 E2.53953
G1 X90.854 Y82.057 E2.55288
G1 X90.691 Y81.664 E2.56623
G1 X90.514 Y81.024 E2.58703
G1 X90.451 Y80.603 E2.60038
G1 X90.429 Y80.157 E2.61440
G1 X90.435 Y69.962 E2.93406
G1 X90.516 Y69.310 E2.95464
G1 X90.691 Y68.678 E2.97522
G1 X90.851 Y68.291 E2.98834
G1 X91.175 Y67.720 E3.00892
G1 X91.578 Y67.203 E3.02949
G1 X91.879 Y66.902 E3.04284
G1 X92.214 Y66.627 E3.05642
G1 X92.574 Y66.386 E3.07000
G1 X92.956 Y66.182 E3.08357
G1 X93.356 Y66.017 E3.09715
G1 X93.770 Y65.891 E3.11072
G1 X94.188 Y65.808 E3.12407
G1 X94.864 Y65.758 E3.14533
G1 X105.059 Y65.764 E3.46498
G1 X105.490 Y65.806 E3.47856
G1 X105.907 Y65.889 E3.49191
G1 X106.531 Y66.095 E3.51249
G1 X107.117 Y66.390 E3.53306
G1 X107.471 Y66.627 E3.54641
G1 X107.800 Y66.897 E3.55976
G1 X108.257 Y67.378 E3.58057
G1 X108.511 Y67.720 E3.59392
G1 X108.730 Y68.085 E3.60727
G1 X108.996 Y68.685 E3.62784
G1 X109.170 Y69.315 E3.64834
G1 X109.233 Y69.739 E3.66177
G1 X109.255 Y70.185 E3.67579
G1 X109.249 Y80.387 E3.99567
G1 X109.208 Y80.811 E4.00903
G1 X109.064 Y81.451 E4.02960
G1 X108.830 Y82.057 E4.04995
G1 X108.507 Y82.628 E4.07053
G1 X108.257 Y82.964 E4.08365
G1 X107.800 Y83.445 E4.10446
G1 X107.471 Y83.715 E4.11781
G1 X107.111 Y83.955 E4.13138
G1 X106.729 Y84.159 E4.14496
G1 X106.329 Y84.325 E4.15854
G1 X106.058 Y84.407 E4.16740
M204 S1500
G1 X106.168 Y84.768 F7800.000
M204 S1250
G1 F1200.000
G1 X106.009 Y84.816 E4.17261
G1 X105.309 Y84.938 E4.19487
G1 X104.837 Y84.961 E4.20969
G1 X94.610 Y84.955 E4.53035
G1 X93.908 Y84.868 E4.55253
G1 X93.229 Y84.680 E4.57463
G1 X92.582 Y84.394 E4.59680
G1 X92.181 Y84.153 E4.61146
G1 X91.804 Y83.873 E4.62620
G1 X91.456 Y83.558 E4.64093
