; generated by Slic3r++ 2.2.47 on 2020-05-05 at 19:05:23 UTC

; 

; external perimeters extrusion width = 0.45mm
; perimeters extrusion width = 0.45mm
; infill extrusion width = 0.45mm
; solid infill extrusion width = 0.45mm
; top infill extrusion width = 0.40mm
; first layer extrusion width = 0.42mm

; object:{"name":"calicat","id":"calicat.stl id:0 copy 0","object_center":[100.000000,100.000000,100.000000],"boundingbox_center":[100.000000,17.500000,28.535534],"boundingbox_size":[28.500000,35.000000,0.000000]}

M201 X9000 Y9000 Z500 E10000 ; sets maximum accelerations, mm/sec^2
M203 X500 Y500 Z12 E120 ; sets maximum feedrates, mm/sec
M204 P1500 R1500 T1500 ; sets acceleration (P, T) and retract acceleration (R), mm/sec^2
M205 X10.00 Y10.00 Z0.20 E2.50 ; sets the jerk limits, mm/sec
M205 S0 T0 ; sets the minimum extruding and travel feed rate, mm/sec
M107
M104 S195 ; set temperature
G28 ; home all axes
G1 Z5 F5000 ; lift nozzle
M109 S195 ; set temperature and wait for it to be reached
G21 ; set units to millimeters
G90 ; use absolute coordinates
M82 ; use absolute distances for extrusion
G92 E0
; Filament gcode
G1 Z0.300 F7800.000
G1 E-2.00000 F2400.00000
G1 X89.386 Y81.631 F7800.000
G1 E0.00000 F2400.00000
G1 F1800.000
G1 X90.527 Y80.572 E0.06907
G1 X91.891 Y79.821 E0.13813
G1 X93.390 Y79.423 E0.20692
G1 X94.249 Y79.362 E0.24511
G1 X114.274 Y79.362 E1.13331
G1 X115.367 Y79.458 E1.18199
G1 X116.434 Y79.741 E1.23095
G1 X117.436 Y80.204 E1.27991
G1 X118.344 Y80.832 E1.32887
G1 X119.130 Y81.607 E1.37783
G1 X119.767 Y82.501 E1.42651
G1 X120.245 Y83.496 E1.47547
G1 X120.543 Y84.558 E1.52443
G1 X120.656 Y85.719 E1.57615
G1 X120.654 Y106.887 E2.51507
G1 X120.473 Y108.265 E2.57671
G1 X119.999 Y109.571 E2.63835
G1 X119.511 Y110.399 E2.68096
G1 X118.904 Y111.144 E2.72357
G1 X111.236 Y118.815 E3.20468
G1 X110.264 Y119.596 E3.25998
G1 X109.165 Y120.171 E3.31501
G1 X108.109 Y120.495 E3.36397
G1 X107.014 Y120.633 E3.41293
G1 X97.001 Y120.637 E3.85706
G1 X95.591 Y120.461 E3.92007
G1 X94.261 Y119.981 E3.98281
G1 X93.387 Y119.461 E4.02791
G1 X92.607 Y118.809 E4.07300
G1 X91.937 Y118.036 E4.11838
G1 X91.402 Y117.172 E4.16347
G1 X88.268 Y108.942 E4.55408
G1 X87.954 Y107.722 E4.60994
G1 X87.880 Y106.770 E4.65227
G1 X87.882 Y85.600 E5.59127
G1 X88.064 Y84.229 E5.65264
G1 X88.537 Y82.929 E5.71400
G1 X89.353 Y81.681 E5.78013
; printing object calicat.stl id:0 copy 0
G92 E0
G1 E-2.00000 F2400.00000
G1 X95.189 Y98.671 F7800.000
G1 E0.00000 F2400.00000
G1 F1800.000
G1 X101.347 Y98.671 E0.27312
G1 X101.347 Y103.671 E0.49489
G1 X107.189 Y103.671 E0.75403
G1 X107.189 Y98.671 E0.97581
G1 X113.347 Y98.671 E1.24892
G1 X113.347 Y105.829 E1.56639
G1 X105.847 Y105.829 E1.89905
G1 X105.847 Y113.329 E2.23171
G1 X98.003 Y113.329 E2.57959
G1 X98.003 Y110.171 E2.71964
G1 X102.689 Y110.171 E2.92747
G1 X102.689 Y105.829 E3.12008
G1 X95.189 Y105.829 E3.45274
G1 X95.189 Y98.731 E3.76755
G92 E0
G1 E-2.00000 F2400.00000
G1 X101.702 Y103.316 F7800.000
G1 E0.00000 F2400.00000
G1 F1800.000
G1 X106.833 Y103.316 E0.22760
G1 X106.833 Y98.316 E0.44937
G1 X113.702 Y98.316 E0.75403
G1 X113.702 Y106.184 E1.10305
G1 X106.202 Y106.184 E1.43571
G1 X106.202 Y113.684 E1.76837
G1 X97.648 Y113.684 E2.14780
G1 X97.648 Y109.816 E2.31939
G1 X102.333 Y109.816 E2.52722
G1 X102.333 Y106.184 E2.68828
G1 X94.833 Y106.184 E3.02094
G1 X94.833 Y98.316 E3.36996
G1 X101.702 Y98.316 E3.67462
G1 X101.702 Y103.256 E3.89374
G1 X102.058 Y102.960 F7800.000
G1 F1800.000
G1 X106.478 Y102.960 E4.08979
G1 X106.478 Y97.960 E4.31156
G1 X114.058 Y97.960 E4.64777
G1 X114.058 Y106.540 E5.02833
G1 X106.558 Y106.540 E5.36099
G1 X106.558 Y114.040 E5.69366
G1 X97.292 Y114.040 E6.10463
G1 X97.292 Y109.460 E6.30777
G1 X101.978 Y109.460 E6.51560
G1 X101.978 Y106.540 E6.64511
G1 X94.478 Y106.540 E6.97778
G1 X94.478 Y97.960 E7.35834
G1 X102.058 Y97.960 E7.69455
G1 X102.058 Y102.900 E7.91366
G1 X102.187 Y103.339 F7800.000
G1 X101.427 Y103.778
G1 F1200.000
G1 X105.580 Y107.930 E8.16028
G1 X105.580 Y107.427 E8.18140
G1 X102.090 Y103.938 E8.38865
G1 X102.593 Y103.938 E8.40977
G1 X105.580 Y106.924 E8.58715
G1 X105.580 Y106.421 E8.60827
G1 X103.096 Y103.938 E8.75578
G1 X103.599 Y103.938 E8.77690
G1 X105.580 Y105.919 E8.89453
G1 X105.580 Y105.562 E8.90951
G1 X105.726 Y105.562 E8.91566
G1 X104.102 Y103.938 E9.01212
G1 X104.605 Y103.938 E9.03324
G1 X106.229 Y105.562 E9.12970
G1 X106.732 Y105.562 E9.15082
G1 X105.108 Y103.938 E9.24729
G1 X105.611 Y103.938 E9.26841
G1 X107.235 Y105.562 E9.36487
G1 X107.738 Y105.562 E9.38599
G1 X106.114 Y103.938 E9.48246
G1 X106.617 Y103.938 E9.50358
G1 X108.241 Y105.562 E9.60004
G1 X108.744 Y105.562 E9.62116
G1 X107.120 Y103.938 E9.71762
G1 X107.456 Y103.938 E9.73174
G1 X107.456 Y103.771 E9.73875
G1 X109.247 Y105.562 E9.84512
G1 X109.750 Y105.562 E9.86624
G1 X107.456 Y103.268 E10.00249
G1 X107.456 Y102.765 E10.02361
G1 X110.253 Y105.562 E10.18972
G1 X110.755 Y105.562 E10.21084
G1 X107.456 Y102.262 E10.40683
G1 X107.456 Y101.759 E10.42795
G1 X111.258 Y105.562 E10.65381
G1 X111.761 Y105.562 E10.67493
G1 X107.456 Y101.256 E10.93065
G1 X107.456 Y100.754 E10.95177
G1 X112.264 Y105.562 E11.23737
G1 X112.767 Y105.562 E11.25849
G1 X107.456 Y100.251 E11.57396
G1 X107.456 Y99.748 E11.59508
G1 X113.080 Y105.372 E11.92911
G1 X113.080 Y104.869 E11.95023
G1 X107.456 Y99.245 E12.28427
G1 X107.456 Y98.938 E12.29716
G1 X107.652 Y98.938 E12.30539
G1 X113.080 Y104.366 E12.62778
G1 X113.080 Y103.863 E12.64890
G1 X108.155 Y98.938 E12.94142
G1 X108.658 Y98.938 E12.96254
G1 X113.080 Y103.360 E13.22519
G1 X113.080 Y102.857 E13.24631
G1 X109.161 Y98.938 E13.47909
G1 X109.663 Y98.938 E13.50021
G1 X113.080 Y102.354 E13.70312
G1 X113.080 Y101.851 E13.72424
G1 X110.166 Y98.938 E13.89728
G1 X110.669 Y98.938 E13.91840
G1 X113.080 Y101.348 E14.06157
G1 X113.080 Y100.846 E14.08269
G1 X111.172 Y98.938 E14.19599
G1 X111.675 Y98.938 E14.21711
G1 X113.080 Y100.343 E14.30054
G1 X113.080 Y99.840 E14.32166
G1 X112.178 Y98.938 E14.37522
G1 X112.681 Y98.938 E14.39634
G1 X113.240 Y99.497 E14.42954
G92 E0
G1 E-2.00000 F2400.00000
G1 X101.240 Y99.567 F7800.000
G1 E0.00000 F2400.00000
G1 F1200.000
G1 X100.611 Y98.938 E0.03736
G1 X100.108 Y98.938 E0.05848
G1 X101.080 Y99.910 E0.11620
G1 X101.080 Y100.413 E0.13732
G1 X99.605 Y98.938 E0.22491
G1 X99.102 Y98.938 E0.24604
G1 X101.080 Y100.916 E0.36350
G1 X101.080 Y101.419 E0.38462
G1 X98.599 Y98.938 E0.53195
G1 X98.096 Y98.938 E0.55307
G1 X101.080 Y101.921 E0.73028
G1 X101.080 Y102.424 E0.75140
G1 X97.593 Y98.938 E0.95847
G1 X97.090 Y98.938 E0.97959
G1 X101.080 Y102.927 E1.21653
G1 X101.080 Y103.430 E1.23766
G1 X96.588 Y98.938 E1.50447
G1 X96.085 Y98.938 E1.52559
G1 X105.580 Y108.433 E2.08954
G1 X105.580 Y108.936 E2.11066
G1 X102.956 Y106.312 E2.26652
G1 X102.956 Y106.815 E2.28764
G1 X105.580 Y109.439 E2.44350
G1 X105.580 Y109.942 E2.46462
G1 X102.956 Y107.318 E2.62048
G1 X102.956 Y107.821 E2.64160
G1 X105.580 Y110.445 E2.79745
G1 X105.580 Y110.948 E2.81858
G1 X102.956 Y108.324 E2.97443
G1 X102.956 Y108.827 E2.99555
G1 X105.580 Y111.451 E3.15141
G1 X105.580 Y111.954 E3.17253
G1 X102.956 Y109.329 E3.32839
G1 X102.956 Y109.832 E3.34951
G1 X105.580 Y112.457 E3.50536
G1 X105.580 Y112.959 E3.52649
G1 X102.956 Y110.335 E3.68234
G1 X102.956 Y110.438 E3.68665
G1 X102.555 Y110.438 E3.70346
G1 X105.180 Y113.062 E3.85932
G1 X104.677 Y113.062 E3.88044
G1 X102.052 Y110.438 E4.03630
G1 X101.550 Y110.438 E4.05742
G1 X104.174 Y113.062 E4.21327
G1 X103.671 Y113.062 E4.23440
G1 X101.047 Y110.438 E4.39025
G1 X100.544 Y110.438 E4.41137
G1 X103.168 Y113.062 E4.56723
G1 X102.665 Y113.062 E4.58835
G1 X100.041 Y110.438 E4.74421
G1 X99.538 Y110.438 E4.76533
G1 X102.162 Y113.062 E4.92119
G1 X101.659 Y113.062 E4.94231
G1 X99.035 Y110.438 E5.09816
G1 X98.532 Y110.438 E5.11928
G1 X101.156 Y113.062 E5.27514
G1 X100.653 Y113.062 E5.29626
G1 X98.270 Y110.679 E5.43780
G1 X98.270 Y111.182 E5.45892
G1 X100.150 Y113.062 E5.57059
G1 X99.647 Y113.062 E5.59171
G1 X98.270 Y111.685 E5.67351
G1 X98.270 Y112.188 E5.69463
G1 X99.144 Y113.062 E5.74656
G1 X98.642 Y113.062 E5.76768
G1 X98.110 Y112.531 E5.79924
G92 E0
G1 E-2.00000 F2400.00000
G1 X95.828 Y105.722 F7800.000
G1 E0.00000 F2400.00000
G1 F1200.000
G1 X95.456 Y105.350 E0.02210
G1 X95.456 Y104.847 E0.04323
G1 X96.171 Y105.562 E0.08570
G1 X96.674 Y105.562 E0.10682
G1 X95.456 Y104.344 E0.17916
G1 X95.456 Y103.841 E0.20028
G1 X97.177 Y105.562 E0.30249
G1 X97.680 Y105.562 E0.32361
G1 X95.456 Y103.338 E0.45569
G1 X95.456 Y102.835 E0.47681
G1 X98.182 Y105.562 E0.63876
G1 X98.685 Y105.562 E0.65989
G1 X95.456 Y102.332 E0.85171
G1 X95.456 Y101.829 E0.87283
G1 X99.188 Y105.562 E1.09452
G1 X99.691 Y105.562 E1.11564
G1 X95.456 Y101.327 E1.36720
G1 X95.456 Y100.824 E1.38832
G1 X100.194 Y105.562 E1.66976
G1 X100.697 Y105.562 E1.69088
G1 X95.456 Y100.321 E2.00218
G1 X95.456 Y99.818 E2.02330
G1 X101.200 Y105.562 E2.36447
G1 X101.703 Y105.562 E2.38559
G1 X95.456 Y99.315 E2.75663
G1 X95.456 Y98.938 E2.77246
G1 X95.582 Y98.938 E2.77776
G1 X102.366 Y105.722 E3.18069
G92 E0
G1 E-2.00000 F2400.00000
G1 X101.347 Y93.829 F7800.000
G1 E0.00000 F2400.00000
G1 F900.000
G1 X95.189 Y93.829 E0.27312
G1 X95.189 Y86.671 E0.59059
G1 X101.347 Y86.671 E0.86370
G1 X101.347 Y93.769 E1.17851
G1 X101.702 Y94.184 F7800.000
G1 F900.000
G1 X94.833 Y94.184 E1.48317
G1 X94.833 Y86.316 E1.83219
G1 X101.702 Y86.316 E2.13686
G1 X101.702 Y94.124 E2.48321
G1 X102.058 Y94.540 F7800.000
G1 F900.000
G1 X94.478 Y94.540 E2.81942
G1 X94.478 Y85.960 E3.19999
G1 X102.058 Y85.960 E3.53620
G1 X102.058 Y94.480 E3.91410
G1 X101.674 Y94.429 F7800.000
G92 E0
G1 E-2.00000 F2400.00000
G1 X101.240 Y87.497 F7800.000
G1 E0.00000 F2400.00000
G1 F1200.000
G1 X100.681 Y86.938 E0.03332
G1 X100.178 Y86.938 E0.05452
G1 X101.080 Y87.840 E0.10828
G1 X101.080 Y88.343 E0.12948
G1 X99.675 Y86.938 E0.21323
G1 X99.172 Y86.938 E0.23443
G1 X101.080 Y88.846 E0.34816
G1 X101.080 Y89.348 E0.36936
G1 X98.669 Y86.938 E0.51307
G1 X98.166 Y86.938 E0.53427
G1 X101.080 Y89.851 E0.70797
G1 X101.080 Y90.354 E0.72917
G1 X97.663 Y86.938 E0.93285
G1 X97.161 Y86.938 E0.95405
G1 X101.080 Y90.857 E1.18771
G1 X101.080 Y91.360 E1.20892
G1 X96.658 Y86.938 E1.47256
G1 X96.155 Y86.938 E1.49376
G1 X101.080 Y91.863 E1.78739
G1 X101.080 Y92.366 E1.80859
G1 X95.652 Y86.938 E2.13221
G1 X95.456 Y86.938 E2.14047
G1 X95.456 Y87.245 E2.15341
G1 X101.080 Y92.869 E2.48871
G1 X101.080 Y93.372 E2.50991
G1 X95.456 Y87.748 E2.84522
G1 X95.456 Y88.251 E2.86642
G1 X100.767 Y93.562 E3.18308
G1 X100.264 Y93.562 E3.20428
G1 X95.456 Y88.754 E3.49096
G1 X95.456 Y89.256 E3.51217
G1 X99.761 Y93.562 E3.76886
G1 X99.258 Y93.562 E3.79006
G1 X95.456 Y89.759 E4.01678
G1 X95.456 Y90.262 E4.03798
G1 X98.755 Y93.562 E4.23471
G1 X98.253 Y93.562 E4.25591
G1 X95.456 Y90.765 E4.42265
G1 X95.456 Y91.268 E4.44385
G1 X97.750 Y93.562 E4.58062
G1 X97.247 Y93.562 E4.60182
G1 X95.456 Y91.771 E4.70860
G1 X95.456 Y92.274 E4.72980
G1 X96.744 Y93.562 E4.80659
G1 X96.241 Y93.562 E4.82779
G1 X95.456 Y92.777 E4.87461
G1 X95.456 Y93.280 E4.89581
G1 X95.898 Y93.722 E4.92218
G92 E0
G1 E-2.00000 F2400.00000
G1 X107.189 Y93.722 F7800.000
G1 E0.00000 F2400.00000
G1 F900.000
G1 X107.189 Y86.671 E0.31274
G1 X113.347 Y86.671 E0.58586
G1 X113.347 Y93.829 E0.90333
G1 X107.189 Y93.829 E1.17644
G1 X107.189 Y93.782 E1.17851
G1 X106.833 Y94.184 F7800.000
G1 F900.000
G1 X106.833 Y86.316 E1.52753
G1 X113.702 Y86.316 E1.83219
G1 X113.702 Y94.184 E2.18121
G1 X106.893 Y94.184 E2.48321
G1 X106.478 Y94.540 F7800.000
G1 F900.000
G1 X106.478 Y85.960 E2.86378
G1 X114.058 Y85.960 E3.19999
G1 X114.058 Y94.540 E3.58055
G1 X106.538 Y94.540 E3.91410
G1 X106.573 Y94.152 F7800.000
G92 E0
G1 E-2.00000 F2400.00000
G1 X113.240 Y87.497 F7800.000
G1 E0.00000 F2400.00000
G1 F1200.000
G1 X112.681 Y86.938 E0.03332
G1 X112.178 Y86.938 E0.05452
G1 X113.080 Y87.840 E0.10828
G1 X113.080 Y88.343 E0.12948
G1 X111.675 Y86.938 E0.21323
G1 X111.172 Y86.938 E0.23443
G1 X113.080 Y88.846 E0.34816
G1 X113.080 Y89.348 E0.36936
G1 X110.669 Y86.938 E0.51307
G1 X110.166 Y86.938 E0.53427
G1 X113.080 Y89.851 E0.70797
G1 X113.080 Y90.354 E0.72917
G1 X109.663 Y86.938 E0.93285
G1 X109.161 Y86.938 E0.95405
G1 X113.080 Y90.857 E1.18771
G1 X113.080 Y91.360 E1.20892
G1 X108.658 Y86.938 E1.47256
G1 X108.155 Y86.938 E1.49376
G1 X113.080 Y91.863 E1.78739
G1 X113.080 Y92.366 E1.80859
G1 X107.652 Y86.938 E2.13221
G1 X107.456 Y86.938 E2.14047
G1 X107.456 Y87.245 E2.15341
G1 X113.080 Y92.869 E2.48871
G1 X113.080 Y93.372 E2.50991
G1 X107.456 Y87.748 E2.84522
G1 X107.456 Y88.251 E2.86642
G1 X112.767 Y93.562 E3.18308
G1 X112.264 Y93.562 E3.20428
G1 X107.456 Y88.754 E3.49096
G1 X107.456 Y89.256 E3.51217
G1 X111.761 Y93.562 E3.76886
G1 X111.258 Y93.562 E3.79006
G1 X107.456 Y89.759 E4.01678
G1 X107.456 Y90.262 E4.03798
G1 X110.755 Y93.562 E4.23471
G1 X110.253 Y93.562 E4.25591
G1 X107.456 Y90.765 E4.42265
G1 X107.456 Y91.268 E4.44385
G1 X109.750 Y93.562 E4.58062
G1 X109.247 Y93.562 E4.60182
G1 X107.456 Y91.771 E4.70860
G1 X107.456 Y92.274 E4.72980
G1 X108.744 Y93.562 E4.80659
G1 X108.241 Y93.562 E4.82779
G1 X107.456 Y92.777 E4.87460
G1 X107.456 Y93.280 E4.89581
G1 X107.898 Y93.722 E4.92217
; stop printing object calicat.stl id:0 copy 0
G1 Z0.500 F7800.000
; printing object calicat.stl id:0 copy 0
G92 E0
G1 E-2.00000 F2400.00000
G1 X101.229 Y103.789 F7800.000
G1 E0.00000 F2400.00000
G1 F3600.000
G1 X107.307 Y103.789 E0.20574
G1 X107.307 Y98.789 E0.37499
G1 X113.229 Y98.789 E0.57543
G1 X113.229 Y105.711 E0.80972
G1 X105.729 Y105.711 E1.06359
G1 X105.729 Y113.211 E1.31745
G1 X97.871 Y113.211 E1.58341
G1 X97.871 Y110.289 E1.68231
G1 X102.807 Y110.289 E1.84937
G1 X102.807 Y105.711 E2.00434
G1 X95.307 Y105.711 E2.25820
G1 X95.307 Y98.789 E2.49250
G1 X101.229 Y98.789 E2.69294
G1 X101.229 Y103.729 E2.86015
G1 X101.636 Y103.382 F7800.000
G1 F3600.000
G1 X106.900 Y103.382 E3.03834
G1 X106.900 Y98.382 E3.20758
G1 X113.636 Y98.382 E3.43558
G1 X113.636 Y106.118 E3.69743
G1 X106.136 Y106.118 E3.95130
G1 X106.136 Y113.618 E4.20516
G1 X97.464 Y113.618 E4.49868
G1 X97.464 Y109.882 E4.62513
G1 X102.400 Y109.882 E4.79219
G1 X102.400 Y106.118 E4.91961
G1 X94.900 Y106.118 E5.17347
G1 X94.900 Y98.382 E5.43532
G1 X101.636 Y98.382 E5.66332
G1 X101.636 Y103.322 E5.83053
G1 X102.043 Y102.975 F7800.000
G1 F1800.000
G1 X106.493 Y102.975 E5.98116
G1 X106.493 Y97.975 E6.15041
G1 X114.043 Y97.975 E6.40596
G1 X114.043 Y106.525 E6.69537
G1 X106.543 Y106.525 E6.94924
G1 X106.543 Y114.025 E7.20310
G1 X97.057 Y114.025 E7.52418
G1 X97.057 Y109.475 E7.67819
G1 X101.993 Y109.475 E7.84525
G1 X101.993 Y106.525 E7.94511
G1 X94.493 Y106.525 E8.19897
G1 X94.493 Y97.975 E8.48838
G1 X102.043 Y97.975 E8.74394
G1 X102.043 Y102.915 E8.91115
G1 X102.172 Y103.354 F7800.000
G1 X104.784 Y113.089
G1 F1200.000
G1 X105.423 Y112.449 E8.94203
G1 X105.423 Y111.873 E8.96168
G1 X104.391 Y112.906 E9.01150
G1 X103.815 Y112.906 E9.03115
G1 X105.423 Y111.298 E9.10876
G1 X105.423 Y110.722 E9.12841
G1 X103.240 Y112.906 E9.23381
G1 X102.664 Y112.906 E9.25346
G1 X105.423 Y110.146 E9.38665
G1 X105.423 Y109.571 E9.40630
G1 X102.088 Y112.906 E9.56727
G1 X101.513 Y112.906 E9.58692
G1 X105.423 Y108.995 E9.77568
G1 X105.423 Y108.419 E9.79533
G1 X100.937 Y112.906 E10.01188
G1 X100.361 Y112.906 E10.03153
G1 X102.672 Y110.594 E10.14309
G1 X102.097 Y110.594 E10.16274
G1 X99.786 Y112.906 E10.27429
G1 X99.210 Y112.906 E10.29394
G1 X101.521 Y110.594 E10.40549
G1 X100.945 Y110.594 E10.42514
G1 X98.634 Y112.906 E10.53669
G1 X98.177 Y112.906 E10.55231
G1 X98.177 Y112.787 E10.55634
G1 X100.370 Y110.594 E10.66219
G1 X99.794 Y110.594 E10.68184
G1 X98.177 Y112.212 E10.75989
G1 X98.177 Y111.636 E10.77954
G1 X99.218 Y110.594 E10.82981
G1 X98.642 Y110.594 E10.84946
G1 X97.993 Y111.243 E10.88078
G92 E0
G1 E-2.00000 F2400.00000
G1 X112.284 Y105.589 F7800.000
G1 E0.00000 F2400.00000
G1 F1200.000
G1 X112.923 Y104.949 E0.03088
G1 X112.923 Y104.373 E0.05053
G1 X111.891 Y105.406 E0.10035
G1 X111.315 Y105.406 E0.12000
G1 X112.923 Y103.798 E0.19761
G1 X112.923 Y103.222 E0.21726
G1 X110.740 Y105.406 E0.32266
G1 X110.164 Y105.406 E0.34231
G1 X112.923 Y102.646 E0.47550
