; generated by Slic3r++ 2.2.50 on 2020-05-16 at 13:07:32 UTC

; 

; external perimeters extrusion width = 0.45mm
; perimeters extrusion width = 0.45mm
; infill extrusion width = 0.45mm
; solid infill extrusion width = 0.45mm
; top infill extrusion width = 0.40mm
; first layer extrusion width = 0.42mm

; object:{"name":"E3D_V6_Mount","id":"E3D_V6_Mount.STL id:0 copy 0","object_center":[100.000000,100.000000,100.000000],"boundingbox_center":[100.000000,15.035000,36.099998],"boundingbox_size":[29.999998,30.070000,0.000000]}

M201 X9000 Y9000 Z500 E10000 ; sets maximum accelerations, mm/sec^2
M203 X500 Y500 Z12 E120 ; sets maximum feedrates, mm/sec
M204 P1500 R1500 T1500 ; sets acceleration (P, T) and retract acceleration (R), mm/sec^2
M205 X10.00 Y10.00 Z0.20 E2.50 ; sets the jerk limits, mm/sec
M205 S0 T0 ; sets the minimum extruding and travel feed rate, mm/sec
M107
M190 S60 ; set bed temperature and wait for it to be reached
M104 S200 ; set temperature
G28 ; home all axes
G1 Z5 F5000 ; lift nozzle
M109 S200 ; set temperature and wait for it to be reached
G21 ; set units to millimeters
G90 ; use absolute coordinates
M82 ; use absolute distances for extrusion
G92 E0
; Filament gcode
G1 Z0.200 F7800.000
G1 E-2.00000 F2400.00000
G1 X83.893 Y81.700 F7800.000
G1 E0.00000 F2400.00000
M204 S1250
G1 F1800.000
G1 X84.875 Y80.859 E0.04056
G1 X85.759 Y80.265 E0.07394
G1 X86.958 Y79.648 E0.11623
G1 X88.761 Y79.061 E0.17568
G1 X90.486 Y78.826 E0.23026
G1 X109.006 Y78.811 E0.81094
G1 X110.976 Y79.006 E0.87301
G1 X112.672 Y79.497 E0.92836
G1 X114.442 Y80.387 E0.99049
G1 X116.024 Y81.621 E1.05339
G1 X116.704 Y82.334 E1.08427
G1 X117.429 Y83.276 E1.12156
G1 X123.331 Y92.255 E1.45848
G1 X123.727 Y93.150 E1.48915
G1 X124.014 Y94.098 E1.52020
G1 X124.173 Y94.969 E1.54797
G1 X124.238 Y95.951 E1.57882
G1 X124.219 Y104.560 E1.84875
G1 X123.958 Y106.124 E1.89847
G1 X123.454 Y107.497 E1.94431
G1 X122.885 Y108.510 E1.98075
G1 X122.136 Y109.477 E2.01911
G1 X113.580 Y118.326 E2.40504
G1 X112.869 Y118.951 E2.43472
G1 X111.897 Y119.642 E2.47211
G1 X111.093 Y120.093 E2.50101
G1 X110.023 Y120.560 E2.53763
G1 X108.564 Y120.977 E2.58521
G1 X107.010 Y121.175 E2.63432
G1 X93.408 Y121.188 E3.06081
G1 X92.254 Y121.111 E3.09705
G1 X91.315 Y120.951 E3.12692
G1 X90.162 Y120.626 E3.16450
G1 X89.216 Y120.243 E3.19649
G1 X87.631 Y119.328 E3.25387
G1 X86.336 Y118.244 E3.30682
G1 X77.855 Y109.468 E3.68948
G1 X77.091 Y108.473 E3.72881
G1 X76.501 Y107.401 E3.76717
G1 X75.995 Y105.938 E3.81572
G1 X75.779 Y104.541 E3.86005
G1 X75.761 Y95.982 E4.12842
G1 X75.959 Y94.211 E4.18427
G1 X76.546 Y92.503 E4.24089
G1 X77.098 Y91.516 E4.27637
G1 X83.029 Y82.655 E4.61069
G1 X83.852 Y81.744 E4.64918
M204 S1500
; printing object E3D_V6_Mount.STL id:0 copy 0
G92 E0
G1 E-2.00000 F2400.00000
G1 X104.802 Y108.849 F7800.000
G1 E0.00000 F2400.00000
M204 S1250
G1 F900.000
G1 X104.387 Y109.256 E0.01825
G1 X104.147 Y109.597 E0.03131
G1 X103.903 Y110.125 E0.04955
G1 X103.776 Y110.704 E0.06813
G1 X103.776 Y111.296 E0.08671
G1 X103.903 Y111.875 E0.10529
G1 X104.152 Y112.413 E0.12387
G1 X104.504 Y112.876 E0.14212
G1 X104.804 Y113.150 E0.15485
G1 X105.140 Y113.378 E0.16757
G1 X105.672 Y113.612 E0.18582
G1 X106.253 Y113.729 E0.20440
G1 X106.845 Y113.719 E0.22298
G1 X107.422 Y113.581 E0.24156
G1 X107.955 Y113.322 E0.26014
G1 X108.412 Y112.962 E0.27839
G1 X108.680 Y112.657 E0.29111
G1 X108.902 Y112.317 E0.30384
G1 X109.127 Y111.781 E0.32209
G1 X109.233 Y111.198 E0.34067
G1 X109.212 Y110.616 E0.35891
G1 X109.123 Y110.209 E0.37197
G1 X108.902 Y109.683 E0.38988
G1 X108.674 Y109.334 E0.40294
G1 X108.274 Y108.911 E0.42119
G1 X107.784 Y108.579 E0.43977
G1 X107.233 Y108.359 E0.45835
G1 X106.659 Y108.265 E0.47660
G1 X106.242 Y108.273 E0.48966
G1 X105.682 Y108.385 E0.50757
G1 X105.295 Y108.540 E0.52063
G1 X104.853 Y108.817 E0.53699
M204 S1500
G1 X104.575 Y109.644 F7800.000
M204 S1250
G1 F900.000
G1 X104.475 Y109.786 E0.54245
G1 X104.262 Y110.246 E0.55834
G1 X104.153 Y110.745 E0.57435
G1 X104.153 Y111.255 E0.59036
G1 X104.262 Y111.754 E0.60637
G1 X104.477 Y112.217 E0.62238
G1 X104.783 Y112.621 E0.63827
G1 X105.038 Y112.853 E0.64907
G1 X105.323 Y113.046 E0.65987
G1 X105.787 Y113.251 E0.67576
G1 X106.287 Y113.352 E0.69177
G1 X106.798 Y113.342 E0.70778
G1 X107.294 Y113.224 E0.72378
G1 X107.754 Y113.001 E0.73979
G1 X108.152 Y112.687 E0.75568
G1 X108.379 Y112.429 E0.76648
G1 X108.567 Y112.140 E0.77728
G1 X108.763 Y111.673 E0.79317
G1 X108.855 Y111.170 E0.80918
G1 X108.837 Y110.664 E0.82507
G1 X108.762 Y110.324 E0.83599
G1 X108.567 Y109.860 E0.85176
G1 X108.377 Y109.568 E0.86268
G1 X108.029 Y109.200 E0.87857
G1 X107.606 Y108.914 E0.89458
G1 X107.132 Y108.725 E0.91059
G1 X106.632 Y108.643 E0.92648
G1 X106.283 Y108.649 E0.93740
G1 X105.790 Y108.748 E0.95317
G1 X105.467 Y108.877 E0.96409
G1 X105.037 Y109.146 E0.97998
G1 X104.676 Y109.501 E0.99587
G1 X104.610 Y109.595 E0.99945
M204 S1500
G1 X104.402 Y109.628 F7800.000
G92 E0
G1 E-2.00000 F2400.00000
G1 X96.212 Y110.606 F7800.000
G1 E0.00000 F2400.00000
M204 S1250
G1 F900.000
G1 X96.064 Y110.032 E0.01858
G1 X95.796 Y109.503 E0.03716
G1 X95.427 Y109.053 E0.05541
G1 X95.110 Y108.783 E0.06847
G1 X94.615 Y108.498 E0.08638
G1 X94.223 Y108.358 E0.09944
G1 X93.659 Y108.265 E0.11735
G1 X93.242 Y108.273 E0.13041
G1 X92.682 Y108.385 E0.14832
G1 X92.295 Y108.540 E0.16138
G1 X91.802 Y108.849 E0.17963
G1 X91.387 Y109.256 E0.19787
G1 X91.147 Y109.597 E0.21093
G1 X90.903 Y110.125 E0.22918
G1 X90.776 Y110.704 E0.24776
G1 X90.776 Y111.296 E0.26634
G1 X90.903 Y111.875 E0.28492
G1 X91.152 Y112.413 E0.30350
G1 X91.504 Y112.876 E0.32175
G1 X91.804 Y113.150 E0.33447
G1 X92.140 Y113.378 E0.34720
G1 X92.672 Y113.612 E0.36544
G1 X93.253 Y113.729 E0.38402
G1 X93.845 Y113.719 E0.40261
G1 X94.422 Y113.581 E0.42119
G1 X94.955 Y113.322 E0.43977
G1 X95.412 Y112.962 E0.45801
G1 X95.680 Y112.657 E0.47074
G1 X95.902 Y112.317 E0.48346
G1 X96.127 Y111.781 E0.50171
G1 X96.233 Y111.198 E0.52029
G1 X96.214 Y110.665 E0.53699
M204 S1500
G1 X95.837 Y110.679 F7800.000
M204 S1250
G1 F900.000
G1 X95.709 Y110.166 E0.55358
G1 X95.478 Y109.710 E0.56959
G1 X95.157 Y109.318 E0.58548
G1 X94.891 Y109.093 E0.59640
G1 X94.456 Y108.841 E0.61217
G1 X94.128 Y108.724 E0.62309
G1 X93.632 Y108.643 E0.63886
G1 X93.283 Y108.649 E0.64978
G1 X92.790 Y108.748 E0.66555
G1 X92.467 Y108.877 E0.67647
G1 X92.037 Y109.146 E0.69236
G1 X91.676 Y109.501 E0.70825
G1 X91.475 Y109.786 E0.71917
G1 X91.262 Y110.246 E0.73506
G1 X91.153 Y110.745 E0.75107
G1 X91.153 Y111.255 E0.76708
G1 X91.262 Y111.754 E0.78309
G1 X91.477 Y112.217 E0.79909
G1 X91.783 Y112.621 E0.81498
G1 X92.038 Y112.853 E0.82578
G1 X92.323 Y113.046 E0.83659
G1 X92.787 Y113.251 E0.85247
G1 X93.287 Y113.352 E0.86848
G1 X93.798 Y113.342 E0.88449
G1 X94.294 Y113.224 E0.90050
G1 X94.754 Y113.001 E0.91651
G1 X95.152 Y112.687 E0.93240
G1 X95.379 Y112.429 E0.94320
G1 X95.567 Y112.140 E0.95400
G1 X95.763 Y111.673 E0.96989
G1 X95.855 Y111.170 E0.98590
G1 X95.840 Y110.739 E0.99943
M204 S1500
G1 X96.144 Y110.422 F7800.000
G92 E0
G1 E-2.00000 F2400.00000
G1 X91.345 Y91.719 F7800.000
G1 E0.00000 F2400.00000
M204 S1250
G1 F900.000
G1 X91.922 Y91.581 E0.01858
G1 X92.445 Y91.327 E0.03683
G1 X92.782 Y91.081 E0.04989
G1 X93.182 Y90.659 E0.06813
G1 X93.482 Y90.160 E0.08638
G1 X93.629 Y89.770 E0.09944
G1 X93.731 Y89.208 E0.11735
G1 X93.731 Y88.802 E0.13007
G1 X93.673 Y88.401 E0.14280
G1 X93.487 Y87.849 E0.16105
G1 X93.182 Y87.341 E0.17963
G1 X92.774 Y86.911 E0.19821
G1 X92.284 Y86.579 E0.21679
G1 X91.733 Y86.359 E0.23537
G1 X91.159 Y86.265 E0.25361
G1 X90.742 Y86.273 E0.26668
G1 X90.172 Y86.388 E0.28492
G1 X89.630 Y86.627 E0.30350
G1 X89.160 Y86.970 E0.32175
G1 X88.874 Y87.273 E0.33481
G1 X88.556 Y87.760 E0.35305
G1 X88.347 Y88.315 E0.37163
G1 X88.263 Y88.890 E0.38988
G1 X88.278 Y89.307 E0.40294
G1 X88.403 Y89.875 E0.42119
G1 X88.652 Y90.413 E0.43977
G1 X89.004 Y90.876 E0.45801
G1 X89.311 Y91.157 E0.47107
G1 X89.795 Y91.460 E0.48898
G1 X90.182 Y91.615 E0.50204
G1 X90.753 Y91.729 E0.52029
G1 X91.285 Y91.720 E0.53699
M204 S1500
G1 X91.298 Y91.342 F7800.000
M204 S1250
G1 F900.000
G1 X91.794 Y91.224 E0.55300
G1 X92.250 Y91.003 E0.56889
G1 X92.531 Y90.797 E0.57981
G1 X92.880 Y90.429 E0.59570
G1 X93.141 Y89.995 E0.61159
G1 X93.264 Y89.669 E0.62251
G1 X93.354 Y89.174 E0.63828
G1 X93.354 Y88.830 E0.64908
G1 X93.305 Y88.489 E0.65988
G1 X93.143 Y88.009 E0.67577
G1 X92.880 Y87.571 E0.69178
G1 X92.529 Y87.200 E0.70778
G1 X92.106 Y86.914 E0.72379
G1 X91.632 Y86.725 E0.73980
G1 X91.132 Y86.643 E0.75569
G1 X90.783 Y86.649 E0.76661
G1 X90.287 Y86.749 E0.78250
G1 X89.819 Y86.955 E0.79851
G1 X89.410 Y87.254 E0.81440
G1 X89.171 Y87.507 E0.82532
G1 X88.894 Y87.932 E0.84121
G1 X88.714 Y88.409 E0.85722
G1 X88.641 Y88.911 E0.87311
G1 X88.653 Y89.259 E0.88403
G1 X88.762 Y89.754 E0.89992
G1 X88.977 Y90.217 E0.91593
G1 X89.283 Y90.621 E0.93182
G1 X89.541 Y90.856 E0.94274
G1 X89.967 Y91.123 E0.95851
G1 X90.290 Y91.252 E0.96943
G1 X90.787 Y91.352 E0.98532
G1 X91.238 Y91.343 E0.99944
M204 S1500
G1 X91.551 Y91.652 F7800.000
G92 E0
G1 E-2.00000 F2400.00000
G1 X111.380 Y94.964 F7800.000
G1 E0.00000 F2400.00000
M204 S1250
G1 F1800.000
G1 X115.998 Y94.964 E0.14481
G1 X116.269 Y94.993 E0.15335
G1 X116.478 Y95.063 E0.16025
G1 X116.667 Y95.175 E0.16716
G1 X116.841 Y95.337 E0.17461
G1 X116.919 Y95.441 E0.17869
G1 X116.982 Y95.556 E0.18277
G1 X117.057 Y95.781 E0.19022
G1 X117.086 Y96.052 E0.19876
G1 X117.086 Y103.966 E0.44689
G1 X117.042 Y104.291 E0.45719
G1 X116.928 Y104.543 E0.46587
G1 X116.779 Y104.729 E0.47332
G1 X116.607 Y104.867 E0.48023
G1 X116.410 Y104.965 E0.48714
G1 X116.180 Y105.024 E0.49459
G1 X110.233 Y105.036 E0.68104
G1 X109.683 Y109.878 E0.83383
G1 X109.409 Y109.917 E0.84250
G1 X109.236 Y109.505 E0.85649
G1 X108.972 Y109.099 E0.87169
G1 X108.520 Y108.622 E0.89229
G1 X107.961 Y108.244 E0.91345
G1 X107.335 Y107.994 E0.93460
G1 X106.686 Y107.888 E0.95520
G1 X106.201 Y107.896 E0.97040
G1 X105.575 Y108.022 E0.99045
G1 X105.124 Y108.202 E1.00565
G1 X104.567 Y108.551 E1.02625
G1 X104.099 Y109.011 E1.04686
G1 X103.819 Y109.408 E1.06206
G1 X103.543 Y110.004 E1.08266
G1 X103.398 Y110.663 E1.10381
G1 X103.398 Y111.337 E1.12496
G1 X103.543 Y111.996 E1.14612
G1 X103.827 Y112.608 E1.16727
G1 X104.224 Y113.132 E1.18787
G1 X104.569 Y113.447 E1.20252
G1 X105.065 Y113.783 E1.22130
G1 X104.987 Y114.036 E1.22960
G1 X94.985 Y114.036 E1.54321
G1 X94.921 Y113.758 E1.55216
G1 X95.156 Y113.644 E1.56035
G1 X95.672 Y113.237 E1.58095
G1 X95.981 Y112.886 E1.59560
G1 X96.236 Y112.495 E1.61025
G1 X96.491 Y111.889 E1.63086
G1 X96.612 Y111.225 E1.65201
G1 X96.587 Y110.551 E1.67316
G1 X96.419 Y109.898 E1.69431
G1 X96.113 Y109.296 E1.71547
G1 X95.697 Y108.788 E1.73607
G1 X95.328 Y108.474 E1.75127
G1 X94.774 Y108.154 E1.77132
G1 X94.317 Y107.991 E1.78652
G1 X93.686 Y107.888 E1.80657
G1 X93.201 Y107.896 E1.82177
G1 X92.575 Y108.022 E1.84182
G1 X92.124 Y108.202 E1.85702
G1 X91.567 Y108.551 E1.87762
G1 X91.099 Y109.011 E1.89823
G1 X90.819 Y109.408 E1.91343
G1 X90.585 Y109.915 E1.93096
G1 X90.316 Y109.872 E1.93948
G1 X89.767 Y105.036 E2.09208
G1 X83.984 Y105.036 E2.27338
G1 X83.803 Y105.023 E2.27909
G1 X83.537 Y104.946 E2.28777
G1 X83.333 Y104.825 E2.29522
G1 X83.159 Y104.663 E2.30267
G1 X83.018 Y104.444 E2.31081
G1 X82.943 Y104.219 E2.31826
G1 X82.914 Y103.948 E2.32680
G1 X82.914 Y96.034 E2.57493
G1 X82.927 Y95.853 E2.58064
G1 X83.010 Y95.571 E2.58986
G1 X83.072 Y95.457 E2.59394
G1 X83.221 Y95.271 E2.60139
G1 X83.393 Y95.133 E2.60830
G1 X83.590 Y95.035 E2.61520
G1 X83.820 Y94.976 E2.62265
G1 X88.620 Y94.964 E2.77315
G1 X88.158 Y90.821 E2.90388
G1 X88.411 Y90.719 E2.91243
G1 X88.724 Y91.132 E2.92866
G1 X89.082 Y91.459 E2.94387
G1 X89.624 Y91.798 E2.96392
G1 X90.075 Y91.978 E2.97912
G1 X90.719 Y92.107 E2.99972
G1 X91.393 Y92.095 E3.02087
G1 X92.049 Y91.938 E3.04202
G1 X92.641 Y91.651 E3.06262
G1 X93.032 Y91.365 E3.07783
G1 X93.484 Y90.888 E3.09843
G1 X93.822 Y90.325 E3.11903
G1 X93.994 Y89.871 E3.13423
G1 X94.109 Y89.242 E3.15428
G1 X94.109 Y88.775 E3.16893
G1 X94.041 Y88.313 E3.18358
G1 X93.831 Y87.690 E3.20419
G1 X93.484 Y87.112 E3.22534
G1 X93.020 Y86.622 E3.24649
G1 X92.424 Y86.218 E3.26907
G1 X92.502 Y85.965 E3.27737
G1 X107.466 Y85.973 E3.74658
G1 X107.547 Y86.220 E3.75472
G1 X106.910 Y86.686 E3.77948
G1 X106.576 Y87.038 E3.79468
G1 X106.227 Y87.574 E3.81473
G1 X106.040 Y88.021 E3.82993
G1 X105.898 Y88.663 E3.85053
G1 X105.898 Y89.337 E3.87169
G1 X106.043 Y89.996 E3.89284
G1 X106.327 Y90.608 E3.91399
G1 X106.724 Y91.132 E3.93459
G1 X107.082 Y91.459 E3.94979
G1 X107.624 Y91.798 E3.96984
G1 X108.075 Y91.978 E3.98504
G1 X108.719 Y92.107 E4.00565
G1 X109.393 Y92.095 E4.02680
G1 X110.049 Y91.938 E4.04795
G1 X110.641 Y91.651 E4.06855
G1 X111.032 Y91.365 E4.08375
G1 X111.484 Y90.888 E4.10435
G1 X111.567 Y90.750 E4.10940
G1 X111.840 Y90.843 E4.11844
G1 X111.386 Y94.905 E4.24658
M204 S1500
G92 E0
G1 E-2.00000 F2400.00000
G1 X109.922 Y91.581 F7800.000
G1 E0.00000 F2400.00000
M204 S1250
G1 F900.000
G1 X110.445 Y91.327 E0.01825
G1 X110.782 Y91.081 E0.03131
G1 X111.182 Y90.659 E0.04955
G1 X111.482 Y90.160 E0.06780
G1 X111.629 Y89.770 E0.08086
G1 X111.731 Y89.208 E0.09877
G1 X111.731 Y88.792 E0.11183
G1 X111.629 Y88.230 E0.12974
G1 X111.482 Y87.840 E0.14280
G1 X111.182 Y87.341 E0.16104
G1 X110.774 Y86.911 E0.17963
G1 X110.293 Y86.585 E0.19787
G1 X109.911 Y86.417 E0.21093
G1 X109.345 Y86.281 E0.22918
G1 X108.753 Y86.271 E0.24776
G1 X108.172 Y86.388 E0.26634
G1 X107.630 Y86.627 E0.28492
G1 X107.160 Y86.970 E0.30316
G1 X106.874 Y87.273 E0.31623
G1 X106.562 Y87.751 E0.33413
G1 X106.401 Y88.135 E0.34720
G1 X106.276 Y88.704 E0.36544
G1 X106.276 Y89.296 E0.38402
G1 X106.403 Y89.875 E0.40260
G1 X106.652 Y90.413 E0.42118
G1 X107.004 Y90.876 E0.43943
G1 X107.311 Y91.157 E0.45249
G1 X107.795 Y91.460 E0.47040
G1 X108.182 Y91.615 E0.48346
G1 X108.753 Y91.729 E0.50171
G1 X109.345 Y91.719 E0.52029
G1 X109.863 Y91.595 E0.53699
M204 S1500
G1 X109.776 Y91.228 F7800.000
M204 S1250
G1 F900.000
G1 X110.250 Y91.003 E0.55346
G1 X110.531 Y90.797 E0.56438
G1 X110.880 Y90.429 E0.58027
G1 X111.141 Y89.995 E0.59616
G1 X111.264 Y89.669 E0.60708
G1 X111.354 Y89.174 E0.62285
G1 X111.354 Y88.826 E0.63377
G1 X111.264 Y88.331 E0.64954
G1 X111.141 Y88.005 E0.66046
G1 X110.880 Y87.571 E0.67635
G1 X110.529 Y87.200 E0.69235
G1 X110.109 Y86.916 E0.70824
G1 X109.790 Y86.775 E0.71916
G1 X109.298 Y86.658 E0.73505
G1 X108.787 Y86.648 E0.75106
G1 X108.287 Y86.749 E0.76707
G1 X107.819 Y86.955 E0.78308
G1 X107.410 Y87.254 E0.79897
G1 X107.171 Y87.507 E0.80989
G1 X106.896 Y87.929 E0.82566
G1 X106.762 Y88.250 E0.83658
G1 X106.653 Y88.745 E0.85247
G1 X106.653 Y89.255 E0.86848
G1 X106.762 Y89.754 E0.88449
G1 X106.977 Y90.217 E0.90050
G1 X107.283 Y90.621 E0.91639
G1 X107.541 Y90.856 E0.92731
G1 X107.967 Y91.123 E0.94308
G1 X108.290 Y91.252 E0.95400
G1 X108.787 Y91.352 E0.96989
G1 X109.298 Y91.342 E0.98589
G1 X109.717 Y91.242 E0.99943
M204 S1500
G1 X110.088 Y91.477 F7800.000
G92 E0
G1 E-2.00000 F2400.00000
G1 X111.801 Y94.587 F7800.000
G1 E0.00000 F2400.00000
M204 S1250
G1 F1800.000
G1 X116.019 Y94.587 E0.13223
G1 X116.350 Y94.623 E0.14267
G1 X116.636 Y94.718 E0.15212
G1 X116.895 Y94.872 E0.16157
G1 X117.123 Y95.084 E0.17135
G1 X117.237 Y95.237 E0.17733
G1 X117.329 Y95.404 E0.18331
G1 X117.427 Y95.700 E0.19309
G1 X117.463 Y96.031 E0.20353
G1 X117.463 Y103.979 E0.45272
G1 X117.447 Y104.201 E0.45970
G1 X117.404 Y104.398 E0.46601
G1 X117.334 Y104.586 E0.47232
G1 X117.242 Y104.754 E0.47831
G1 X117.047 Y104.997 E0.48809
G1 X116.812 Y105.186 E0.49754
G1 X116.543 Y105.321 E0.50699
G1 X116.240 Y105.398 E0.51677
G1 X116.029 Y105.413 E0.52341
G1 X110.570 Y105.413 E0.69458
G1 X109.893 Y111.365 E0.88241
G1 X109.802 Y111.861 E0.89821
G1 X109.741 Y112.068 E0.90499
G1 X109.557 Y112.515 E0.92015
G1 X109.312 Y112.932 E0.93531
G1 X109.184 Y113.107 E0.94209
G1 X108.859 Y113.464 E0.95725
G1 X108.487 Y113.774 E0.97241
G1 X108.308 Y113.894 E0.97919
G1 X107.871 Y114.125 E0.99467
G1 X107.670 Y114.205 E1.00146
G1 X107.205 Y114.338 E1.01662
G1 X106.726 Y114.405 E1.03177
G1 X106.490 Y114.413 E1.03920
