; generated by Slic3r++ 2.2.50 on 2020-05-16 at 09:50:29 UTC

; 

; external perimeters extrusion width = 0.45mm
; perimeters extrusion width = 0.45mm
; infill extrusion width = 0.45mm
; solid infill extrusion width = 0.45mm
; top infill extrusion width = 0.40mm
; first layer extrusion width = 0.42mm

; object:{"name":"E3D_V6_Clamp","id":"E3D_V6_Clamp.STL id:0 copy 0","object_center":[100.325522,104.045863,100.325522],"boundingbox_center":[104.045863,6.080077,36.099998],"boundingbox_size":[12.175167,12.160153,0.000000]}
; object:{"name":"E3D_V6_Mount","id":"E3D_V6_Mount.STL id:1 copy 0","object_center":[97.741609,70.551907,97.741609],"boundingbox_center":[70.551907,15.035000,36.099998],"boundingbox_size":[29.999998,30.070000,0.000000]}

M201 X9000 Y9000 Z500 E10000 ; sets maximum accelerations, mm/sec^2
M203 X500 Y500 Z12 E120 ; sets maximum feedrates, mm/sec
M204 P1500 R1500 T1500 ; sets acceleration (P, T) and retract acceleration (R), mm/sec^2
M205 X10.00 Y10.00 Z0.20 E2.50 ; sets the jerk limits, mm/sec
M205 S0 T0 ; sets the minimum extruding and travel feed rate, mm/sec
M107
M190 S60 ; set bed temperature and wait for it to be reached
M104 S200 ; set temperature
G28 ; home all axes
G1 Z5 F5000 ; lift nozzle
M109 S200 ; set temperature and wait for it to be reached
G21 ; set units to millimeters
G90 ; use absolute coordinates
M82 ; use absolute distances for extrusion
G92 E0
; Filament gcode
G1 Z0.300 F7800.000
G1 E-2.00000 F2400.00000
G1 X80.399 Y53.742 F7800.000
G1 E0.00000 F2400.00000
G1 F1800.000
G1 X80.724 Y53.256 E0.02594
G1 X81.613 Y52.265 E0.08498
G1 X82.585 Y51.429 E0.14185
G1 X83.471 Y50.827 E0.18937
G1 X84.641 Y50.219 E0.24786
G1 X86.484 Y49.612 E0.33390
G1 X88.221 Y49.372 E0.41170
G1 X106.748 Y49.358 E1.23344
G1 X107.656 Y49.400 E1.27378
G1 X108.821 Y49.572 E1.32602
G1 X110.736 Y50.174 E1.41504
G1 X112.326 Y51.025 E1.49501
G1 X113.220 Y51.682 E1.54426
G1 X113.924 Y52.318 E1.58632
G1 X115.168 Y53.815 E1.67264
G1 X120.681 Y62.116 E2.11463
G1 X121.265 Y63.193 E2.16899
G1 X121.690 Y64.374 E2.22465
G1 X121.971 Y66.060 E2.30045
G1 X123.698 Y99.891 E3.80296
G1 X123.560 Y108.108 E4.16751
G1 X123.422 Y109.106 E4.21219
G1 X123.124 Y110.068 E4.25686
G1 X122.748 Y110.842 E4.29501
G1 X122.274 Y111.552 E4.33289
G1 X121.705 Y112.190 E4.37077
G1 X121.050 Y112.747 E4.40892
G1 X120.324 Y113.208 E4.44707
G1 X119.547 Y113.561 E4.48494
G1 X118.722 Y113.806 E4.52309
G1 X117.878 Y113.934 E4.56097
G1 X83.202 Y113.954 E6.09903
G1 X82.066 Y113.835 E6.14968
G1 X80.966 Y113.508 E6.20061
G1 X80.229 Y113.153 E6.23685
G1 X79.551 Y112.709 E6.27283
G1 X78.936 Y112.180 E6.30880
G1 X78.396 Y111.575 E6.34477
G1 X77.936 Y110.900 E6.38102
G1 X77.572 Y110.175 E6.41699
G1 X77.303 Y109.403 E6.45323
G1 X77.140 Y108.609 E6.48921
G1 X73.517 Y75.118 E7.98336
G1 X73.510 Y66.114 E8.38270
G1 X73.685 Y64.810 E8.44108
G1 X74.070 Y63.545 E8.49973
G1 X74.809 Y62.106 E8.57146
G1 X80.366 Y53.792 E9.01502
G92 E0
G1 E-2.00000 F2400.00000
G1 X78.832 Y108.755 F7800.000
G1 E0.00000 F2400.00000
G1 F1800.000
G1 X78.682 Y99.967 E0.21257
G1 X78.708 Y99.599 E0.22150
G1 X78.809 Y98.956 E0.23724
G1 X78.900 Y98.589 E0.24637
G1 X79.102 Y98.003 E0.26137
G1 X79.301 Y97.583 E0.27261
G1 X79.700 Y96.932 E0.29108
G1 X79.889 Y96.672 E0.29885
G1 X80.325 Y96.189 E0.31458
G1 X80.821 Y95.749 E0.33062
G1 X81.349 Y95.376 E0.34625
G1 X81.619 Y95.226 E0.35373
G1 X82.222 Y94.945 E0.36981
G1 X82.835 Y94.738 E0.38548
G1 X83.138 Y94.671 E0.39297
G1 X83.790 Y94.575 E0.40891
G1 X84.100 Y94.553 E0.41641
G1 X116.695 Y94.555 E1.20472
G1 X117.144 Y94.603 E1.21565
G1 X117.949 Y94.776 E1.23556
G1 X118.380 Y94.918 E1.24655
G1 X118.955 Y95.178 E1.26181
G1 X119.302 Y95.375 E1.27145
G1 X119.851 Y95.760 E1.28767
G1 X120.142 Y96.006 E1.29689
G1 X120.554 Y96.421 E1.31103
G1 X120.802 Y96.722 E1.32046
G1 X121.176 Y97.271 E1.33653
G1 X121.361 Y97.602 E1.34570
G1 X121.598 Y98.133 E1.35976
G1 X121.724 Y98.500 E1.36915
G1 X121.869 Y99.097 E1.38400
G1 X121.917 Y99.370 E1.39071
G1 X121.961 Y99.929 E1.40427
G1 X121.820 Y108.751 E1.61765
G1 X121.159 Y110.294 E1.65826
G1 X119.849 Y111.584 E1.70272
G1 X118.295 Y112.220 E1.74334
G1 X82.357 Y112.220 E2.61248
G1 X80.804 Y111.585 E2.65307
G1 X79.494 Y110.297 E2.69749
G1 X78.856 Y108.810 E2.73663
G1 X79.218 Y108.672 F7800.000
G1 F1800.000
G1 X79.070 Y99.977 E2.94695
G1 X79.093 Y99.642 E2.95506
G1 X79.189 Y99.033 E2.96998
G1 X79.272 Y98.700 E2.97828
G1 X79.515 Y98.036 E2.99539
G1 X79.719 Y97.638 E3.00621
G1 X80.033 Y97.133 E3.02059
G1 X80.198 Y96.906 E3.02736
G1 X80.593 Y96.470 E3.04158
G1 X81.068 Y96.048 E3.05695
G1 X81.550 Y95.708 E3.07121
G1 X81.795 Y95.571 E3.07801
G1 X82.373 Y95.302 E3.09342
G1 X82.933 Y95.113 E3.10772
G1 X83.208 Y95.053 E3.11453
G1 X83.832 Y94.961 E3.12979
G1 X84.114 Y94.941 E3.13661
G1 X116.785 Y94.954 E3.92678
G1 X117.225 Y95.014 E3.93750
G1 X117.772 Y95.135 E3.95105
G1 X118.392 Y95.345 E3.96688
G1 X118.808 Y95.539 E3.97799
G1 X119.103 Y95.709 E3.98623
G1 X119.614 Y96.068 E4.00133
G1 X119.879 Y96.291 E4.00971
G1 X120.266 Y96.681 E4.02299
G1 X120.491 Y96.955 E4.03157
G1 X120.846 Y97.475 E4.04679
G1 X121.014 Y97.776 E4.05513
G1 X121.237 Y98.275 E4.06834
G1 X121.351 Y98.609 E4.07688
G1 X121.489 Y99.176 E4.09100
G1 X121.532 Y99.425 E4.09710
G1 X121.573 Y99.935 E4.10948
G1 X121.434 Y108.668 E4.32072
G1 X120.832 Y110.072 E4.35764
G1 X119.631 Y111.254 E4.39841
G1 X118.218 Y111.833 E4.43533
G1 X82.433 Y111.833 E5.30078
G1 X81.021 Y111.255 E5.33768
G1 X79.820 Y110.074 E5.37841
G1 X79.242 Y108.727 E5.41386
G1 X79.605 Y108.589 F7800.000
G1 F1800.000
G1 X79.458 Y99.987 E5.62193
G1 X79.479 Y99.686 E5.62923
G1 X79.569 Y99.110 E5.64333
G1 X79.644 Y98.810 E5.65081
G1 X79.870 Y98.194 E5.66668
G1 X80.054 Y97.834 E5.67647
G1 X80.355 Y97.349 E5.69026
G1 X80.504 Y97.145 E5.69636
G1 X80.860 Y96.751 E5.70922
G1 X81.315 Y96.348 E5.72391
G1 X81.751 Y96.040 E5.73682
G1 X81.972 Y95.917 E5.74293
G1 X82.524 Y95.660 E5.75766
G1 X83.031 Y95.489 E5.77060
G1 X83.278 Y95.434 E5.77673
G1 X83.875 Y95.347 E5.79131
G1 X84.128 Y95.329 E5.79745
G1 X116.754 Y95.341 E6.58650
G1 X117.151 Y95.395 E6.59621
G1 X117.678 Y95.511 E6.60925
G1 X118.237 Y95.701 E6.62354
G1 X118.854 Y96.014 E6.64025
G1 X119.330 Y96.343 E6.65426
G1 X119.588 Y96.554 E6.66232
G1 X119.940 Y96.905 E6.67433
G1 X120.155 Y97.158 E6.68237
G1 X120.565 Y97.767 E6.70012
G1 X120.718 Y98.060 E6.70813
G1 X120.883 Y98.437 E6.71807
G1 X120.980 Y98.724 E6.72541
G1 X121.109 Y99.256 E6.73863
G1 X121.148 Y99.479 E6.74412
G1 X121.185 Y99.941 E6.75533
G1 X121.047 Y108.586 E6.96442
G1 X120.506 Y109.849 E6.99765
G1 X119.414 Y110.924 E7.03473
G1 X118.142 Y111.445 E7.06796
G1 X82.510 Y111.445 E7.92972
G1 X81.239 Y110.925 E7.96293
G1 X80.147 Y109.851 E7.99997
G1 X79.629 Y108.644 E8.03173
G1 X79.991 Y108.506 F7800.000
G1 F1800.000
G1 X79.847 Y100.062 E8.23598
G1 X79.878 Y99.631 E8.24643
G1 X79.971 Y99.101 E8.25944
G1 X80.162 Y98.501 E8.27468
G1 X80.308 Y98.176 E8.28329
G1 X80.677 Y97.566 E8.30053
G1 X80.972 Y97.192 E8.31204
G1 X81.561 Y96.647 E8.33146
G1 X81.952 Y96.372 E8.34301
G1 X82.675 Y96.017 E8.36249
G1 X83.128 Y95.865 E8.37406
G1 X83.917 Y95.733 E8.39340
G1 X84.142 Y95.716 E8.39886
G1 X116.722 Y95.728 E9.18680
G1 X117.078 Y95.776 E9.19549
G1 X117.584 Y95.888 E9.20802
G1 X118.083 Y96.057 E9.22078
G1 X118.651 Y96.344 E9.23617
G1 X119.099 Y96.654 E9.24933
G1 X119.329 Y96.843 E9.25654
G1 X119.656 Y97.169 E9.26771
G1 X119.849 Y97.396 E9.27490
G1 X120.229 Y97.961 E9.29138
G1 X120.366 Y98.224 E9.29855
G1 X120.545 Y98.647 E9.30965
G1 X120.732 Y99.348 E9.32719
G1 X120.797 Y99.947 E9.34177
G1 X120.660 Y108.503 E9.54873
G1 X120.180 Y109.626 E9.57827
G1 X119.196 Y110.594 E9.61165
G1 X118.066 Y111.057 E9.64119
G1 X82.586 Y111.057 E10.49926
G1 X81.456 Y110.595 E10.52878
G1 X80.473 Y109.628 E10.56213
G1 X80.015 Y108.561 E10.59020
G1 X80.378 Y108.423 F7800.000
G1 F1800.000
G1 X80.235 Y100.064 E10.79240
G1 X80.263 Y99.685 E10.80160
G1 X80.349 Y99.189 E10.81377
G1 X80.524 Y98.640 E10.82770
G1 X80.724 Y98.225 E10.83883
G1 X81.114 Y97.624 E10.85617
G1 X81.396 Y97.313 E10.86633
G1 X81.808 Y96.947 E10.87966
G1 X82.153 Y96.704 E10.88985
G1 X82.825 Y96.375 E10.90797
G1 X83.226 Y96.240 E10.91818
G1 X83.910 Y96.126 E10.93496
G1 X84.219 Y96.103 E10.94246
G1 X116.690 Y96.114 E11.72776
G1 X117.004 Y96.157 E11.73543
G1 X117.489 Y96.264 E11.74745
G1 X117.929 Y96.413 E11.75868
G1 X118.449 Y96.675 E11.77275
G1 X118.867 Y96.965 E11.78507
G1 X119.071 Y97.132 E11.79143
G1 X119.373 Y97.434 E11.80174
G1 X119.542 Y97.634 E11.80809
G1 X119.893 Y98.155 E11.82330
G1 X120.015 Y98.387 E11.82963
G1 X120.180 Y98.778 E11.83988
G1 X120.352 Y99.425 E11.85609
G1 X120.409 Y99.953 E11.86892
G1 X120.274 Y108.421 E12.07374
G1 X119.853 Y109.403 E12.09958
G1 X118.978 Y110.264 E12.12927
G1 X117.989 Y110.669 E12.15512
G1 X82.662 Y110.669 E13.00950
G1 X81.674 Y110.265 E13.03533
G1 X80.799 Y109.405 E13.06499
G1 X80.402 Y108.479 E13.08937
G1 X80.764 Y108.341 F7800.000
G1 F1800.000
G1 X80.623 Y100.066 E13.28951
G1 X80.647 Y99.738 E13.29746
G1 X80.727 Y99.277 E13.30879
G1 X80.886 Y98.780 E13.32142
G1 X81.059 Y98.421 E13.33103
G1 X81.420 Y97.864 E13.34711
G1 X81.664 Y97.593 E13.35591
G1 X82.055 Y97.246 E13.36856
G1 X82.354 Y97.036 E13.37739
G1 X82.976 Y96.732 E13.39415
G1 X83.323 Y96.616 E13.40300
G1 X83.959 Y96.510 E13.41859
G1 X84.226 Y96.491 E13.42507
G1 X116.659 Y96.501 E14.20944
G1 X116.931 Y96.538 E14.21608
G1 X117.395 Y96.640 E14.22758
G1 X117.775 Y96.769 E14.23728
G1 X118.246 Y97.006 E14.25004
G1 X118.812 Y97.421 E14.26701
G1 X119.236 Y97.871 E14.28196
G1 X119.558 Y98.350 E14.29591
G1 X119.815 Y98.909 E14.31079
G1 X119.972 Y99.503 E14.32565
G1 X120.021 Y99.959 E14.33673
G1 X119.887 Y108.338 E14.53942
G1 X119.527 Y109.180 E14.56157
G1 X118.761 Y109.934 E14.58757
G1 X117.913 Y110.281 E14.60972
G1 X82.738 Y110.281 E15.46041
G1 X81.891 Y109.935 E15.48255
G1 X81.125 Y109.182 E15.50852
G1 X80.788 Y108.396 E15.52921
G1 X81.151 Y108.258 F7800.000
G1 F1800.000
G1 X81.011 Y100.068 E15.72730
G1 X81.031 Y99.792 E15.73399
G1 X81.087 Y99.450 E15.74238
G1 X81.156 Y99.181 E15.74910
G1 X81.343 Y98.709 E15.76138
G1 X81.643 Y98.216 E15.77533
G1 X81.834 Y97.974 E15.78278
G1 X82.302 Y97.546 E15.79813
G1 X82.555 Y97.368 E15.80560
G1 X83.127 Y97.090 E15.82100
G1 X83.421 Y96.991 E15.82849
G1 X84.009 Y96.895 E15.84289
G1 X84.233 Y96.879 E15.84834
G1 X116.627 Y96.887 E16.63178
G1 X116.857 Y96.918 E16.63739
G1 X117.301 Y97.017 E16.64839
G1 X117.621 Y97.125 E16.65656
G1 X118.044 Y97.337 E16.66800
G1 X118.553 Y97.710 E16.68327
G1 X118.929 Y98.109 E16.69653
G1 X119.222 Y98.544 E16.70921
G1 X119.449 Y99.040 E16.72241
G1 X119.591 Y99.581 E16.73593
G1 X119.633 Y99.965 E16.74526
G1 X119.501 Y108.256 E16.94581
G1 X119.200 Y108.957 E16.96427
G1 X118.543 Y109.604 E16.98657
G1 X117.837 Y109.893 E17.00503
G1 X82.815 Y109.893 E17.85203
G1 X82.109 Y109.605 E17.87048
G1 X81.452 Y108.959 E17.89277
G1 X81.174 Y108.313 E17.90976
G1 X81.537 Y108.175 F7800.000
G1 F1800.000
G1 X81.399 Y100.070 E18.10580
G1 X81.468 Y99.521 E18.11920
G1 X81.524 Y99.302 E18.12466
G1 X81.688 Y98.887 E18.13545
G1 X81.965 Y98.433 E18.14831
G1 X82.121 Y98.235 E18.15440
G1 X82.549 Y97.845 E18.16840
G1 X82.756 Y97.700 E18.17452
G1 X83.278 Y97.447 E18.18855
G1 X83.519 Y97.367 E18.19468
G1 X84.240 Y97.267 E18.21231
G1 X116.595 Y97.274 E18.99480
G1 X117.207 Y97.393 E19.00988
G1 X117.467 Y97.481 E19.01651
G1 X117.842 Y97.668 E19.02664
G1 X118.295 Y97.999 E19.04021
G1 X118.623 Y98.347 E19.05178
G1 X118.886 Y98.739 E19.06319
G1 X119.084 Y99.172 E19.07471
G1 X119.211 Y99.659 E19.08689
G1 X119.245 Y99.970 E19.09447
G1 X119.114 Y108.173 E19.29287
G1 X118.874 Y108.734 E19.30764
G1 X118.325 Y109.274 E19.32625
G1 X117.760 Y109.506 E19.34102
G1 X82.891 Y109.506 E20.18433
G1 X82.326 Y109.275 E20.19909
G1 X81.778 Y108.736 E20.21769
G1 X81.561 Y108.230 E20.23099
G1 X81.924 Y108.092 F7800.000
G1 F1800.000
G1 X81.787 Y100.072 E20.42498
G1 X81.849 Y99.592 E20.43670
G1 X81.892 Y99.423 E20.44090
G1 X82.033 Y99.064 E20.45022
G1 X82.287 Y98.650 E20.46198
G1 X82.408 Y98.496 E20.46672
G1 X82.796 Y98.145 E20.47936
G1 X82.957 Y98.032 E20.48412
G1 X83.429 Y97.805 E20.49680
G1 X83.616 Y97.743 E20.50157
G1 X84.247 Y97.654 E20.51698
G1 X116.563 Y97.661 E21.29854
G1 X117.113 Y97.770 E21.31208
G1 X117.313 Y97.837 E21.31719
G1 X117.639 Y97.999 E21.32600
G1 X118.036 Y98.288 E21.33788
G1 X118.317 Y98.585 E21.34775
G1 X118.584 Y98.994 E21.35958
G1 X118.742 Y99.369 E21.36941
G1 X118.831 Y99.737 E21.37856
G1 X118.857 Y99.976 E21.38439
G1 X118.728 Y108.091 E21.58066
G1 X118.547 Y108.512 E21.59174
G1 X118.108 Y108.944 E21.60666
G1 X117.684 Y109.118 E21.61773
G1 X82.967 Y109.118 E22.45735
G1 X82.544 Y108.945 E22.46842
G1 X82.104 Y108.512 E22.48333
G1 X81.947 Y108.147 E22.49294
G1 X82.310 Y108.009 F7800.000
G1 F1800.000
G1 X82.183 Y99.954 E22.68779
G1 X82.238 Y99.628 E22.69576
G1 X82.334 Y99.337 E22.70318
G1 X82.398 Y99.205 E22.70673
G1 X82.642 Y98.821 E22.71773
G1 X83.042 Y98.444 E22.73103
G1 X83.157 Y98.364 E22.73443
G1 X83.580 Y98.162 E22.74575
G1 X83.714 Y98.118 E22.74916
G1 X84.254 Y98.042 E22.76236
G1 X116.490 Y98.045 E23.54196
G1 X116.636 Y98.061 E23.54554
G1 X117.158 Y98.193 E23.55856
G1 X117.437 Y98.330 E23.56605
G1 X117.777 Y98.577 E23.57623
G1 X118.010 Y98.823 E23.58442
G1 X118.240 Y99.173 E23.59456
G1 X118.371 Y99.484 E23.60270
G1 X118.451 Y99.814 E23.61093
G1 X118.469 Y99.982 E23.61502
G1 X118.341 Y108.008 E23.80915
G1 X118.221 Y108.289 E23.81653
G1 X117.890 Y108.614 E23.82776
G1 X117.608 Y108.730 E23.83514
G1 X83.044 Y108.730 E24.67107
G1 X82.761 Y108.615 E24.67845
G1 X82.430 Y108.289 E24.68966
G1 X82.334 Y108.064 E24.69559
G1 X82.979 Y108.284 F7800.000
G1 F1800.000
G1 X82.757 Y108.066 E24.70312
G1 X82.697 Y107.926 E24.70681
G1 X82.565 Y100.024 E24.89794
G1 X82.616 Y99.716 E24.90549
G1 X82.696 Y99.477 E24.91161
G1 X82.947 Y99.060 E24.92335
G1 X83.358 Y98.696 E24.93665
G1 X83.811 Y98.494 E24.94864
G1 X84.261 Y98.430 E24.95964
G1 X116.479 Y98.433 E25.73881
G1 X116.985 Y98.541 E25.75132
G1 X117.234 Y98.661 E25.75801
G1 X117.478 Y98.833 E25.76523
G1 X117.714 Y99.075 E25.77341
G1 X117.896 Y99.352 E25.78143
G1 X118.005 Y99.615 E25.78831
G1 X118.081 Y99.988 E25.79752
G1 X117.955 Y107.926 E25.98951
G1 X117.895 Y108.066 E25.99320
G1 X117.673 Y108.284 E26.00074
G1 X117.531 Y108.342 E26.00443
G1 X83.120 Y108.342 E26.83667
G1 X83.034 Y108.307 E26.83890
G1 X83.196 Y107.954 F7800.000
G1 F1800.000
G1 X83.083 Y107.843 E26.84274
G1 X82.952 Y100.061 E27.03098
G1 X82.993 Y99.804 E27.03727
G1 X83.058 Y99.616 E27.04209
G1 X83.252 Y99.300 E27.05106
G1 X83.559 Y99.028 E27.06098
G1 X83.909 Y98.869 E27.07026
G1 X84.268 Y98.818 E27.07905
G1 X116.468 Y98.821 E27.85780
G1 X116.850 Y98.905 E27.86725
G1 X117.032 Y98.992 E27.87212
G1 X117.260 Y99.155 E27.87891
G1 X117.397 Y99.299 E27.88371
G1 X117.552 Y99.531 E27.89047
G1 X117.630 Y99.713 E27.89525
G1 X117.691 Y99.970 E27.90163
G1 X117.568 Y107.843 E28.09207
G1 X117.455 Y107.954 E28.09591
G1 X83.256 Y107.954 E28.92300
G92 E0
G1 E-2.00000 F2400.00000
G1 X115.167 Y60.240 F7800.000
G1 E0.00000 F2400.00000
G1 F1800.000
G1 X115.362 Y60.282 E0.00483
G1 X116.239 Y60.569 E0.02714
G1 X116.656 Y60.757 E0.03820
G1 X117.455 Y61.226 E0.06060
G1 X117.822 Y61.498 E0.07166
G1 X118.474 Y62.099 E0.09310
G1 X118.729 Y62.381 E0.10231
G1 X119.129 Y62.910 E0.11834
G1 X119.297 Y63.169 E0.12580
G1 X119.615 Y63.746 E0.14174
G1 X119.768 Y64.095 E0.15094
G1 X120.049 Y64.930 E0.17226
G1 X120.147 Y65.373 E0.18324
G1 X120.251 Y66.417 E0.20860
G1 X120.251 Y74.630 E0.40725
G1 X120.209 Y75.308 E0.42366
G1 X120.167 Y75.604 E0.43090
G1 X120.038 Y76.206 E0.44578
G1 X119.953 Y76.499 E0.45315
G1 X119.739 Y77.078 E0.46809
G1 X119.613 Y77.356 E0.47546
G1 X119.300 Y77.934 E0.49136
G1 X119.090 Y78.251 E0.50057
G1 X118.539 Y78.939 E0.52188
G1 X118.219 Y79.261 E0.53287
G1 X117.502 Y79.845 E0.55524
G1 X117.118 Y80.094 E0.56630
G1 X116.292 Y80.513 E0.58870
G1 X115.864 Y80.675 E0.59976
G1 X115.006 Y80.898 E0.62119
G1 X114.631 Y80.961 E0.63040
G1 X114.046 Y81.005 E0.64458
G1 X112.817 Y81.012 E0.67430
G1 X112.639 Y82.584 E0.71257
G1 X112.430 Y83.683 E0.73964
G1 X112.210 Y84.393 E0.75761
