; generated by Slic3r++ 2.2.50 on 2020-06-12 at 08:49:40 UTC

; 

; external perimeters extrusion width = 0.45mm
; perimeters extrusion width = 0.45mm
; infill extrusion width = 0.45mm
; solid infill extrusion width = 0.45mm
; top infill extrusion width = 0.40mm
; first layer extrusion width = 0.42mm

; object:{"name":"Filament_Spool_Holder_2020b","id":"Filament_Spool_Holder_2020b.STL id:0 copy 0","object_center":[96.974272,90.031132,96.974272],"boundingbox_center":[90.031132,21.785355,41.000000],"boundingbox_size":[131.499985,43.570709,0.000000]}

M201 X9000 Y9000 Z500 E10000 ; sets maximum accelerations, mm/sec^2
M203 X500 Y500 Z12 E120 ; sets maximum feedrates, mm/sec
M204 P1500 R1500 T1500 ; sets acceleration (P, T) and retract acceleration (R), mm/sec^2
M205 X10.00 Y10.00 Z0.20 E2.50 ; sets the jerk limits, mm/sec
M205 S0 T0 ; sets the minimum extruding and travel feed rate, mm/sec
M107
M190 S60 ; set bed temperature and wait for it to be reached
M104 S205 ; set temperature
G28 ; home all axes
G1 Z5 F5000 ; lift nozzle
M109 S205 ; set temperature and wait for it to be reached
G21 ; set units to millimeters
G90 ; use absolute coordinates
M82 ; use absolute distances for extrusion
G92 E0
; Filament gcode
G1 Z0.200 F7800.000
G1 E-2.00000 F2400.00000
G1 X70.984 Y25.390 F7800.000
G1 E0.00000 F2400.00000
M204 S1250
G1 F1200.000
G1 X71.761 Y23.729 E0.05750
G1 X72.814 Y22.198 E0.11577
G1 X73.906 Y21.053 E0.16537
G1 X74.662 Y20.416 E0.19636
G1 X76.172 Y19.433 E0.25287
G1 X77.677 Y18.757 E0.30460
G1 X79.321 Y18.303 E0.35807
G1 X81.432 Y18.093 E0.42459
G1 X112.480 Y18.093 E1.39808
G1 X114.454 Y18.269 E1.46021
G1 X116.411 Y18.809 E1.52386
G1 X118.201 Y19.670 E1.58616
G1 X119.969 Y20.981 E1.65515
G1 X121.207 Y22.291 E1.71167
G1 X122.004 Y23.425 E1.75513
G1 X122.403 Y24.145 E1.78094
G1 X122.986 Y25.449 E1.82574
G1 X123.378 Y26.817 E1.87034
G1 X123.643 Y28.785 E1.93259
G1 X123.663 Y150.793 E5.75809
G1 X123.428 Y153.044 E5.82903
G1 X122.962 Y154.678 E5.88230
G1 X122.185 Y156.339 E5.93980
G1 X121.130 Y157.869 E5.99807
G1 X120.025 Y159.026 E6.04825
G1 X119.272 Y159.657 E6.07905
G1 X117.749 Y160.643 E6.13594
G1 X116.242 Y161.316 E6.18767
G1 X114.537 Y161.777 E6.24306
G1 X112.510 Y161.970 E6.30689
G1 X81.468 Y161.970 E7.28020
G1 X79.211 Y161.735 E7.35134
G1 X77.549 Y161.258 E7.40556
G1 X75.810 Y160.430 E7.46594
G1 X74.268 Y159.340 E7.52517
G1 X72.915 Y157.986 E7.58517
G1 X71.803 Y156.407 E7.64574
G1 X70.999 Y154.711 E7.70459
G1 X70.480 Y152.856 E7.76497
G1 X70.299 Y151.180 E7.81784
G1 X70.286 Y29.269 E11.64027
G1 X70.521 Y27.018 E11.71121
G1 X70.968 Y25.448 E11.76241
M204 S1500
; printing object Filament_Spool_Holder_2020b.STL id:0 copy 0
G92 E0
G1 E-2.00000 F2400.00000
G1 X85.887 Y136.368 F7800.000
G1 E0.00000 F2400.00000
M204 S1250
G1 F1200.000
G1 X108.061 Y136.368 E0.69526
G1 X108.061 Y132.755 E0.80853
G1 X108.039 Y132.505 E0.81641
G1 X107.968 Y132.238 E0.82509
G1 X107.851 Y131.986 E0.83378
G1 X107.692 Y131.760 E0.84247
G1 X107.496 Y131.564 E0.85115
G1 X107.269 Y131.405 E0.85984
G1 X107.018 Y131.288 E0.86853
G1 X106.750 Y131.216 E0.87721
G1 X106.500 Y131.194 E0.88509
G1 X98.887 Y131.194 E1.12378
G1 X98.887 Y131.694 E1.13946
G1 X95.061 Y131.694 E1.25942
G1 X95.061 Y131.194 E1.27509
G1 X87.449 Y131.194 E1.51379
G1 X87.198 Y131.216 E1.52167
G1 X86.931 Y131.288 E1.53035
G1 X86.680 Y131.405 E1.53904
G1 X86.453 Y131.564 E1.54772
G1 X86.257 Y131.760 E1.55641
G1 X86.098 Y131.986 E1.56510
G1 X85.981 Y132.238 E1.57378
G1 X85.909 Y132.505 E1.58247
G1 X85.887 Y132.755 E1.59035
G1 X85.887 Y136.308 E1.70174
M204 S1500
G1 X86.264 Y135.991 F7800.000
M204 S1250
G1 F1200.000
G1 X107.684 Y135.991 E2.37335
G1 X107.684 Y132.772 E2.47428
G1 X107.667 Y132.571 E2.48061
G1 X107.612 Y132.367 E2.48723
G1 X107.523 Y132.176 E2.49385
G1 X107.402 Y132.003 E2.50047
G1 X107.253 Y131.854 E2.50708
G1 X107.080 Y131.733 E2.51370
G1 X106.888 Y131.643 E2.52032
G1 X106.685 Y131.589 E2.52694
G1 X106.483 Y131.571 E2.53327
G1 X99.264 Y131.571 E2.75962
G1 X99.264 Y132.071 E2.77529
G1 X94.684 Y132.071 E2.91890
G1 X94.684 Y131.571 E2.93457
G1 X87.465 Y131.571 E3.16093
G1 X87.264 Y131.589 E3.16726
G1 X87.060 Y131.643 E3.17387
G1 X86.869 Y131.733 E3.18049
G1 X86.696 Y131.854 E3.18711
G1 X86.547 Y132.003 E3.19373
G1 X86.426 Y132.176 E3.20034
G1 X86.336 Y132.367 E3.20696
G1 X86.282 Y132.571 E3.21358
G1 X86.264 Y132.772 E3.21991
G1 X86.264 Y135.931 E3.31896
M204 S1500
G1 X86.264 Y136.391 F7800.000
G92 E0
G1 E-2.00000 F2400.00000
G1 X80.774 Y136.810 F7800.000
G1 E0.00000 F2400.00000
M204 S1250
G1 F1200.000
G1 X81.516 Y136.745 E0.02336
G1 X112.432 Y136.745 E0.99271
G1 X113.174 Y136.810 E1.01607
G1 X113.853 Y136.992 E1.03811
G1 X114.490 Y137.289 E1.06014
G1 X115.066 Y137.692 E1.08218
G1 X115.563 Y138.189 E1.10422
G1 X115.966 Y138.765 E1.12626
G1 X116.263 Y139.402 E1.14829
G1 X116.445 Y140.081 E1.17033
G1 X116.510 Y140.823 E1.19369
G1 X116.510 Y150.739 E1.50460
G1 X116.445 Y151.481 E1.52796
G1 X116.263 Y152.160 E1.55000
G1 X115.966 Y152.797 E1.57203
G1 X115.563 Y153.373 E1.59407
G1 X115.066 Y153.870 E1.61611
G1 X114.490 Y154.273 E1.63815
G1 X113.853 Y154.570 E1.66018
G1 X113.174 Y154.752 E1.68222
G1 X112.432 Y154.817 E1.70558
G1 X81.516 Y154.817 E2.67493
G1 X80.774 Y154.752 E2.69829
G1 X80.095 Y154.570 E2.72033
G1 X79.458 Y154.273 E2.74236
G1 X78.882 Y153.870 E2.76440
G1 X78.385 Y153.373 E2.78644
G1 X77.982 Y152.797 E2.80848
G1 X77.685 Y152.160 E2.83051
G1 X77.503 Y151.481 E2.85255
G1 X77.438 Y150.739 E2.87591
G1 X77.438 Y140.823 E3.18682
G1 X77.503 Y140.081 E3.21018
G1 X77.685 Y139.402 E3.23222
G1 X77.982 Y138.765 E3.25425
G1 X78.385 Y138.189 E3.27629
G1 X78.882 Y137.692 E3.29833
G1 X79.458 Y137.289 E3.32037
G1 X80.095 Y136.992 E3.34240
G1 X80.716 Y136.826 E3.36256
M204 S1500
G92 E0
G1 E-2.00000 F2400.00000
G1 X86.646 Y130.245 F7800.000
G1 E0.00000 F2400.00000
M204 S1250
G1 F1200.000
G1 X93.002 Y130.245 E0.19927
G1 X93.740 Y129.768 E0.22684
G1 X94.683 Y129.251 E0.26055
G1 X95.516 Y128.906 E0.28884
G1 X96.139 Y128.745 E0.30899
G1 X97.816 Y128.745 E0.36160
G1 X98.296 Y128.862 E0.37707
G1 X99.040 Y129.147 E0.40205
G1 X99.787 Y129.524 E0.42829
G1 X100.959 Y130.245 E0.47143
G1 X107.302 Y130.245 E0.67033
G1 X107.302 Y43.317 E3.39591
G1 X86.646 Y43.317 E4.04357
G1 X86.646 Y130.185 E6.76726
M204 S1500
G1 X87.023 Y129.868 F7800.000
M204 S1250
G1 F1200.000
G1 X92.890 Y129.868 E6.95122
G1 X93.546 Y129.444 E6.97573
G1 X94.520 Y128.910 E7.01052
G1 X95.396 Y128.547 E7.04027
G1 X96.091 Y128.368 E7.06276
G1 X97.862 Y128.368 E7.11828
G1 X98.408 Y128.501 E7.13593
G1 X99.192 Y128.801 E7.16222
G1 X99.972 Y129.196 E7.18964
G1 X101.066 Y129.868 E7.22989
G1 X106.925 Y129.868 E7.41362
G1 X106.925 Y43.694 E10.11555
G1 X87.023 Y43.694 E10.73957
G1 X87.023 Y129.808 E13.43962
M204 S1500
G1 X87.400 Y129.491 F7800.000
M204 S1250
G1 F1200.000
G1 X92.779 Y129.491 E13.60826
G1 X93.353 Y129.120 E13.62970
G1 X94.356 Y128.570 E13.66557
G1 X95.277 Y128.189 E13.69680
G1 X96.043 Y127.991 E13.72162
G1 X97.907 Y127.991 E13.78006
G1 X98.521 Y128.141 E13.79987
G1 X99.343 Y128.455 E13.82748
G1 X99.718 Y128.641 E13.84059
G1 X100.157 Y128.867 E13.85608
G1 X101.172 Y129.491 E13.89344
G1 X106.548 Y129.491 E14.06200
G1 X106.548 Y44.071 E16.74029
G1 X87.400 Y44.071 E17.34065
G1 X87.400 Y129.431 E20.01706
M204 S1500
G1 X87.400 Y129.891 F7800.000
G92 E0
G1 E-2.00000 F2400.00000
G1 X108.510 Y43.317 F7800.000
G1 E0.00000 F2400.00000
M204 S1250
G1 F1200.000
G1 X108.510 Y131.834 E2.77539
G1 X108.260 Y131.913 E2.78363
G1 X107.982 Y131.516 E2.79882
G1 X107.739 Y131.274 E2.80957
G1 X107.458 Y131.077 E2.82033
G1 X107.147 Y130.932 E2.83108
G1 X106.816 Y130.843 E2.84184
G1 X106.516 Y130.817 E2.85127
G1 X98.510 Y130.817 E3.10230
G1 X98.510 Y131.317 E3.11798
G1 X95.438 Y131.317 E3.21429
G1 X95.438 Y130.817 E3.22996
G1 X87.432 Y130.817 E3.48099
G1 X87.133 Y130.843 E3.49042
G1 X86.801 Y130.932 E3.50118
G1 X86.490 Y131.077 E3.51193
G1 X86.209 Y131.274 E3.52269
G1 X85.967 Y131.516 E3.53344
G1 X85.689 Y131.913 E3.54863
G1 X85.438 Y131.834 E3.55687
G1 X85.438 Y43.317 E6.33226
G1 X81.516 Y43.317 E6.45524
G1 X80.774 Y43.252 E6.47860
G1 X80.095 Y43.070 E6.50064
G1 X79.458 Y42.773 E6.52267
G1 X78.882 Y42.370 E6.54471
G1 X78.385 Y41.873 E6.56675
G1 X77.982 Y41.297 E6.58879
G1 X77.685 Y40.660 E6.61082
G1 X77.503 Y39.981 E6.63286
G1 X77.438 Y39.239 E6.65622
G1 X77.438 Y29.323 E6.96713
G1 X77.503 Y28.581 E6.99049
G1 X77.685 Y27.902 E7.01253
G1 X77.982 Y27.265 E7.03456
G1 X78.385 Y26.689 E7.05660
G1 X78.882 Y26.192 E7.07864
G1 X79.458 Y25.789 E7.10068
G1 X80.095 Y25.492 E7.12271
G1 X80.774 Y25.310 E7.14475
G1 X81.516 Y25.245 E7.16811
G1 X112.432 Y25.245 E8.13746
G1 X113.174 Y25.310 E8.16082
G1 X113.853 Y25.492 E8.18286
G1 X114.490 Y25.789 E8.20489
G1 X115.066 Y26.192 E8.22693
G1 X115.563 Y26.689 E8.24897
G1 X115.966 Y27.265 E8.27101
G1 X116.263 Y27.902 E8.29304
G1 X116.445 Y28.581 E8.31508
G1 X116.510 Y29.323 E8.33844
G1 X116.510 Y39.239 E8.64935
G1 X116.445 Y39.981 E8.67271
G1 X116.263 Y40.660 E8.69475
G1 X115.966 Y41.297 E8.71678
G1 X115.563 Y41.873 E8.73882
G1 X115.066 Y42.370 E8.76086
G1 X114.490 Y42.773 E8.78290
G1 X113.853 Y43.070 E8.80493
G1 X113.174 Y43.252 E8.82697
G1 X112.432 Y43.317 E8.85033
G1 X108.570 Y43.317 E8.97143
M204 S1500
G1 X108.887 Y43.694 F7800.000
M204 S1250
G1 F1200.000
G1 X108.887 Y136.368 E11.87716
G1 X112.449 Y136.368 E11.98883
G1 X113.240 Y136.437 E12.01374
G1 X113.983 Y136.636 E12.03784
G1 X114.680 Y136.961 E12.06195
G1 X115.309 Y137.402 E12.08606
G1 X115.853 Y137.946 E12.11016
G1 X116.294 Y138.576 E12.13427
G1 X116.619 Y139.273 E12.15838
G1 X116.818 Y140.015 E12.18248
G1 X116.887 Y140.807 E12.20739
G1 X116.887 Y150.755 E12.51933
G1 X116.818 Y151.547 E12.54424
G1 X116.619 Y152.290 E12.56835
G1 X116.294 Y152.986 E12.59246
G1 X115.853 Y153.616 E12.61656
G1 X115.309 Y154.160 E12.64067
G1 X114.680 Y154.601 E12.66477
G1 X113.983 Y154.926 E12.68888
G1 X113.240 Y155.125 E12.71299
G1 X112.449 Y155.194 E12.73790
G1 X81.500 Y155.194 E13.70828
G1 X80.708 Y155.125 E13.73319
G1 X79.966 Y154.926 E13.75729
G1 X79.269 Y154.601 E13.78140
G1 X78.639 Y154.160 E13.80551
G1 X78.095 Y153.616 E13.82961
G1 X77.655 Y152.986 E13.85372
G1 X77.330 Y152.290 E13.87783
G1 X77.131 Y151.547 E13.90193
G1 X77.061 Y150.755 E13.92684
G1 X77.061 Y140.807 E14.23878
G1 X77.131 Y140.015 E14.26369
G1 X77.330 Y139.273 E14.28780
G1 X77.655 Y138.576 E14.31191
G1 X78.095 Y137.946 E14.33601
G1 X78.639 Y137.402 E14.36012
G1 X79.269 Y136.961 E14.38422
G1 X79.966 Y136.636 E14.40833
G1 X80.708 Y136.437 E14.43244
G1 X81.500 Y136.368 E14.45735
G1 X85.061 Y136.368 E14.56902
G1 X85.061 Y43.694 E17.47475
G1 X81.500 Y43.694 E17.58642
G1 X80.708 Y43.625 E17.61133
G1 X79.966 Y43.426 E17.63543
G1 X79.269 Y43.101 E17.65954
G1 X78.639 Y42.660 E17.68365
G1 X78.095 Y42.116 E17.70775
G1 X77.655 Y41.486 E17.73186
G1 X77.330 Y40.790 E17.75597
G1 X77.131 Y40.047 E17.78007
G1 X77.061 Y39.255 E17.80499
G1 X77.061 Y29.307 E18.11692
G1 X77.131 Y28.515 E18.14183
G1 X77.330 Y27.773 E18.16594
G1 X77.655 Y27.076 E18.19005
G1 X78.095 Y26.446 E18.21415
G1 X78.639 Y25.902 E18.23826
G1 X79.269 Y25.461 E18.26236
G1 X79.966 Y25.136 E18.28647
G1 X80.708 Y24.937 E18.31058
G1 X81.500 Y24.868 E18.33549
G1 X112.449 Y24.868 E19.30587
G1 X113.240 Y24.937 E19.33078
G1 X113.983 Y25.136 E19.35488
G1 X114.680 Y25.461 E19.37899
G1 X115.309 Y25.902 E19.40310
G1 X115.853 Y26.446 E19.42720
G1 X116.294 Y27.076 E19.45131
G1 X116.619 Y27.773 E19.47542
G1 X116.818 Y28.515 E19.49952
G1 X116.887 Y29.307 E19.52444
G1 X116.887 Y39.255 E19.83637
G1 X116.818 Y40.047 E19.86128
G1 X116.619 Y40.790 E19.88539
G1 X116.294 Y41.486 E19.90950
G1 X115.853 Y42.116 E19.93360
G1 X115.309 Y42.660 E19.95771
G1 X114.680 Y43.101 E19.98181
G1 X113.983 Y43.426 E20.00592
G1 X113.240 Y43.625 E20.03003
G1 X112.449 Y43.694 E20.05494
G1 X108.947 Y43.694 E20.16473
M204 S1500
G1 X109.264 Y44.071 F7800.000
M204 S1250
G1 F1200.000
G1 X109.264 Y135.991 E23.04681
G1 X112.465 Y135.991 E23.14717
G1 X113.306 Y136.065 E23.17364
G1 X114.112 Y136.281 E23.19981
G1 X114.869 Y136.634 E23.22599
G1 X115.553 Y137.112 E23.25216
G1 X116.143 Y137.703 E23.27834
G1 X116.622 Y138.387 E23.30451
G1 X116.975 Y139.143 E23.33069
G1 X117.191 Y139.949 E23.35686
G1 X117.264 Y140.790 E23.38332
G1 X117.264 Y150.772 E23.69629
G1 X117.191 Y151.613 E23.72276
G1 X116.975 Y152.419 E23.74893
G1 X116.622 Y153.176 E23.77511
G1 X116.143 Y153.860 E23.80128
G1 X115.553 Y154.450 E23.82746
G1 X114.869 Y154.929 E23.85363
G1 X114.112 Y155.282 E23.87981
G1 X113.306 Y155.498 E23.90598
G1 X112.465 Y155.571 E23.93244
G1 X81.483 Y155.571 E24.90385
G1 X80.643 Y155.498 E24.93032
G1 X79.836 Y155.282 E24.95649
G1 X79.080 Y154.929 E24.98267
G1 X78.396 Y154.450 E25.00884
G1 X77.806 Y153.860 E25.03502
G1 X77.327 Y153.176 E25.06119
G1 X76.974 Y152.419 E25.08737
G1 X76.758 Y151.613 E25.11354
G1 X76.684 Y150.772 E25.14000
G1 X76.684 Y140.790 E25.45297
G1 X76.758 Y139.949 E25.47944
G1 X76.974 Y139.143 E25.50561
G1 X77.327 Y138.387 E25.53179
G1 X77.806 Y137.703 E25.55796
G1 X78.396 Y137.112 E25.58414
G1 X79.080 Y136.634 E25.61031
G1 X79.836 Y136.281 E25.63649
G1 X80.643 Y136.065 E25.66266
G1 X81.483 Y135.991 E25.68912
G1 X84.684 Y135.991 E25.78948
G1 X84.684 Y44.071 E28.67157
G1 X81.483 Y44.071 E28.77193
G1 X80.643 Y43.998 E28.79839
G1 X79.836 Y43.782 E28.82457
G1 X79.080 Y43.429 E28.85074
G1 X78.396 Y42.950 E28.87692
G1 X77.806 Y42.360 E28.90309
G1 X77.327 Y41.676 E28.92927
G1 X76.974 Y40.919 E28.95544
G1 X76.758 Y40.113 E28.98162
G1 X76.684 Y39.272 E29.00808
G1 X76.684 Y29.290 E29.32105
G1 X76.758 Y28.449 E29.34751
G1 X76.974 Y27.643 E29.37369
G1 X77.327 Y26.887 E29.39986
G1 X77.806 Y26.203 E29.42604
G1 X78.396 Y25.612 E29.45221
G1 X79.080 Y25.134 E29.47839
G1 X79.836 Y24.781 E29.50456
G1 X80.643 Y24.565 E29.53074
G1 X81.483 Y24.491 E29.55720
G1 X112.465 Y24.491 E30.52861
G1 X113.306 Y24.565 E30.55507
G1 X114.112 Y24.781 E30.58125
G1 X114.869 Y25.134 E30.60742
G1 X115.553 Y25.612 E30.63360
G1 X116.143 Y26.203 E30.65977
G1 X116.622 Y26.887 E30.68595
G1 X116.975 Y27.643 E30.71212
G1 X117.191 Y28.449 E30.73830
G1 X117.264 Y29.290 E30.76476
G1 X117.264 Y39.272 E31.07773
G1 X117.191 Y40.113 E31.10419
G1 X116.975 Y40.919 E31.13037
G1 X116.622 Y41.676 E31.15654
G1 X116.143 Y42.360 E31.18272
G1 X115.553 Y42.950 E31.20889
G1 X114.869 Y43.429 E31.23507
G1 X114.112 Y43.782 E31.26124
G1 X113.306 Y43.998 E31.28742
G1 X112.465 Y44.071 E31.31388
G1 X109.324 Y44.071 E31.41236
M204 S1500
G1 X108.864 Y44.071 F7800.000
G92 E0
G1 E-2.00000 F2400.00000
G1 X115.931 Y27.457 F7800.000
G1 E0.00000 F2400.00000
M204 S1250
G1 F1200.000
G1 X114.883 Y26.410 E0.04390
G1 X114.654 Y26.282 E0.05168
M204 S1500
G1 X113.679 Y25.738 F7800.000
M204 S1250
G1 F1200.000
G1 X116.017 Y28.077 E0.14968
G1 X116.166 Y28.630 E0.16666
G1 X116.178 Y28.771 E0.17084
G1 X112.985 Y25.577 E0.30464
G1 X112.402 Y25.528 E0.32197
G1 X116.227 Y29.353 E0.48226
G1 X116.227 Y29.887 E0.49806
G1 X111.869 Y25.528 E0.68070
G1 X111.336 Y25.528 E0.69651
G1 X116.227 Y30.420 E0.90149
G1 X116.227 Y30.953 E0.91729
G1 X110.802 Y25.528 E1.14462
G1 X110.269 Y25.528 E1.16043
G1 X116.227 Y31.486 E1.41010
G1 X116.227 Y32.020 E1.42591
G1 X109.736 Y25.528 E1.69793
G1 X109.202 Y25.528 E1.71373
G1 X116.227 Y32.553 E2.00810
G1 X116.227 Y33.086 E2.02390
G1 X108.669 Y25.528 E2.34062
G1 X108.136 Y25.528 E2.35642
G1 X116.227 Y33.620 E2.69548
G1 X116.227 Y34.153 E2.71129
G1 X107.603 Y25.528 E3.07270
G1 X107.069 Y25.528 E3.08850
G1 X116.227 Y34.686 E3.47225
G1 X116.227 Y35.219 E3.48805
G1 X106.536 Y25.528 E3.89415
G1 X106.003 Y25.528 E3.90996
G1 X116.227 Y35.753 E4.33840
G1 X116.227 Y36.286 E4.35421
G1 X105.470 Y25.528 E4.80500
G1 X104.936 Y25.528 E4.82080
G1 X116.227 Y36.819 E5.29394
G1 X116.227 Y37.352 E5.30974
G1 X104.403 Y25.528 E5.80523
G1 X103.870 Y25.528 E5.82103
G1 X116.227 Y37.886 E6.33886
G1 X116.227 Y38.419 E6.35466
G1 X103.336 Y25.528 E6.89484
G1 X102.803 Y25.528 E6.91064
G1 X116.227 Y38.952 E7.47317
G1 X116.207 Y39.465 E7.48836
G1 X102.270 Y25.528 E8.07236
G1 X101.737 Y25.528 E8.08816
G1 X116.160 Y39.952 E8.69257
G1 X116.048 Y40.372 E8.70548
G1 X101.203 Y25.528 E9.32751
