; generated by Slic3r++ 2.2.50 on 2020-06-12 at 08:27:56 UTC

; 

; external perimeters extrusion width = 0.45mm
; perimeters extrusion width = 0.45mm
; infill extrusion width = 0.45mm
; solid infill extrusion width = 0.45mm
; top infill extrusion width = 0.40mm
; first layer extrusion width = 0.42mm

; object:{"name":"Filament_Spool_Holder_2020a","id":"Filament_Spool_Holder_2020a.STL id:0 copy 0","object_center":[105.404833,76.169585,105.404833],"boundingbox_center":[76.169585,21.785355,121.500000],"boundingbox_size":[28.000000,43.570709,0.000000]}

M201 X9000 Y9000 Z500 E10000 ; sets maximum accelerations, mm/sec^2
M203 X500 Y500 Z12 E120 ; sets maximum feedrates, mm/sec
M204 P1500 R1500 T1500 ; sets acceleration (P, T) and retract acceleration (R), mm/sec^2
M205 X10.00 Y10.00 Z0.20 E2.50 ; sets the jerk limits, mm/sec
M205 S0 T0 ; sets the minimum extruding and travel feed rate, mm/sec
M107
M190 S60 ; set bed temperature and wait for it to be reached
M104 S205 ; set temperature
G28 ; home all axes
G1 Z5 F5000 ; lift nozzle
M109 S205 ; set temperature and wait for it to be reached
G21 ; set units to millimeters
G90 ; use absolute coordinates
M82 ; use absolute distances for extrusion
G92 E0
; Filament gcode
G1 Z0.200 F7800.000
G1 E-2.00000 F2400.00000
G1 X41.421 Y58.393 F7800.000
G1 E0.00000 F2400.00000
M204 S1250
G1 F1200.000
G1 X42.234 Y57.974 E0.02869
G1 X43.094 Y57.681 E0.05718
G1 X44.644 Y57.481 E0.10619
G1 X164.261 Y57.481 E3.85668
G1 X165.434 Y57.594 E3.89362
G1 X166.564 Y57.928 E3.93057
G1 X167.615 Y58.473 E3.96770
G1 X168.539 Y59.204 E4.00464
G1 X169.311 Y60.102 E4.04178
G1 X169.896 Y61.125 E4.07872
G1 X170.277 Y62.246 E4.11585
G1 X170.438 Y63.413 E4.15280
G1 X170.443 Y88.682 E4.94507
G1 X170.377 Y89.576 E4.97318
G1 X170.180 Y90.457 E5.00148
G1 X169.857 Y91.300 E5.02978
G1 X169.411 Y92.092 E5.05828
G1 X168.858 Y92.805 E5.08658
G1 X168.208 Y93.431 E5.11488
G1 X167.473 Y93.955 E5.14318
G1 X166.670 Y94.367 E5.17149
G1 X165.815 Y94.658 E5.19979
G1 X164.265 Y94.858 E5.24879
G1 X44.440 Y94.854 E9.00584
G1 X43.458 Y94.741 E9.03683
G1 X42.506 Y94.473 E9.06782
G1 X41.610 Y94.057 E9.09881
G1 X40.786 Y93.500 E9.13000
G1 X40.062 Y92.818 E9.16118
G1 X39.460 Y92.034 E9.19217
G1 X38.991 Y91.164 E9.22316
G1 X38.666 Y90.230 E9.25416
G1 X38.466 Y88.705 E9.30240
G1 X38.466 Y63.657 E10.08774
G1 X38.523 Y62.836 E10.11354
G1 X38.711 Y61.947 E10.14204
G1 X39.030 Y61.090 E10.17072
G1 X39.472 Y60.289 E10.19941
G1 X40.027 Y59.561 E10.22809
G1 X40.683 Y58.924 E10.25678
G1 X41.372 Y58.428 E10.28339
M204 S1500
; printing object Filament_Spool_Holder_2020a.STL id:0 copy 0
G92 E0
G1 E-2.00000 F2400.00000
G1 X45.619 Y64.634 F7800.000
G1 E0.00000 F2400.00000
M204 S1250
G1 F1200.000
G1 X147.208 Y64.634 E3.18525
G1 X147.287 Y64.884 E3.19348
G1 X146.890 Y65.162 E3.20867
G1 X146.647 Y65.405 E3.21943
G1 X146.451 Y65.686 E3.23018
G1 X146.306 Y65.997 E3.24094
G1 X146.217 Y66.328 E3.25169
G1 X146.191 Y66.627 E3.26112
G1 X146.191 Y74.634 E3.51215
G1 X146.691 Y74.634 E3.52783
G1 X146.691 Y77.705 E3.62414
G1 X146.191 Y77.705 E3.63982
G1 X146.191 Y85.712 E3.89085
G1 X146.217 Y86.011 E3.90028
G1 X146.306 Y86.343 E3.91103
G1 X146.451 Y86.653 E3.92179
G1 X146.647 Y86.934 E3.93254
G1 X146.890 Y87.177 E3.94330
G1 X147.287 Y87.455 E3.95849
G1 X147.208 Y87.705 E3.96673
G1 X45.619 Y87.705 E7.15197
G1 X45.619 Y86.498 E7.18984
G1 X145.619 Y86.498 E10.32527
G1 X145.619 Y80.145 E10.52446
G1 X145.095 Y79.327 E10.55491
G1 X144.609 Y78.430 E10.58690
G1 X144.280 Y77.629 E10.61406
G1 X144.119 Y77.005 E10.63425
G1 X144.119 Y75.327 E10.68686
G1 X144.235 Y74.850 E10.70227
G1 X144.547 Y74.043 E10.72938
G1 X144.916 Y73.324 E10.75472
G1 X145.619 Y72.186 E10.79667
G1 X145.619 Y65.841 E10.99559
G1 X45.619 Y65.841 E14.13102
G1 X45.619 Y64.694 E14.16701
M204 S1500
G92 E0
G1 E-2.00000 F2400.00000
G1 X155.619 Y64.694 F7800.000
G1 E0.00000 F2400.00000
M204 S1250
G1 F900.000
G1 X155.619 Y64.634 E0.00188
G1 X158.691 Y64.634 E0.09819
G1 X158.691 Y65.305 E0.11925
G1 X155.619 Y65.305 E0.21556
G1 X155.619 Y64.754 E0.23286
M204 S1500
G92 E0
G1 E-2.00000 F2400.00000
G1 X155.619 Y87.034 F7800.000
G1 E0.00000 F2400.00000
M204 S1250
G1 F900.000
G1 X158.691 Y87.034 E0.09631
G1 X158.691 Y87.705 E0.11737
G1 X155.619 Y87.705 E0.21368
G1 X155.619 Y87.094 E0.23286
M204 S1500
G1 X155.242 Y87.094 F7800.000
M204 S1250
G1 F1200.000
G1 X155.242 Y86.657 E0.24656
G1 X159.068 Y86.657 E0.36652
G1 X159.068 Y87.257 E0.38533
G1 X163.668 Y87.257 E0.52956
G1 X163.668 Y88.083 E0.55546
G1 X45.242 Y88.083 E4.26862
G1 X45.242 Y86.121 E4.33013
G1 X145.242 Y86.121 E7.46556
G1 X145.242 Y80.255 E7.64947
G1 X144.770 Y79.519 E7.67689
G1 X144.268 Y78.592 E7.70994
G1 X143.921 Y77.748 E7.73854
G1 X143.742 Y77.053 E7.76105
G1 X143.742 Y75.282 E7.81658
G1 X143.875 Y74.737 E7.83418
G1 X144.202 Y73.890 E7.86263
G1 X144.349 Y73.599 E7.87285
G1 X144.588 Y73.138 E7.88914
G1 X145.242 Y72.079 E7.92817
G1 X145.242 Y66.219 E8.11192
G1 X45.242 Y66.219 E11.24734
G1 X45.242 Y64.257 E11.30886
G1 X163.668 Y64.257 E15.02202
G1 X163.668 Y65.083 E15.04791
G1 X159.068 Y65.083 E15.19214
G1 X159.068 Y65.683 E15.21095
G1 X155.242 Y65.683 E15.33091
G1 X155.242 Y65.083 E15.34972
G1 X148.129 Y65.083 E15.57274
G1 X147.879 Y65.104 E15.58062
G1 X147.611 Y65.176 E15.58930
G1 X147.360 Y65.293 E15.59799
G1 X147.133 Y65.452 E15.60668
G1 X146.937 Y65.648 E15.61536
G1 X146.778 Y65.875 E15.62405
G1 X146.661 Y66.126 E15.63273
G1 X146.590 Y66.394 E15.64142
G1 X146.568 Y66.644 E15.64930
G1 X146.568 Y74.257 E15.88799
G1 X147.068 Y74.257 E15.90367
G1 X147.068 Y78.083 E16.02362
G1 X146.568 Y78.083 E16.03930
G1 X146.568 Y85.695 E16.27799
G1 X146.590 Y85.946 E16.28587
G1 X146.661 Y86.213 E16.29456
G1 X146.778 Y86.464 E16.30324
G1 X146.937 Y86.691 E16.31193
G1 X147.133 Y86.887 E16.32062
G1 X147.360 Y87.046 E16.32930
G1 X147.611 Y87.163 E16.33799
G1 X147.879 Y87.235 E16.34668
G1 X148.129 Y87.257 E16.35456
G1 X155.242 Y87.257 E16.57757
G1 X155.242 Y87.154 E16.58080
M204 S1500
G1 X154.865 Y86.880 F7800.000
M204 S1250
G1 F1200.000
G1 X154.865 Y86.280 E16.59961
G1 X159.445 Y86.280 E16.74321
G1 X159.445 Y86.880 E16.76203
G1 X164.045 Y86.880 E16.90626
G1 X164.045 Y88.460 E16.95579
G1 X44.865 Y88.460 E20.69260
G1 X44.865 Y85.744 E20.77776
G1 X144.865 Y85.744 E23.91319
G1 X144.865 Y80.365 E24.08181
G1 X144.445 Y79.710 E24.10620
G1 X143.927 Y78.754 E24.14032
G1 X143.563 Y77.868 E24.17036
G1 X143.365 Y77.101 E24.19519
G1 X143.365 Y75.237 E24.25363
G1 X143.514 Y74.623 E24.27343
G1 X143.857 Y73.737 E24.30323
G1 X144.013 Y73.428 E24.31409
G1 X144.260 Y72.952 E24.33089
G1 X144.865 Y71.972 E24.36701
G1 X144.865 Y66.596 E24.53558
G1 X44.865 Y66.596 E27.67101
G1 X44.865 Y63.880 E27.75616
G1 X164.045 Y63.880 E31.49297
G1 X164.045 Y65.460 E31.54251
G1 X159.445 Y65.460 E31.68674
G1 X159.445 Y66.060 E31.70555
G1 X154.865 Y66.060 E31.84916
G1 X154.865 Y65.460 E31.86797
G1 X148.146 Y65.460 E32.07864
G1 X147.945 Y65.477 E32.08497
G1 X147.741 Y65.532 E32.09159
G1 X147.549 Y65.621 E32.09821
G1 X147.377 Y65.742 E32.10482
G1 X147.227 Y65.891 E32.11144
G1 X147.106 Y66.064 E32.11806
G1 X147.017 Y66.255 E32.12468
G1 X146.962 Y66.459 E32.13129
G1 X146.945 Y66.660 E32.13762
G1 X146.945 Y73.880 E32.36397
G1 X147.445 Y73.880 E32.37965
G1 X147.445 Y78.460 E32.52325
G1 X146.945 Y78.460 E32.53893
G1 X146.945 Y85.679 E32.76528
G1 X146.962 Y85.880 E32.77161
G1 X147.017 Y86.084 E32.77823
G1 X147.106 Y86.275 E32.78485
G1 X147.227 Y86.448 E32.79147
G1 X147.377 Y86.597 E32.79808
G1 X147.549 Y86.718 E32.80470
G1 X147.741 Y86.807 E32.81132
G1 X147.945 Y86.862 E32.81794
G1 X148.146 Y86.880 E32.82426
G1 X154.805 Y86.880 E33.03306
M204 S1500
G1 X155.265 Y86.880 F7800.000
G1 X155.732 Y87.197
M204 S1250
G1 F1200.000
G1 X155.958 Y87.423 E33.04107
G1 X156.491 Y87.423 E33.05445
G1 X156.385 Y87.317 E33.05821
G1 X156.918 Y87.317 E33.07159
G1 X157.025 Y87.423 E33.07535
G1 X157.558 Y87.423 E33.08873
G1 X157.452 Y87.317 E33.09249
G1 X157.985 Y87.317 E33.10587
G1 X158.261 Y87.592 E33.11565
M204 S1500
G92 E0
G1 E-2.00000 F2400.00000
G1 X163.494 Y87.670 F7800.000
G1 E0.00000 F2400.00000
M204 S1250
G1 F1200.000
G1 X158.864 Y87.670 E0.18442
M204 S1500
G92 E0
G1 E-2.00000 F2400.00000
G1 X147.422 Y87.603 F7800.000
G1 E0.00000 F2400.00000
M204 S1250
G1 F1200.000
G1 X147.964 Y87.663 E0.02384
M204 S1500
M204 S1250
G1 X155.446 Y87.670 E0.32241
M204 S1500
G92 E0
G1 E-2.00000 F2400.00000
G1 X146.578 Y76.234 F7800.000
G1 E0.00000 F2400.00000
M204 S1250
G1 F1200.000
G1 X144.721 Y74.378 E0.06599
G1 X144.572 Y74.762 E0.07635
G1 X146.408 Y76.598 E0.14160
G1 X146.408 Y77.131 E0.15500
G1 X144.448 Y75.171 E0.22467
G1 X144.402 Y75.361 E0.22958
G1 X144.402 Y75.658 E0.23705
G1 X146.166 Y77.423 E0.29976
G1 X145.908 Y77.423 E0.30624
G1 X145.908 Y77.698 E0.31316
G1 X144.402 Y76.192 E0.36669
G1 X144.402 Y76.725 E0.38010
G1 X145.908 Y78.231 E0.43363
G1 X145.908 Y78.764 E0.44704
G1 X144.502 Y77.359 E0.49700
G1 X144.549 Y77.539 E0.50168
G1 X144.828 Y78.218 E0.52014
G1 X145.908 Y79.298 E0.55851
G1 X145.908 Y79.831 E0.57192
G1 X145.479 Y79.402 E0.58715
G1 X145.902 Y80.062 E0.60684
G1 X145.902 Y85.691 E0.74832
G1 X145.937 Y86.061 E0.75765
G1 X146.010 Y86.332 E0.76473
G1 X145.902 Y86.224 E0.76858
G1 X145.902 Y86.757 E0.78199
G1 X146.567 Y87.423 E0.80563
G1 X146.034 Y87.423 E0.81904
G1 X145.392 Y86.780 E0.84186
G1 X144.858 Y86.780 E0.85527
G1 X145.501 Y87.423 E0.87809
G1 X144.967 Y87.423 E0.89149
G1 X144.325 Y86.780 E0.91432
G1 X143.792 Y86.780 E0.92772
G1 X144.434 Y87.423 E0.95055
G1 X143.901 Y87.423 E0.96395
G1 X143.259 Y86.780 E0.98678
G1 X142.725 Y86.780 E1.00018
G1 X143.367 Y87.423 E1.02301
G1 X142.834 Y87.423 E1.03641
G1 X142.192 Y86.780 E1.05924
G1 X141.659 Y86.780 E1.07264
G1 X142.301 Y87.423 E1.09547
G1 X141.768 Y87.423 E1.10887
G1 X141.125 Y86.780 E1.13169
G1 X140.592 Y86.780 E1.14510
G1 X141.234 Y87.423 E1.16792
G1 X140.701 Y87.423 E1.18133
G1 X140.059 Y86.780 E1.20415
G1 X139.526 Y86.780 E1.21756
G1 X140.168 Y87.423 E1.24038
G1 X139.635 Y87.423 E1.25378
G1 X138.992 Y86.780 E1.27661
G1 X138.459 Y86.780 E1.29001
G1 X139.101 Y87.423 E1.31284
G1 X138.568 Y87.423 E1.32624
G1 X137.926 Y86.780 E1.34907
G1 X137.393 Y86.780 E1.36247
G1 X138.035 Y87.423 E1.38530
G1 X137.501 Y87.423 E1.39870
G1 X136.859 Y86.780 E1.42153
G1 X136.326 Y86.780 E1.43493
G1 X136.968 Y87.423 E1.45775
G1 X136.435 Y87.423 E1.47116
G1 X135.793 Y86.780 E1.49398
G1 X135.260 Y86.780 E1.50739
G1 X135.902 Y87.423 E1.53021
G1 X135.368 Y87.423 E1.54362
G1 X134.726 Y86.780 E1.56644
G1 X134.193 Y86.780 E1.57985
G1 X134.835 Y87.423 E1.60267
G1 X134.302 Y87.423 E1.61607
G1 X133.660 Y86.780 E1.63890
G1 X133.126 Y86.780 E1.65230
G1 X133.769 Y87.423 E1.67513
G1 X133.235 Y87.423 E1.68853
G1 X132.593 Y86.780 E1.71136
G1 X132.060 Y86.780 E1.72476
G1 X132.702 Y87.423 E1.74759
G1 X132.169 Y87.423 E1.76099
G1 X131.527 Y86.780 E1.78382
G1 X130.993 Y86.780 E1.79722
G1 X131.636 Y87.423 E1.82004
G1 X131.102 Y87.423 E1.83345
G1 X130.460 Y86.780 E1.85627
G1 X129.927 Y86.780 E1.86968
G1 X130.569 Y87.423 E1.89250
G1 X130.036 Y87.423 E1.90591
G1 X129.394 Y86.780 E1.92873
G1 X128.860 Y86.780 E1.94213
G1 X129.502 Y87.423 E1.96496
G1 X128.969 Y87.423 E1.97836
G1 X128.327 Y86.780 E2.00119
G1 X127.794 Y86.780 E2.01459
G1 X128.436 Y87.423 E2.03742
G1 X127.903 Y87.423 E2.05082
G1 X127.260 Y86.780 E2.07365
G1 X126.727 Y86.780 E2.08705
G1 X127.369 Y87.423 E2.10988
G1 X126.836 Y87.423 E2.12328
G1 X126.194 Y86.780 E2.14611
G1 X125.661 Y86.780 E2.15951
G1 X126.303 Y87.423 E2.18233
G1 X125.770 Y87.423 E2.19574
G1 X125.127 Y86.780 E2.21856
G1 X124.594 Y86.780 E2.23197
G1 X125.236 Y87.423 E2.25479
G1 X124.703 Y87.423 E2.26820
G1 X124.061 Y86.780 E2.29102
G1 X123.528 Y86.780 E2.30442
G1 X124.170 Y87.423 E2.32725
G1 X123.636 Y87.423 E2.34065
G1 X122.994 Y86.780 E2.36348
G1 X122.461 Y86.780 E2.37688
G1 X123.103 Y87.423 E2.39971
G1 X122.570 Y87.423 E2.41311
G1 X121.928 Y86.780 E2.43594
G1 X121.394 Y86.780 E2.44934
G1 X122.037 Y87.423 E2.47217
G1 X121.503 Y87.423 E2.48557
G1 X120.861 Y86.780 E2.50839
G1 X120.328 Y86.780 E2.52180
G1 X120.970 Y87.423 E2.54462
G1 X120.437 Y87.423 E2.55803
G1 X119.795 Y86.780 E2.58085
G1 X119.261 Y86.780 E2.59426
G1 X119.904 Y87.423 E2.61708
G1 X119.370 Y87.423 E2.63049
G1 X118.728 Y86.780 E2.65331
G1 X118.195 Y86.780 E2.66671
G1 X118.837 Y87.423 E2.68954
G1 X118.304 Y87.423 E2.70294
G1 X117.662 Y86.780 E2.72577
G1 X117.128 Y86.780 E2.73917
G1 X117.770 Y87.423 E2.76200
G1 X117.237 Y87.423 E2.77540
G1 X116.595 Y86.780 E2.79823
G1 X116.062 Y86.780 E2.81163
G1 X116.704 Y87.423 E2.83446
G1 X116.171 Y87.423 E2.84786
G1 X115.529 Y86.780 E2.87068
G1 X114.995 Y86.780 E2.88409
G1 X115.637 Y87.423 E2.90691
G1 X115.104 Y87.423 E2.92032
G1 X114.462 Y86.780 E2.94314
G1 X113.929 Y86.780 E2.95655
G1 X114.571 Y87.423 E2.97937
G1 X114.038 Y87.423 E2.99277
G1 X113.395 Y86.780 E3.01560
G1 X112.862 Y86.780 E3.02900
G1 X113.504 Y87.423 E3.05183
G1 X112.971 Y87.423 E3.06523
G1 X112.329 Y86.780 E3.08806
G1 X111.796 Y86.780 E3.10146
G1 X112.438 Y87.423 E3.12429
G1 X111.905 Y87.423 E3.13769
G1 X111.262 Y86.780 E3.16052
G1 X110.729 Y86.780 E3.17392
G1 X111.371 Y87.423 E3.19674
G1 X110.838 Y87.423 E3.21015
G1 X110.196 Y86.780 E3.23297
G1 X109.663 Y86.780 E3.24638
G1 X110.305 Y87.423 E3.26920
G1 X109.771 Y87.423 E3.28261
G1 X109.129 Y86.780 E3.30543
G1 X108.596 Y86.780 E3.31884
G1 X109.238 Y87.423 E3.34166
G1 X108.705 Y87.423 E3.35506
G1 X108.063 Y86.780 E3.37789
G1 X107.529 Y86.780 E3.39129
G1 X108.172 Y87.423 E3.41412
G1 X107.638 Y87.423 E3.42752
G1 X106.996 Y86.780 E3.45035
G1 X106.463 Y86.780 E3.46375
G1 X107.105 Y87.423 E3.48658
G1 X106.572 Y87.423 E3.49998
G1 X105.930 Y86.780 E3.52281
G1 X105.396 Y86.780 E3.53621
G1 X106.039 Y87.423 E3.55903
G1 X105.505 Y87.423 E3.57244
G1 X104.863 Y86.780 E3.59526
G1 X104.330 Y86.780 E3.60867
G1 X104.972 Y87.423 E3.63149
G1 X104.439 Y87.423 E3.64490
G1 X103.797 Y86.780 E3.66772
G1 X103.263 Y86.780 E3.68112
G1 X103.905 Y87.423 E3.70395
G1 X103.372 Y87.423 E3.71735
G1 X102.730 Y86.780 E3.74018
G1 X102.197 Y86.780 E3.75358
G1 X102.839 Y87.423 E3.77641
G1 X102.306 Y87.423 E3.78981
G1 X101.663 Y86.780 E3.81264
G1 X101.130 Y86.780 E3.82604
G1 X101.772 Y87.423 E3.84887
G1 X101.239 Y87.423 E3.86227
G1 X100.597 Y86.780 E3.88510
G1 X100.064 Y86.780 E3.89850
G1 X100.706 Y87.423 E3.92132
G1 X100.173 Y87.423 E3.93473
G1 X99.530 Y86.780 E3.95755
G1 X98.997 Y86.780 E3.97096
G1 X99.639 Y87.423 E3.99378
G1 X99.106 Y87.423 E4.00719
G1 X98.464 Y86.780 E4.03001
G1 X97.931 Y86.780 E4.04341
G1 X98.573 Y87.423 E4.06624
G1 X98.039 Y87.423 E4.07964
G1 X97.397 Y86.780 E4.10247
G1 X96.864 Y86.780 E4.11587
G1 X97.506 Y87.423 E4.13870
G1 X96.973 Y87.423 E4.15210
G1 X96.331 Y86.780 E4.17493
G1 X95.798 Y86.780 E4.18833
G1 X96.440 Y87.423 E4.21116
G1 X95.906 Y87.423 E4.22456
G1 X95.264 Y86.780 E4.24738
G1 X94.731 Y86.780 E4.26079
G1 X95.373 Y87.423 E4.28361
G1 X94.840 Y87.423 E4.29702
G1 X94.198 Y86.780 E4.31984
G1 X93.664 Y86.780 E4.33325
G1 X94.307 Y87.423 E4.35607
G1 X93.773 Y87.423 E4.36947
G1 X93.131 Y86.780 E4.39230
G1 X92.598 Y86.780 E4.40570
G1 X93.240 Y87.423 E4.42853
G1 X92.707 Y87.423 E4.44193
G1 X92.065 Y86.780 E4.46476
G1 X91.531 Y86.780 E4.47816
G1 X92.174 Y87.423 E4.50099
G1 X91.640 Y87.423 E4.51439
G1 X90.998 Y86.780 E4.53722
G1 X90.465 Y86.780 E4.55062
G1 X91.107 Y87.423 E4.57345
G1 X90.574 Y87.423 E4.58685
G1 X89.932 Y86.780 E4.60967
G1 X89.398 Y86.780 E4.62308
G1 X90.040 Y87.423 E4.64590
G1 X89.507 Y87.423 E4.65931
G1 X88.865 Y86.780 E4.68213
G1 X88.332 Y86.780 E4.69554
G1 X88.974 Y87.423 E4.71836
G1 X88.441 Y87.423 E4.73176
G1 X87.798 Y86.780 E4.75459
G1 X87.265 Y86.780 E4.76799
G1 X87.907 Y87.423 E4.79082
G1 X87.374 Y87.423 E4.80422
G1 X86.732 Y86.780 E4.82705
G1 X86.199 Y86.780 E4.84045
G1 X86.841 Y87.423 E4.86328
G1 X86.308 Y87.423 E4.87668
G1 X85.665 Y86.780 E4.89951
G1 X85.132 Y86.780 E4.91291
G1 X85.774 Y87.423 E4.93573
G1 X85.241 Y87.423 E4.94914
G1 X84.599 Y86.780 E4.97196
G1 X84.066 Y86.780 E4.98537
G1 X84.708 Y87.423 E5.00819
G1 X84.174 Y87.423 E5.02160
G1 X83.532 Y86.780 E5.04442
G1 X82.999 Y86.780 E5.05782
G1 X83.641 Y87.423 E5.08065
G1 X83.108 Y87.423 E5.09405
