; generated by Slic3r++ 2.2.50 on 2020-06-15 at 16:14:35 UTC

; 

; external perimeters extrusion width = 0.45mm
; perimeters extrusion width = 0.45mm
; infill extrusion width = 0.45mm
; solid infill extrusion width = 0.45mm
; top infill extrusion width = 0.40mm
; first layer extrusion width = 0.42mm

; object:{"name":"Kossel_PS_mount_2","id":"Kossel_PS_mount_2.stl id:0 copy 0","object_center":[100.000000,100.000000,100.000000],"boundingbox_center":[100.000000,8.750009,97.000000],"boundingbox_size":[137.999985,17.500018,0.000000]}

M201 X9000 Y9000 Z500 E10000 ; sets maximum accelerations, mm/sec^2
M203 X500 Y500 Z12 E120 ; sets maximum feedrates, mm/sec
M204 P1500 R1500 T1500 ; sets acceleration (P, T) and retract acceleration (R), mm/sec^2
M205 X10.00 Y10.00 Z0.20 E2.50 ; sets the jerk limits, mm/sec
M205 S0 T0 ; sets the minimum extruding and travel feed rate, mm/sec
M107
M190 S60 ; set bed temperature and wait for it to be reached
M104 S205 ; set temperature
G28 ; home all axes
G1 Z5 F5000 ; lift nozzle
M109 S205 ; set temperature and wait for it to be reached
G21 ; set units to millimeters
G90 ; use absolute coordinates
M82 ; use absolute distances for extrusion
G92 E0
; Filament gcode
G1 Z0.200 F7800.000
G1 E-2.00000 F2400.00000
G1 X46.672 Y28.491 F7800.000
G1 E0.00000 F2400.00000
M204 S1250
G1 F1200.000
G1 X47.215 Y27.761 E0.02852
G1 X47.893 Y27.040 E0.05955
G1 X48.734 Y26.348 E0.09372
G1 X49.554 Y25.829 E0.12412
G1 X50.424 Y25.414 E0.15436
G1 X51.331 Y25.107 E0.18439
G1 X52.237 Y24.913 E0.21344
G1 X53.283 Y24.816 E0.24638
G1 X146.497 Y24.811 E3.16903
G1 X148.052 Y24.962 E3.21801
G1 X149.557 Y25.407 E3.26721
G1 X150.990 Y26.157 E3.31794
G1 X152.196 Y27.124 E3.36641
G1 X153.234 Y28.351 E3.41677
G1 X153.997 Y29.723 E3.46599
G1 X154.486 Y31.218 E3.51533
G1 X154.674 Y32.680 E3.56154
G1 X154.682 Y167.061 E7.77498
G1 X154.575 Y168.311 E7.81431
G1 X154.327 Y169.386 E7.84889
G1 X153.931 Y170.422 E7.88366
G1 X153.328 Y171.509 E7.92265
G1 X152.782 Y172.243 E7.95134
G1 X152.098 Y172.968 E7.98257
G1 X151.256 Y173.659 E8.01674
G1 X150.419 Y174.186 E8.04772
G1 X149.553 Y174.595 E8.07777
G1 X148.627 Y174.904 E8.10839
G1 X147.565 Y175.117 E8.14235
G1 X146.631 Y175.187 E8.17171
G1 X53.423 Y175.188 E11.09417
G1 X52.191 Y175.080 E11.13296
G1 X51.097 Y174.825 E11.16818
G1 X49.921 Y174.359 E11.20785
G1 X48.996 Y173.833 E11.24119
G1 X48.260 Y173.285 E11.26997
G1 X47.534 Y172.599 E11.30131
G1 X46.837 Y171.748 E11.33579
G1 X46.311 Y170.909 E11.36684
G1 X45.908 Y170.048 E11.39663
G1 X45.606 Y169.149 E11.42638
G1 X45.390 Y168.073 E11.46077
G1 X45.319 Y167.102 E11.49131
G1 X45.318 Y32.939 E15.69791
G1 X45.425 Y31.689 E15.73724
G1 X45.673 Y30.614 E15.77182
G1 X46.069 Y29.578 E15.80659
G1 X46.643 Y28.543 E15.84369
M204 S1500
; printing object Kossel_PS_mount_2.stl id:0 copy 0
G92 E0
G1 E-2.00000 F2400.00000
G1 X99.985 Y156.419 F7800.000
G1 E0.00000 F2400.00000
M204 S1250
G1 F900.000
G1 X100.514 Y157.144 E0.02814
G1 X99.456 Y157.144 E0.06128
G1 X99.949 Y156.467 E0.08753
M204 S1500
G92 E0
G1 E-2.00000 F2400.00000
G1 X60.258 Y162.776 F7800.000
G1 E0.00000 F2400.00000
M204 S1250
G1 F900.000
G1 X60.181 Y162.314 E0.01468
G1 X60.036 Y161.892 E0.02866
G1 X59.819 Y161.490 E0.04298
G1 X59.539 Y161.128 E0.05734
G1 X59.202 Y160.818 E0.07170
G1 X58.819 Y160.567 E0.08606
G1 X58.399 Y160.383 E0.10042
G1 X57.956 Y160.270 E0.11478
G1 X57.539 Y160.236 E0.12787
G1 X56.958 Y160.236 E0.14610
G1 X56.519 Y160.274 E0.15990
G1 X56.053 Y160.399 E0.17503
G1 X55.616 Y160.603 E0.19016
G1 X55.221 Y160.880 E0.20528
G1 X54.880 Y161.221 E0.22041
G1 X54.603 Y161.616 E0.23554
G1 X54.399 Y162.053 E0.25067
G1 X54.274 Y162.519 E0.26579
G1 X54.232 Y163.000 E0.28092
G1 X54.274 Y163.481 E0.29605
G1 X54.399 Y163.947 E0.31118
G1 X54.603 Y164.384 E0.32630
G1 X54.880 Y164.779 E0.34143
G1 X55.221 Y165.120 E0.35656
G1 X55.616 Y165.397 E0.37169
G1 X56.053 Y165.601 E0.38681
G1 X56.519 Y165.726 E0.40194
G1 X56.958 Y165.764 E0.41574
G1 X57.540 Y165.764 E0.43399
G1 X57.956 Y165.730 E0.44709
G1 X58.400 Y165.617 E0.46145
G1 X58.820 Y165.433 E0.47581
G1 X59.203 Y165.182 E0.49017
G1 X59.539 Y164.871 E0.50453
G1 X59.819 Y164.510 E0.51886
G1 X60.031 Y164.118 E0.53284
G1 X60.184 Y163.674 E0.54755
G1 X60.258 Y163.222 E0.56192
G1 X60.258 Y162.836 E0.57403
M204 S1500
G1 X59.881 Y162.836 F7800.000
M204 S1250
G1 F900.000
G1 X59.814 Y162.407 E0.58763
G1 X59.689 Y162.044 E0.59967
G1 X59.502 Y161.697 E0.61204
G1 X59.260 Y161.384 E0.62444
G1 X58.969 Y161.116 E0.63683
G1 X58.638 Y160.900 E0.64923
G1 X58.276 Y160.741 E0.66163
G1 X57.893 Y160.643 E0.67402
G1 X57.524 Y160.613 E0.68565
G1 X56.974 Y160.613 E0.70287
G1 X56.585 Y160.647 E0.71512
G1 X56.183 Y160.755 E0.72818
G1 X55.805 Y160.931 E0.74124
G1 X55.464 Y161.170 E0.75430
G1 X55.170 Y161.464 E0.76736
G1 X54.931 Y161.805 E0.78042
G1 X54.755 Y162.183 E0.79348
G1 X54.647 Y162.585 E0.80653
G1 X54.611 Y163.000 E0.81959
G1 X54.647 Y163.415 E0.83265
G1 X54.755 Y163.817 E0.84571
G1 X54.931 Y164.195 E0.85877
G1 X55.170 Y164.536 E0.87183
G1 X55.464 Y164.830 E0.88489
G1 X55.805 Y165.069 E0.89794
G1 X56.183 Y165.245 E0.91100
G1 X56.585 Y165.353 E0.92406
G1 X56.974 Y165.387 E0.93631
G1 X57.524 Y165.387 E0.95356
G1 X57.894 Y165.356 E0.96519
G1 X58.277 Y165.259 E0.97758
G1 X58.639 Y165.100 E0.98998
G1 X58.970 Y164.883 E1.00238
G1 X59.260 Y164.615 E1.01477
G1 X59.502 Y164.303 E1.02715
G1 X59.685 Y163.966 E1.03918
G1 X59.817 Y163.581 E1.05192
G1 X59.881 Y163.191 E1.06433
G1 X59.881 Y162.896 E1.07359
M204 S1500
G1 X59.504 Y162.838 F7800.000
M204 S1250
G1 F900.000
G1 X59.447 Y162.500 E1.08434
G1 X59.343 Y162.196 E1.09444
G1 X59.185 Y161.903 E1.10486
G1 X58.981 Y161.640 E1.11530
G1 X58.737 Y161.414 E1.12573
G1 X58.458 Y161.232 E1.13616
G1 X58.153 Y161.098 E1.14659
G1 X57.831 Y161.017 E1.15703
G1 X57.508 Y160.990 E1.16718
G1 X56.991 Y160.990 E1.18340
G1 X56.651 Y161.020 E1.19410
G1 X56.312 Y161.110 E1.20509
G1 X55.995 Y161.259 E1.21608
G1 X55.707 Y161.460 E1.22707
G1 X55.460 Y161.707 E1.23806
G1 X55.259 Y161.995 E1.24905
G1 X55.110 Y162.312 E1.26004
G1 X55.020 Y162.651 E1.27103
G1 X54.989 Y163.000 E1.28202
G1 X55.020 Y163.349 E1.29301
G1 X55.110 Y163.688 E1.30400
G1 X55.259 Y164.005 E1.31499
G1 X55.460 Y164.293 E1.32598
G1 X55.707 Y164.540 E1.33697
G1 X55.995 Y164.741 E1.34796
G1 X56.312 Y164.890 E1.35895
G1 X56.651 Y164.980 E1.36994
G1 X56.991 Y165.010 E1.38064
G1 X57.509 Y165.010 E1.39688
G1 X57.832 Y164.983 E1.40704
G1 X58.154 Y164.901 E1.41747
G1 X58.459 Y164.767 E1.42790
G1 X58.737 Y164.585 E1.43834
G1 X58.981 Y164.359 E1.44877
G1 X59.185 Y164.097 E1.45919
G1 X59.338 Y163.813 E1.46929
G1 X59.450 Y163.489 E1.48005
G1 X59.504 Y163.160 E1.49049
G1 X59.504 Y162.898 E1.49870
M204 S1500
G1 X59.780 Y162.635 F7800.000
G92 E0
G1 E-2.00000 F2400.00000
G1 X96.610 Y158.220 F7800.000
G1 E0.00000 F2400.00000
M204 S1250
G1 F1200.000
G1 X96.506 Y158.288 E0.00391
G1 X95.942 Y158.767 E0.02709
G1 X95.508 Y159.227 E0.04692
G1 X95.098 Y159.779 E0.06847
G1 X94.755 Y160.374 E0.09001
G1 X94.504 Y160.955 E0.10985
G1 X94.289 Y161.663 E0.13305
G1 X94.171 Y162.344 E0.15474
G1 X94.135 Y163.028 E0.17621
G1 X94.172 Y163.658 E0.19600
G1 X94.288 Y164.334 E0.21749
G1 X94.483 Y164.993 E0.23905
G1 X94.755 Y165.625 E0.26062
G1 X95.098 Y166.221 E0.28219
G1 X95.509 Y166.773 E0.30376
G1 X95.981 Y167.273 E0.32533
G1 X96.895 Y168.036 E0.36264
G1 X53.554 Y168.036 E1.72155
G1 X53.212 Y167.989 E1.73239
G1 X52.928 Y167.857 E1.74220
G1 X52.725 Y167.672 E1.75080
G1 X52.593 Y167.478 E1.75816
G1 X52.521 Y167.302 E1.76411
G1 X52.482 Y167.113 E1.77016
G1 X52.471 Y159.045 E2.02313
G1 X52.512 Y158.717 E2.03351
G1 X52.595 Y158.518 E2.04027
G1 X52.714 Y158.337 E2.04705
G1 X52.924 Y158.150 E2.05588
G1 X53.211 Y158.011 E2.06588
G1 X53.533 Y157.964 E2.07608
G1 X96.534 Y157.964 E3.42434
G1 X96.593 Y158.163 E3.43083
M204 S1500
G92 E0
G1 E-2.00000 F2400.00000
G1 X139.742 Y162.771 F7800.000
G1 E0.00000 F2400.00000
M204 S1250
G1 F900.000
G1 X139.742 Y163.228 E0.01433
G1 X139.817 Y163.679 E0.02867
G1 X139.965 Y164.111 E0.04300
G1 X140.183 Y164.513 E0.05734
G1 X140.464 Y164.874 E0.07167
G1 X140.800 Y165.184 E0.08600
G1 X141.183 Y165.434 E0.10034
G1 X141.601 Y165.617 E0.11467
G1 X142.044 Y165.730 E0.12900
G1 X142.460 Y165.764 E0.14208
G1 X143.040 Y165.764 E0.16026
G1 X143.456 Y165.730 E0.17334
G1 X143.899 Y165.617 E0.18768
G1 X144.317 Y165.434 E0.20201
G1 X144.700 Y165.184 E0.21635
G1 X145.036 Y164.874 E0.23068
G1 X145.317 Y164.513 E0.24502
G1 X145.535 Y164.111 E0.25935
G1 X145.683 Y163.678 E0.27369
G1 X145.758 Y163.227 E0.28802
G1 X145.758 Y162.770 E0.30236
G1 X145.682 Y162.319 E0.31669
G1 X145.534 Y161.887 E0.33102
G1 X145.316 Y161.485 E0.34536
G1 X145.035 Y161.124 E0.35969
G1 X144.698 Y160.815 E0.37403
G1 X144.316 Y160.565 E0.38836
G1 X143.897 Y160.382 E0.40270
G1 X143.453 Y160.270 E0.41703
G1 X143.038 Y160.236 E0.43010
G1 X142.461 Y160.236 E0.44818
G1 X142.046 Y160.270 E0.46125
G1 X141.603 Y160.382 E0.47558
G1 X141.184 Y160.565 E0.48992
G1 X140.801 Y160.815 E0.50425
G1 X140.465 Y161.125 E0.51858
G1 X140.184 Y161.485 E0.53292
G1 X139.966 Y161.887 E0.54725
G1 X139.817 Y162.320 E0.56159
G1 X139.752 Y162.711 E0.57404
M204 S1500
G1 X140.124 Y162.774 F7800.000
M204 S1250
G1 F900.000
G1 X140.119 Y163.197 E0.58730
G1 X140.184 Y163.586 E0.59968
G1 X140.312 Y163.959 E0.61205
G1 X140.434 Y164.185 E0.62009
G1 X140.500 Y164.306 E0.62442
G1 X140.742 Y164.618 E0.63680
G1 X141.032 Y164.885 E0.64917
G1 X141.363 Y165.101 E0.66155
G1 X141.724 Y165.260 E0.67392
G1 X142.107 Y165.356 E0.68630
G1 X142.476 Y165.387 E0.69791
G1 X143.024 Y165.387 E0.71511
G1 X143.393 Y165.356 E0.72672
G1 X143.776 Y165.260 E0.73909
G1 X144.137 Y165.101 E0.75147
G1 X144.468 Y164.885 E0.76384
G1 X144.758 Y164.618 E0.77622
G1 X145.000 Y164.306 E0.78859
G1 X145.188 Y163.959 E0.80097
G1 X145.316 Y163.586 E0.81334
G1 X145.381 Y163.196 E0.82572
G1 X145.381 Y162.802 E0.83809
G1 X145.316 Y162.412 E0.85047
G1 X145.187 Y162.039 E0.86284
G1 X144.999 Y161.692 E0.87522
G1 X144.757 Y161.381 E0.88759
G1 X144.466 Y161.114 E0.89996
G1 X144.136 Y160.898 E0.91234
G1 X143.774 Y160.740 E0.92471
G1 X143.391 Y160.643 E0.93709
G1 X143.023 Y160.613 E0.94869
G1 X142.477 Y160.613 E0.96580
G1 X142.108 Y160.643 E0.97741
G1 X141.725 Y160.740 E0.98978
G1 X141.364 Y160.898 E1.00215
G1 X141.033 Y161.114 E1.01453
G1 X140.743 Y161.381 E1.02690
G1 X140.500 Y161.692 E1.03928
G1 X140.312 Y162.039 E1.05165
G1 X140.184 Y162.413 E1.06402
G1 X140.134 Y162.714 E1.07362
M204 S1500
G1 X140.496 Y162.833 F7800.000
M204 S1250
G1 F900.000
G1 X140.496 Y163.165 E1.08403
G1 X140.551 Y163.493 E1.09444
G1 X140.658 Y163.807 E1.10486
G1 X140.816 Y164.099 E1.11527
G1 X141.020 Y164.362 E1.12569
G1 X141.265 Y164.587 E1.13610
G1 X141.543 Y164.768 E1.14652
G1 X141.847 Y164.902 E1.15693
G1 X142.169 Y164.983 E1.16735
G1 X142.491 Y165.010 E1.17749
G1 X143.009 Y165.010 E1.19371
G1 X143.331 Y164.983 E1.20385
G1 X143.653 Y164.902 E1.21426
G1 X143.957 Y164.768 E1.22468
G1 X144.235 Y164.587 E1.23510
G1 X144.480 Y164.362 E1.24551
G1 X144.684 Y164.099 E1.25592
G1 X144.842 Y163.807 E1.26634
G1 X144.949 Y163.493 E1.27675
G1 X145.004 Y163.165 E1.28717
G1 X145.004 Y162.833 E1.29759
G1 X144.949 Y162.505 E1.30800
G1 X144.841 Y162.191 E1.31842
G1 X144.683 Y161.899 E1.32883
G1 X144.479 Y161.637 E1.33925
G1 X144.234 Y161.412 E1.34966
G1 X143.956 Y161.231 E1.36008
G1 X143.652 Y161.098 E1.37049
G1 X143.329 Y161.016 E1.38091
G1 X143.007 Y160.990 E1.39104
G1 X142.492 Y160.990 E1.40718
G1 X142.170 Y161.017 E1.41732
G1 X141.848 Y161.098 E1.42774
G1 X141.544 Y161.231 E1.43815
G1 X141.266 Y161.413 E1.44856
G1 X141.021 Y161.638 E1.45898
G1 X140.817 Y161.900 E1.46939
G1 X140.659 Y162.192 E1.47981
G1 X140.551 Y162.506 E1.49022
G1 X140.506 Y162.774 E1.49876
M204 S1500
G1 X140.200 Y162.983 F7800.000
G92 E0
G1 E-2.00000 F2400.00000
G1 X103.099 Y168.036 F7800.000
G1 E0.00000 F2400.00000
M204 S1250
G1 F1200.000
G1 X104.039 Y167.254 E0.03832
G1 X104.509 Y166.751 E0.05992
G1 X104.886 Y166.245 E0.07971
G1 X105.231 Y165.653 E0.10119
G1 X105.508 Y165.019 E0.12288
G1 X105.716 Y164.309 E0.14607
G1 X105.826 Y163.686 E0.16591
G1 X105.866 Y163.000 E0.18745
G1 X105.826 Y162.314 E0.20900
G1 X105.716 Y161.691 E0.22883
G1 X105.508 Y160.981 E0.25202
G1 X105.231 Y160.347 E0.27372
G1 X104.886 Y159.755 E0.29519
G1 X104.509 Y159.249 E0.31498
G1 X104.039 Y158.746 E0.33658
G1 X103.099 Y157.964 E0.37490
G1 X146.467 Y157.964 E1.73466
G1 X146.788 Y158.011 E1.74486
G1 X147.075 Y158.149 E1.75483
G1 X147.296 Y158.349 E1.76417
G1 X147.476 Y158.679 E1.77596
G1 X147.518 Y158.885 E1.78256
G1 X147.529 Y166.955 E2.03559
G1 X147.488 Y167.283 E2.04597
G1 X147.352 Y167.576 E2.05608
G1 X147.168 Y167.779 E2.06468
G1 X146.981 Y167.907 E2.07176
G1 X146.771 Y167.992 E2.07888
G1 X146.466 Y168.036 E2.08853
G1 X103.159 Y168.036 E3.44640
M204 S1500
G1 X102.012 Y168.413 F7800.000
M204 S1250
G1 F1200.000
G1 X101.960 Y168.117 E3.45582
G1 X102.178 Y168.038 E3.46310
G1 X102.752 Y167.748 E3.48325
G1 X103.245 Y167.424 E3.50176
G1 X103.779 Y166.979 E3.52356
G1 X104.219 Y166.509 E3.54375
G1 X104.571 Y166.036 E3.56222
G1 X104.894 Y165.482 E3.58234
G1 X105.152 Y164.890 E3.60259
G1 X105.348 Y164.223 E3.62439
G1 X105.450 Y163.642 E3.64288
G1 X105.488 Y163.000 E3.66305
G1 X105.450 Y162.358 E3.68321
G1 X105.348 Y161.777 E3.70170
G1 X105.152 Y161.110 E3.72350
G1 X104.894 Y160.518 E3.74375
G1 X104.571 Y159.964 E3.76387
G1 X104.219 Y159.491 E3.78234
G1 X103.779 Y159.021 E3.80254
G1 X103.245 Y158.576 E3.82434
G1 X102.752 Y158.252 E3.84284
G1 X102.178 Y157.962 E3.86299
G1 X101.573 Y157.742 E3.88317
G1 X100.947 Y157.594 E3.90335
G1 X100.308 Y157.521 E3.92350
G1 X99.718 Y157.521 E3.94201
G1 X99.027 Y157.599 E3.96381
G1 X98.401 Y157.751 E3.98400
G1 X97.848 Y157.952 E4.00247
G1 X97.273 Y158.238 E4.02259
G1 X96.732 Y158.591 E4.04285
G1 X96.202 Y159.041 E4.06464
G1 X95.798 Y159.470 E4.08313
G1 X95.414 Y159.986 E4.10330
G1 X95.093 Y160.543 E4.12346
G1 X94.859 Y161.085 E4.14196
G1 X94.656 Y161.750 E4.16375
G1 X94.547 Y162.386 E4.18400
G1 X94.513 Y163.027 E4.20412
G1 X94.547 Y163.615 E4.22259
G1 X94.656 Y164.248 E4.24272
G1 X94.839 Y164.865 E4.26290
G1 X95.092 Y165.456 E4.28308
G1 X95.414 Y166.014 E4.30325
G1 X95.798 Y166.530 E4.32343
G1 X96.240 Y166.998 E4.34361
G1 X96.733 Y167.410 E4.36376
G1 X97.226 Y167.734 E4.38227
G1 X97.846 Y168.047 E4.40403
G1 X98.038 Y168.117 E4.41043
G1 X97.985 Y168.413 E4.41985
G1 X53.537 Y168.413 E5.81351
G1 X53.244 Y168.385 E5.82272
G1 X53.093 Y168.348 E5.82761
G1 X52.829 Y168.238 E5.83657
G1 X52.606 Y168.085 E5.84504
G1 X52.434 Y167.913 E5.85267
G1 X52.260 Y167.658 E5.86235
G1 X52.158 Y167.413 E5.87067
G1 X52.105 Y167.152 E5.87904
G1 X52.094 Y159.027 E6.13377
G1 X52.123 Y158.721 E6.14343
G1 X52.153 Y158.599 E6.14737
G1 X52.260 Y158.340 E6.15615
G1 X52.415 Y158.106 E6.16493
G1 X52.500 Y158.010 E6.16897
G1 X52.712 Y157.836 E6.17755
G1 X52.951 Y157.705 E6.18609
G1 X53.110 Y157.647 E6.19141
G1 X53.378 Y157.594 E6.19999
G1 X53.524 Y157.587 E6.20456
G1 X97.319 Y157.587 E7.57772
G1 X97.754 Y157.550 E7.59142
G1 X98.201 Y157.435 E7.60588
G1 X98.621 Y157.247 E7.62031
G1 X99.002 Y156.991 E7.63472
G1 X99.333 Y156.673 E7.64909
G1 X99.602 Y156.303 E7.66343
G1 X99.801 Y155.893 E7.67775
G1 X99.849 Y155.723 E7.68327
G1 X100.121 Y155.723 E7.69179
G1 X100.168 Y155.893 E7.69732
G1 X100.368 Y156.304 E7.71164
G1 X100.637 Y156.673 E7.72598
G1 X100.968 Y156.991 E7.74036
G1 X101.350 Y157.247 E7.75478
G1 X101.770 Y157.436 E7.76922
G1 X102.217 Y157.550 E7.78369
G1 X102.652 Y157.587 E7.79739
G1 X146.476 Y157.587 E9.17145
G1 X146.621 Y157.594 E9.17601
G1 X146.890 Y157.647 E9.18459
G1 X147.048 Y157.704 E9.18986
G1 X147.287 Y157.835 E9.19842
G1 X147.499 Y158.010 E9.20701
G1 X147.591 Y158.113 E9.21135
G1 X147.674 Y158.229 E9.21583
G1 X147.839 Y158.575 E9.22786
G1 X147.895 Y158.847 E9.23655
G1 X147.906 Y166.973 E9.49133
G1 X147.877 Y167.279 E9.50098
G1 X147.847 Y167.402 E9.50494
G1 X147.735 Y167.671 E9.51409
G1 X147.576 Y167.905 E9.52295
G1 X147.410 Y168.070 E9.53031
G1 X147.161 Y168.241 E9.53977
G1 X146.879 Y168.355 E9.54931
G1 X146.622 Y168.406 E9.55752
G1 X146.476 Y168.413 E9.56210
G1 X102.072 Y168.413 E10.95436
