; generated by Slic3r++ 2.2.50 on 2020-06-11 at 13:57:14 UTC

; 

; external perimeters extrusion width = 0.45mm
; perimeters extrusion width = 0.45mm
; infill extrusion width = 0.45mm
; solid infill extrusion width = 0.45mm
; top infill extrusion width = 0.40mm
; first layer extrusion width = 0.42mm

; object:{"name":"MobileHolderP3xlstl","id":"MobileHolderP3xlstl.stl id:0 copy 0","object_center":[73.184126,105.452158,73.184126],"boundingbox_center":[105.452158,15.126841,21.091508],"boundingbox_size":[37.800004,30.253681,0.000000]}
; object:{"name":"MobileHolderP3xlstl_holder","id":"MobileHolderP3xlstl_holder.stl id:1 copy 0","object_center":[101.392166,107.317428,101.392166],"boundingbox_center":[107.317428,27.049999,29.500000],"boundingbox_size":[87.000000,54.099998,0.000000]}

M201 X9000 Y9000 Z500 E10000 ; sets maximum accelerations, mm/sec^2
M203 X500 Y500 Z12 E120 ; sets maximum feedrates, mm/sec
M204 P1500 R1500 T1500 ; sets acceleration (P, T) and retract acceleration (R), mm/sec^2
M205 X10.00 Y10.00 Z0.20 E2.50 ; sets the jerk limits, mm/sec
M205 S0 T0 ; sets the minimum extruding and travel feed rate, mm/sec
M107
M190 S60 ; set bed temperature and wait for it to be reached
M104 S205 ; set temperature
G28 ; home all axes
G1 Z5 F5000 ; lift nozzle
M109 S205 ; set temperature and wait for it to be reached
G21 ; set units to millimeters
G90 ; use absolute coordinates
M82 ; use absolute distances for extrusion
G92 E0
; Filament gcode
G1 Z0.200 F7800.000
G1 E-2.00000 F2400.00000
G1 X75.944 Y67.756 F7800.000
G1 E0.00000 F2400.00000
M204 S1250
G1 F1200.000
G1 X82.643 Y60.247 E0.31553
G1 X84.025 Y59.056 E0.37271
G1 X84.973 Y58.497 E0.40723
G1 X86.036 Y58.055 E0.44332
G1 X87.172 Y57.763 E0.48010
G1 X88.182 Y57.646 E0.51196
G1 X103.148 Y57.629 E0.98123
G1 X104.607 Y57.735 E1.02710
G1 X105.830 Y57.997 E1.06630
G1 X106.592 Y58.234 E1.09133
G1 X107.773 Y58.742 E1.13163
G1 X109.025 Y59.499 E1.17751
G1 X109.990 Y60.283 E1.21650
G1 X110.567 Y60.845 E1.24173
G1 X111.388 Y61.833 E1.28204
G1 X112.253 Y63.257 E1.33426
G1 X121.271 Y81.794 E1.98061
G1 X121.931 Y83.505 E2.03809
G1 X122.218 Y84.808 E2.07993
G1 X122.331 Y86.280 E2.12624
G1 X122.331 Y128.336 E3.44486
G1 X122.204 Y129.916 E3.49457
G1 X121.853 Y131.401 E3.54243
G1 X121.320 Y132.738 E3.58754
G1 X112.205 Y151.473 E4.24078
G1 X111.112 Y153.154 E4.30367
G1 X110.303 Y154.065 E4.34185
G1 X109.284 Y154.945 E4.38408
G1 X107.920 Y155.815 E4.43481
G1 X106.678 Y156.367 E4.47741
G1 X105.207 Y156.787 E4.52538
G1 X104.316 Y156.932 E4.55368
G1 X103.173 Y157.006 E4.58961
G1 X88.629 Y157.006 E5.04563
G1 X87.356 Y156.904 E5.08566
G1 X85.989 Y156.564 E5.12983
G1 X84.639 Y155.958 E5.17622
G1 X83.481 Y155.170 E5.22016
G1 X82.295 Y153.984 E5.27274
G1 X62.515 Y128.066 E6.29499
G1 X62.025 Y127.301 E6.32348
G1 X61.652 Y126.473 E6.35197
G1 X61.375 Y125.447 E6.38527
G1 X61.277 Y124.396 E6.41837
G1 X61.277 Y86.540 E7.60533
G1 X61.354 Y85.579 E7.63556
G1 X61.544 Y84.753 E7.66213
G1 X61.845 Y83.961 E7.68870
G1 X62.255 Y83.212 E7.71546
G1 X62.761 Y82.532 E7.74203
G1 X75.904 Y67.800 E8.36104
M204 S1500
; printing object MobileHolderP3xlstl.stl id:0 copy 0
G92 E0
G1 E-2.00000 F2400.00000
G1 X68.430 Y87.516 F7800.000
G1 E0.00000 F2400.00000
M204 S1250
G1 F1200.000
G1 X81.645 Y87.516 E0.41436
G1 X81.850 Y87.532 E0.42081
G1 X82.014 Y87.571 E0.42609
G1 X82.170 Y87.634 E0.43136
G1 X82.312 Y87.721 E0.43658
G1 X82.439 Y87.827 E0.44177
G1 X82.546 Y87.951 E0.44690
G1 X82.632 Y88.089 E0.45199
G1 X82.694 Y88.237 E0.45705
G1 X82.732 Y88.393 E0.46207
G1 X82.748 Y88.591 E0.46829
G1 X82.748 Y122.315 E1.52569
G1 X82.732 Y122.511 E1.53188
G1 X82.694 Y122.667 E1.53690
G1 X82.632 Y122.816 E1.54195
G1 X82.546 Y122.954 E1.54705
G1 X82.439 Y123.077 E1.55218
G1 X82.312 Y123.184 E1.55736
G1 X82.169 Y123.270 E1.56259
G1 X82.014 Y123.333 E1.56785
G1 X81.850 Y123.372 E1.57314
G1 X81.644 Y123.388 E1.57961
G1 X68.430 Y123.388 E1.99395
G1 X68.430 Y109.166 E2.43986
G1 X74.210 Y109.166 E2.62110
G1 X74.352 Y109.229 E2.62596
G1 X75.171 Y109.400 E2.65218
G1 X76.007 Y109.400 E2.67841
G1 X76.826 Y109.229 E2.70463
G1 X77.591 Y108.893 E2.73084
G1 X78.270 Y108.407 E2.75703
G1 X78.834 Y107.791 E2.78319
G1 X79.255 Y107.072 E2.80934
G1 X79.516 Y106.280 E2.83546
G1 X79.605 Y105.452 E2.86158
G1 X79.516 Y104.624 E2.88769
G1 X79.255 Y103.833 E2.91382
G1 X78.834 Y103.113 E2.93996
G1 X78.270 Y102.497 E2.96613
G1 X77.591 Y102.011 E2.99232
G1 X76.826 Y101.676 E3.01853
G1 X76.007 Y101.504 E3.04475
G1 X75.171 Y101.504 E3.07097
G1 X74.352 Y101.676 E3.09720
G1 X74.210 Y101.738 E3.10206
G1 X68.430 Y101.738 E3.28330
G1 X68.430 Y87.576 E3.72733
M204 S1500
G1 X68.053 Y87.139 F7800.000
M204 S1250
G1 F1200.000
G1 X81.660 Y87.139 E4.15397
G1 X81.908 Y87.159 E4.16179
G1 X82.129 Y87.211 E4.16891
G1 X82.339 Y87.296 E4.17602
G1 X82.532 Y87.413 E4.18309
G1 X82.704 Y87.558 E4.19013
G1 X82.850 Y87.726 E4.19713
G1 X82.968 Y87.915 E4.20409
G1 X83.054 Y88.119 E4.21103
G1 X83.106 Y88.333 E4.21794
G1 X83.125 Y88.576 E4.22558
G1 X83.125 Y122.330 E5.28392
G1 X83.106 Y122.572 E5.29152
G1 X83.054 Y122.786 E5.29843
G1 X82.968 Y122.990 E5.30537
G1 X82.850 Y123.178 E5.31233
G1 X82.704 Y123.347 E5.31933
G1 X82.532 Y123.491 E5.32637
G1 X82.339 Y123.608 E5.33345
G1 X82.129 Y123.693 E5.34055
G1 X81.908 Y123.746 E5.34767
G1 X81.659 Y123.765 E5.35552
G1 X68.053 Y123.765 E5.78213
G1 X68.053 Y108.789 E6.25169
G1 X74.289 Y108.789 E6.44723
G1 X74.468 Y108.867 E6.45334
G1 X75.210 Y109.023 E6.47712
G1 X75.968 Y109.023 E6.50089
G1 X76.710 Y108.867 E6.52467
G1 X77.404 Y108.563 E6.54841
G1 X78.019 Y108.123 E6.57213
G1 X78.528 Y107.566 E6.59581
G1 X78.910 Y106.915 E6.61945
G1 X79.146 Y106.200 E6.64305
G1 X79.226 Y105.452 E6.66665
G1 X79.146 Y104.704 E6.69024
G1 X78.910 Y103.989 E6.71385
G1 X78.528 Y103.338 E6.73749
G1 X78.019 Y102.781 E6.76117
G1 X77.404 Y102.341 E6.78488
G1 X76.710 Y102.037 E6.80863
G1 X75.968 Y101.882 E6.83240
G1 X75.210 Y101.882 E6.85618
G1 X74.468 Y102.037 E6.87996
G1 X74.289 Y102.115 E6.88606
G1 X68.053 Y102.115 E7.08161
G1 X68.053 Y87.199 E7.54928
M204 S1500
G1 X67.675 Y86.762 F7800.000
M204 S1250
G1 F1200.000
G1 X81.674 Y86.762 E7.98821
G1 X81.967 Y86.785 E7.99740
G1 X82.245 Y86.851 E8.00636
G1 X82.509 Y86.958 E8.01530
G1 X82.752 Y87.105 E8.02423
G1 X82.970 Y87.288 E8.03312
G1 X83.155 Y87.502 E8.04199
G1 X83.304 Y87.741 E8.05082
G1 X83.413 Y88.000 E8.05964
G1 X83.479 Y88.273 E8.06844
G1 X83.502 Y88.561 E8.07749
G1 X83.502 Y122.345 E9.13677
G1 X83.479 Y122.632 E9.14579
G1 X83.413 Y122.904 E9.15459
G1 X83.304 Y123.163 E9.16341
G1 X83.155 Y123.403 E9.17225
G1 X82.970 Y123.616 E9.18111
G1 X82.752 Y123.799 E9.19000
G1 X82.509 Y123.946 E9.19893
G1 X82.245 Y124.054 E9.20787
G1 X81.967 Y124.119 E9.21683
G1 X81.673 Y124.142 E9.22606
G1 X67.675 Y124.142 E9.66495
G1 X67.675 Y108.412 E10.15815
G1 X74.368 Y108.412 E10.36800
G1 X74.583 Y108.506 E10.37536
G1 X75.249 Y108.646 E10.39668
G1 X75.929 Y108.646 E10.41801
G1 X76.595 Y108.506 E10.43933
G1 X77.216 Y108.234 E10.46062
G1 X77.767 Y107.840 E10.48186
G1 X78.223 Y107.341 E10.50304
G1 X78.564 Y106.759 E10.52418
G1 X78.775 Y106.120 E10.54527
G1 X78.846 Y105.452 E10.56635
G1 X78.775 Y104.784 E10.58742
G1 X78.564 Y104.145 E10.60851
G1 X78.223 Y103.563 E10.62965
G1 X77.767 Y103.065 E10.65084
G1 X77.216 Y102.671 E10.67208
G1 X76.595 Y102.398 E10.69337
G1 X75.929 Y102.259 E10.71468
G1 X75.249 Y102.259 E10.73601
G1 X74.583 Y102.398 E10.75734
G1 X74.368 Y102.492 E10.76470
G1 X67.675 Y102.492 E10.97454
G1 X67.675 Y86.822 E11.46586
M204 S1500
G1 X68.022 Y86.962 F7800.000
G92 E0
G1 E-2.00000 F2400.00000
G1 X69.173 Y101.625 F7800.000
G1 E0.00000 F2400.00000
M204 S1250
G1 F1200.000
G1 X68.712 Y101.165 E0.01991
G1 X68.712 Y100.631 E0.03621
G1 X69.536 Y101.455 E0.07184
G1 X70.070 Y101.455 E0.08814
G1 X68.712 Y100.098 E0.14683
G1 X68.712 Y99.565 E0.16313
G1 X70.603 Y101.455 E0.24488
G1 X71.136 Y101.455 E0.26118
G1 X68.712 Y99.031 E0.36598
G1 X68.712 Y98.498 E0.38229
G1 X71.669 Y101.455 E0.51015
G1 X72.203 Y101.455 E0.52645
G1 X68.712 Y97.965 E0.67737
G1 X68.712 Y97.432 E0.69368
G1 X72.736 Y101.455 E0.86765
G1 X73.269 Y101.455 E0.88396
G1 X68.712 Y96.898 E1.08099
G1 X68.712 Y96.365 E1.09730
G1 X73.803 Y101.455 E1.31739
G1 X74.151 Y101.455 E1.32804
G1 X74.282 Y101.401 E1.33238
G1 X68.712 Y95.832 E1.57321
G1 X68.712 Y95.299 E1.58951
G1 X74.723 Y101.309 E1.84941
G1 X75.169 Y101.222 E1.86330
G1 X68.712 Y94.765 E2.14246
G1 X68.712 Y94.232 E2.15877
G1 X75.702 Y101.222 E2.46100
G1 X76.036 Y101.222 E2.47122
G1 X76.288 Y101.274 E2.47908
G1 X68.712 Y93.699 E2.80664
G1 X68.712 Y93.165 E2.82295
G1 X77.313 Y101.766 E3.19482
M204 S1500
G92 E0
G1 E-2.00000 F2400.00000
G1 X82.635 Y88.957 F7800.000
G1 E0.00000 F2400.00000
M204 S1250
G1 F1200.000
G1 X81.477 Y87.799 E0.05006
G1 X80.944 Y87.799 E0.06636
G1 X82.465 Y89.320 E0.13214
G1 X82.465 Y89.854 E0.14845
G1 X80.411 Y87.799 E0.23729
G1 X79.877 Y87.799 E0.25359
G1 X82.465 Y90.387 E0.36549
G1 X82.465 Y90.920 E0.38179
G1 X79.344 Y87.799 E0.51675
G1 X78.811 Y87.799 E0.53305
G1 X82.465 Y91.454 E0.69106
G1 X82.465 Y91.987 E0.70737
G1 X78.278 Y87.799 E0.88844
G1 X77.744 Y87.799 E0.90475
G1 X82.465 Y92.520 E1.10888
G1 X82.465 Y93.053 E1.12518
G1 X77.211 Y87.799 E1.35237
G1 X76.678 Y87.799 E1.36867
G1 X82.465 Y93.587 E1.61892
G1 X82.465 Y94.120 E1.63522
G1 X76.145 Y87.799 E1.90853
G1 X75.611 Y87.799 E1.92483
G1 X82.465 Y94.653 E2.22120
G1 X82.465 Y95.186 E2.23750
G1 X75.078 Y87.799 E2.55693
G1 X74.545 Y87.799 E2.57323
G1 X82.465 Y95.720 E2.91571
G1 X82.465 Y96.253 E2.93202
G1 X74.011 Y87.799 E3.29755
G1 X73.478 Y87.799 E3.31386
G1 X82.465 Y96.786 E3.70246
G1 X82.465 Y97.320 E3.71876
G1 X72.945 Y87.799 E4.13042
G1 X72.412 Y87.799 E4.14672
G1 X82.465 Y97.853 E4.58144
G1 X82.465 Y98.386 E4.59774
G1 X71.878 Y87.799 E5.05551
G1 X71.345 Y87.799 E5.07182
G1 X82.465 Y98.919 E5.55265
G1 X82.465 Y99.453 E5.56895
G1 X70.812 Y87.799 E6.07284
G1 X70.279 Y87.799 E6.08915
G1 X82.465 Y99.986 E6.61609
G1 X82.465 Y100.519 E6.63240
G1 X69.745 Y87.799 E7.18240
G1 X69.212 Y87.799 E7.19871
G1 X82.465 Y101.052 E7.77177
G1 X82.465 Y101.586 E7.78808
G1 X68.712 Y87.833 E8.38275
G1 X68.712 Y88.366 E8.39905
G1 X82.465 Y102.119 E8.99372
G1 X82.465 Y102.652 E9.01002
G1 X68.712 Y88.899 E9.60469
G1 X68.712 Y89.433 E9.62099
G1 X82.465 Y103.185 E10.21566
G1 X82.465 Y103.719 E10.23196
G1 X68.712 Y89.966 E10.82663
G1 X68.712 Y90.499 E10.84294
G1 X82.465 Y104.252 E11.43760
G1 X82.465 Y104.785 E11.45391
G1 X68.712 Y91.032 E12.04857
G1 X68.712 Y91.566 E12.06488
G1 X82.465 Y105.319 E12.65954
G1 X82.465 Y105.852 E12.67585
G1 X68.712 Y92.099 E13.27051
G1 X68.712 Y92.632 E13.28682
G1 X82.465 Y106.385 E13.88149
G1 X82.465 Y106.918 E13.89779
G1 X79.638 Y104.092 E14.02002
G1 X79.794 Y104.564 E14.03522
G1 X79.820 Y104.807 E14.04269
G1 X82.465 Y107.452 E14.15706
G1 X82.465 Y107.985 E14.17336
G1 X79.884 Y105.404 E14.28497
G1 X79.842 Y105.895 E14.30005
G1 X82.465 Y108.518 E14.41348
G1 X82.465 Y109.051 E14.42978
G1 X79.784 Y106.371 E14.54570
G1 X79.652 Y106.772 E14.55861
G1 X82.465 Y109.585 E14.68025
G1 X82.465 Y110.118 E14.69655
G1 X79.520 Y107.173 E14.82391
G1 X79.325 Y107.511 E14.83586
G1 X82.465 Y110.651 E14.97163
G1 X82.465 Y111.184 E14.98793
G1 X79.128 Y107.848 E15.13222
G1 X79.062 Y107.960 E15.13620
G1 X78.893 Y108.145 E15.14389
G1 X82.465 Y111.718 E15.29836
G1 X82.465 Y112.251 E15.31466
G1 X78.638 Y108.424 E15.48014
G1 X78.459 Y108.620 E15.48825
G1 X78.367 Y108.686 E15.49173
G1 X82.465 Y112.784 E15.66895
G1 X82.465 Y113.318 E15.68525
G1 X78.056 Y108.908 E15.87591
G1 X77.745 Y109.131 E15.88760
G1 X82.465 Y113.851 E16.09170
G1 X82.465 Y114.384 E16.10801
G1 X77.377 Y109.296 E16.32803
G1 X77.006 Y109.458 E16.34041
G1 X82.465 Y114.917 E16.57646
G1 X82.465 Y115.451 E16.59276
G1 X76.583 Y109.568 E16.84711
G1 X76.142 Y109.661 E16.86089
G1 X82.465 Y115.984 E17.13431
G1 X82.465 Y116.517 E17.15061
G1 X75.631 Y109.683 E17.44613
G1 X75.086 Y109.671 E17.46279
G1 X82.465 Y117.050 E17.78187
G1 X82.465 Y117.584 E17.79818
G1 X74.411 Y109.530 E18.14642
G1 X74.265 Y109.499 E18.15099
G1 X74.151 Y109.449 E18.15481
G1 X73.797 Y109.449 E18.16562
G1 X82.465 Y118.117 E18.54041
G1 X82.465 Y118.650 E18.55672
G1 X73.264 Y109.449 E18.95457
G1 X72.731 Y109.449 E18.97087
G1 X82.465 Y119.184 E19.39178
G1 X82.465 Y119.717 E19.40809
G1 X72.198 Y109.449 E19.85206
G1 X71.664 Y109.449 E19.86836
G1 X82.465 Y120.250 E20.33539
G1 X82.465 Y120.783 E20.35169
G1 X71.131 Y109.449 E20.84178
G1 X70.598 Y109.449 E20.85809
G1 X82.465 Y121.317 E21.37123
G1 X82.465 Y121.850 E21.38753
G1 X70.064 Y109.449 E21.92374
G1 X69.531 Y109.449 E21.94004
G1 X82.459 Y122.377 E22.49905
G1 X82.425 Y122.578 E22.50528
G1 X82.324 Y122.775 E22.51205
G1 X68.998 Y109.449 E23.08826
G1 X68.712 Y109.449 E23.09699
G1 X68.712 Y109.697 E23.10457
G1 X82.035 Y123.019 E23.68062
G1 X81.806 Y123.092 E23.68796
G1 X81.587 Y123.105 E23.69466
G1 X68.712 Y110.230 E24.25137
G1 X68.712 Y110.763 E24.26767
G1 X81.054 Y123.105 E24.80133
G1 X80.521 Y123.105 E24.81763
G1 X68.712 Y111.297 E25.32823
G1 X68.712 Y111.830 E25.34453
G1 X79.988 Y123.105 E25.83207
G1 X79.454 Y123.105 E25.84837
G1 X68.712 Y112.363 E26.31285
G1 X68.712 Y112.896 E26.32916
G1 X78.921 Y123.105 E26.77058
G1 X78.388 Y123.105 E26.78688
G1 X68.712 Y113.430 E27.20524
G1 X68.712 Y113.963 E27.22155
G1 X77.855 Y123.105 E27.61685
G1 X77.321 Y123.105 E27.63316
G1 X68.712 Y114.496 E28.00540
G1 X68.712 Y115.030 E28.02171
G1 X76.788 Y123.105 E28.37089
G1 X76.255 Y123.105 E28.38720
G1 X68.712 Y115.563 E28.71333
G1 X68.712 Y116.096 E28.72963
G1 X75.722 Y123.105 E29.03270
G1 X75.188 Y123.105 E29.04901
G1 X68.712 Y116.629 E29.32902
G1 X68.712 Y117.163 E29.34532
G1 X74.655 Y123.105 E29.60228
G1 X74.122 Y123.105 E29.61858
G1 X68.712 Y117.696 E29.85248
G1 X68.712 Y118.229 E29.86878
G1 X73.588 Y123.105 E30.07962
G1 X73.055 Y123.105 E30.09592
G1 X68.712 Y118.762 E30.28370
G1 X68.712 Y119.296 E30.30001
G1 X72.522 Y123.105 E30.46473
G1 X71.989 Y123.105 E30.48103
G1 X68.712 Y119.829 E30.62270
G1 X68.712 Y120.362 E30.63900
G1 X71.455 Y123.105 E30.75760
G1 X70.922 Y123.105 E30.77391
G1 X68.712 Y120.896 E30.86945
G1 X68.712 Y121.429 E30.88576
G1 X70.389 Y123.105 E30.95825
G1 X69.856 Y123.105 E30.97455
G1 X68.712 Y121.962 E31.02398
G1 X68.712 Y122.495 E31.04028
G1 X69.322 Y123.105 E31.06665
G1 X68.789 Y123.105 E31.08296
G1 X68.543 Y122.859 E31.09361
M204 S1500
; stop printing object MobileHolderP3xlstl.stl id:0 copy 0
; printing object MobileHolderP3xlstl_holder.stl id:1 copy 0
G92 E0
G1 E-2.00000 F2400.00000
G1 X106.178 Y83.282 F7800.000
G1 E0.00000 F2400.00000
M204 S1250
G1 F1200.000
G1 X112.104 Y83.282 E0.18582
G1 X112.617 Y83.322 E0.20193
G1 X113.079 Y83.433 E0.21685
G1 X113.519 Y83.615 E0.23177
G1 X113.925 Y83.864 E0.24669
G1 X114.287 Y84.173 E0.26161
G1 X114.596 Y84.535 E0.27654
G1 X114.844 Y84.940 E0.29146
G1 X115.027 Y85.380 E0.30638
G1 X115.138 Y85.843 E0.32130
G1 X115.178 Y86.355 E0.33741
G1 X115.178 Y128.280 E1.65192
G1 X115.138 Y128.792 E1.66803
G1 X115.027 Y129.255 E1.68296
G1 X114.844 Y129.694 E1.69788
G1 X114.596 Y130.100 E1.71280
G1 X114.287 Y130.462 E1.72772
G1 X113.925 Y130.771 E1.74265
G1 X113.519 Y131.020 E1.75756
G1 X113.079 Y131.202 E1.77249
G1 X112.617 Y131.313 E1.78741
G1 X112.104 Y131.353 E1.80352
G1 X106.178 Y131.353 E1.98934
G1 X106.178 Y146.780 E2.47302
G1 X106.138 Y147.292 E2.48913
G1 X106.027 Y147.755 E2.50405
G1 X105.844 Y148.194 E2.51897
G1 X105.596 Y148.600 E2.53389
G1 X105.287 Y148.962 E2.54882
G1 X104.925 Y149.271 E2.56374
G1 X104.519 Y149.520 E2.57866
G1 X104.079 Y149.702 E2.59358
G1 X103.617 Y149.813 E2.60851
G1 X103.104 Y149.853 E2.62462
G1 X88.679 Y149.853 E3.07691
G1 X88.481 Y149.838 E3.08315
G1 X88.323 Y149.800 E3.08823
G1 X88.173 Y149.738 E3.09332
G1 X88.035 Y149.653 E3.09840
G1 X87.912 Y149.548 E3.10348
G1 X87.807 Y149.425 E3.10856
G1 X87.722 Y149.286 E3.11364
G1 X87.660 Y149.137 E3.11873
G1 X87.622 Y148.979 E3.12381
G1 X87.609 Y148.817 E3.12889
G1 X87.622 Y148.656 E3.13397
G1 X87.660 Y148.498 E3.13905
G1 X87.722 Y148.348 E3.14413
G1 X87.807 Y148.210 E3.14922
G1 X87.912 Y148.087 E3.15430
G1 X88.035 Y147.982 E3.15938
G1 X88.173 Y147.897 E3.16446
