; generated by Slic3r++ 2.2.47 on 2020-05-07 at 14:28:41 UTC

; 

; external perimeters extrusion width = 0.45mm
; perimeters extrusion width = 0.45mm
; infill extrusion width = 0.45mm
; solid infill extrusion width = 0.45mm
; top infill extrusion width = 0.40mm
; support material extrusion width = 0.35mm
; first layer extrusion width = 0.42mm

; object:{"name":"panter","id":"panter.stl id:0 copy 0","object_center":[100.000000,100.000000,100.000000],"boundingbox_center":[100.000000,18.085032,26.304312],"boundingbox_size":[108.053284,36.170063,0.000000]}

M201 X9000 Y9000 Z500 E10000 ; sets maximum accelerations, mm/sec^2
M203 X500 Y500 Z12 E120 ; sets maximum feedrates, mm/sec
M204 P1500 R1500 T1500 ; sets acceleration (P, T) and retract acceleration (R), mm/sec^2
M205 X10.00 Y10.00 Z0.20 E2.50 ; sets the jerk limits, mm/sec
M205 S0 T0 ; sets the minimum extruding and travel feed rate, mm/sec
M107
M104 S200 ; set temperature
G28 ; home all axes
G1 Z5 F5000 ; lift nozzle
M109 S200 ; set temperature and wait for it to be reached
G21 ; set units to millimeters
G90 ; use absolute coordinates
M82 ; use absolute distances for extrusion
G92 E0
; Filament gcode
G1 Z0.300 F7800.000
G1 E-2.00000 F2400.00000
G1 X80.897 Y46.858 F7800.000
G1 E0.00000 F2400.00000
G1 F1800.000
G1 X83.469 Y42.418 E0.22763
G1 X84.336 Y41.261 E0.29174
G1 X85.440 Y40.328 E0.35586
G1 X86.535 Y39.744 E0.41089
G1 X93.023 Y37.062 E0.72228
G1 X94.074 Y36.745 E0.77096
G1 X95.288 Y36.611 E0.82516
G1 X103.213 Y36.610 E1.17665
G1 X104.152 Y36.680 E1.21843
G1 X105.065 Y36.886 E1.25994
G1 X105.943 Y37.226 E1.30172
G1 X106.762 Y37.691 E1.34350
G1 X107.654 Y38.413 E1.39439
G1 X111.112 Y41.907 E1.61245
G1 X111.725 Y42.870 E1.66306
G1 X117.464 Y54.196 E2.22623
G1 X117.794 Y54.991 E2.26443
G1 X118.015 Y55.830 E2.30289
G1 X120.889 Y72.836 E3.06790
G1 X120.974 Y73.812 E3.11134
G1 X120.965 Y85.944 E3.64947
G1 X118.642 Y116.890 E5.02593
G1 X112.351 Y156.836 E6.81954
G1 X112.054 Y157.963 E6.87126
G1 X111.553 Y159.023 E6.92325
G1 X110.713 Y160.145 E6.98544
G1 X109.648 Y161.057 E7.04763
G1 X108.409 Y161.715 E7.10982
G1 X107.057 Y162.086 E7.17201
G1 X106.075 Y162.166 E7.21572
G1 X91.970 Y162.141 E7.84133
G1 X91.175 Y162.019 E7.87704
G1 X90.401 Y161.798 E7.91274
G1 X89.661 Y161.481 E7.94844
G1 X88.966 Y161.074 E7.98415
G1 X88.328 Y160.583 E8.01985
G1 X87.758 Y160.015 E8.05555
G1 X87.259 Y159.375 E8.09153
G1 X86.849 Y158.683 E8.12724
G1 X78.021 Y135.562 E9.22499
G1 X77.670 Y134.159 E9.28910
G1 X77.615 Y133.325 E9.32619
G1 X77.640 Y53.659 E12.85978
G1 X77.870 Y52.439 E12.91480
G1 X78.331 Y51.288 E12.96983
G1 X80.867 Y46.910 E13.19421
; printing object panter.stl id:0 copy 0
G92 E0
G1 E-2.00000 F2400.00000
G1 X106.051 Y155.778 F7800.000
G1 E0.00000 F2400.00000
G1 F1800.000
G1 X106.051 Y138.438 E0.76910
G1 X105.340 Y138.438 E0.80064
G1 X105.340 Y155.618 E1.56264
G1 X104.629 Y155.618 E1.59419
G1 X104.629 Y138.438 E2.35619
G1 X103.918 Y138.438 E2.38774
G1 X103.918 Y155.618 E3.14974
G1 X103.206 Y155.618 E3.18128
G1 X103.206 Y138.438 E3.94328
G1 X102.495 Y138.438 E3.97483
G1 X102.495 Y155.618 E4.73683
G1 X101.784 Y155.618 E4.76837
G1 X101.784 Y138.438 E5.53037
G1 X101.073 Y138.438 E5.56192
G1 X101.073 Y155.618 E6.32392
G1 X100.361 Y155.618 E6.35547
G1 X100.361 Y138.438 E7.11746
G1 X99.650 Y138.438 E7.14901
G1 X99.650 Y155.618 E7.91101
G1 X98.939 Y155.618 E7.94256
G1 X98.939 Y138.438 E8.70456
G1 X98.228 Y138.438 E8.73610
G1 X98.228 Y155.618 E9.49810
G1 X97.516 Y155.618 E9.52965
G1 X97.516 Y138.438 E10.29165
G1 X96.805 Y138.438 E10.32320
G1 X96.805 Y155.618 E11.08519
G1 X96.094 Y155.618 E11.11674
G1 X96.094 Y138.438 E11.87874
G1 X95.383 Y138.438 E11.91029
G1 X95.383 Y155.618 E12.67229
G1 X94.671 Y155.618 E12.70383
G1 X94.671 Y138.438 E13.46583
G1 X93.960 Y138.438 E13.49738
G1 X93.960 Y155.618 E14.25938
G1 X93.249 Y155.618 E14.29093
G1 X93.249 Y138.438 E15.05292
G1 X92.538 Y138.438 E15.08447
G1 X92.538 Y155.778 E15.85357
G92 E0
G1 E-2.00000 F2400.00000
G1 X114.586 Y85.601 F7800.000
G1 E0.00000 F2400.00000
G1 F1800.000
G1 X114.586 Y73.876 E0.52008
G1 X113.875 Y73.876 E0.55163
G1 X113.875 Y85.441 E1.06461
G1 X113.164 Y85.441 E1.09616
G1 X113.164 Y73.876 E1.60914
G1 X112.452 Y73.876 E1.64069
G1 X112.452 Y85.441 E2.15368
G1 X112.280 Y85.441 E2.16132
G1 X112.280 Y116.319 E3.53090
G1 X111.741 Y116.319 E3.55480
G1 X111.741 Y57.033 E6.18442
G1 X111.030 Y57.033 E6.21596
G1 X111.030 Y116.319 E8.84557
G1 X110.319 Y116.319 E8.87712
G1 X110.319 Y57.033 E11.50673
G1 X109.607 Y57.033 E11.53828
G1 X109.607 Y90.683 E13.03081
G1 X108.896 Y90.221 E13.06844
G1 X108.896 Y51.419 E14.78948
G1 X108.185 Y51.419 E14.82102
G1 X108.185 Y89.758 E16.52156
G1 X107.474 Y89.296 E16.55918
G1 X107.474 Y51.419 E18.23921
G1 X106.763 Y51.419 E18.27075
G1 X106.763 Y88.833 E19.93027
G1 X106.051 Y88.371 E19.96790
G1 X106.051 Y45.805 E21.85592
G1 X105.340 Y45.805 E21.88746
G1 X105.340 Y88.139 E23.76521
G1 X105.240 Y88.167 E23.76982
G1 X105.080 Y88.535 E23.78763
G1 X104.629 Y89.109 E23.81998
G1 X104.629 Y45.805 E25.74073
G1 X103.918 Y45.805 E25.77227
G1 X103.918 Y90.013 E27.73314
G1 X103.206 Y90.918 E27.78417
G1 X103.206 Y42.998 E29.90966
G1 X102.495 Y42.998 E29.94121
G1 X102.495 Y124.740 E33.56688
G1 X103.206 Y124.740 E33.59843
G1 X103.206 Y120.612 E33.78152
G1 X103.349 Y120.786 E33.79149
G1 X103.918 Y120.964 E33.81792
G1 X103.918 Y124.740 E33.98539
G1 X104.629 Y124.740 E34.01693
G1 X104.629 Y121.188 E34.17447
G1 X105.340 Y121.412 E34.20754
G1 X105.340 Y124.740 E34.35514
G1 X106.051 Y124.740 E34.38669
G1 X106.051 Y121.636 E34.52436
G1 X106.763 Y121.636 E34.55591
G1 X106.763 Y124.740 E34.69357
G1 X107.474 Y124.740 E34.72512
G1 X107.474 Y121.636 E34.86279
G1 X108.185 Y121.636 E34.89433
G1 X108.185 Y124.740 E35.03200
G1 X108.896 Y124.740 E35.06355
G1 X108.896 Y120.469 E35.25298
G92 E0
G1 E-2.00000 F2400.00000
G1 X109.607 Y116.479 F7800.000
G1 E0.00000 F2400.00000
G1 F1800.000
G1 X109.607 Y94.591 E0.97082
G1 X109.494 Y95.375 E1.00592
G1 X109.267 Y95.571 E1.01924
G1 X108.896 Y95.571 E1.03568
G1 X108.896 Y113.585 E1.83466
G1 X108.185 Y112.155 E1.90547
G1 X108.185 Y95.571 E2.64106
G1 X107.474 Y95.571 E2.67260
G1 X107.474 Y111.137 E3.36302
G1 X107.274 Y111.109 E3.37196
G1 X106.981 Y111.429 E3.39122
G1 X106.763 Y111.609 E3.40377
G1 X106.763 Y95.571 E4.11513
G1 X106.051 Y95.571 E4.14668
G1 X106.051 Y112.196 E4.88409
G1 X105.340 Y112.784 E4.92500
G1 X105.340 Y94.654 E5.72913
G1 X104.629 Y93.670 E5.78297
G1 X104.629 Y113.371 E6.65678
G1 X103.918 Y113.958 E6.69769
G1 X103.918 Y92.687 E7.64118
G1 X103.206 Y91.703 E7.69502
G1 X103.206 Y114.753 E8.71739
G92 E0
G1 E-2.00000 F2400.00000
G1 X101.784 Y124.900 F7800.000
G1 E0.00000 F2400.00000
G1 F1800.000
G1 X101.784 Y42.998 E3.63277
G1 X101.073 Y42.998 E3.66432
G1 X101.073 Y124.740 E7.28999
G1 X100.361 Y124.740 E7.32153
G1 X100.361 Y42.998 E10.94720
G1 X99.650 Y42.998 E10.97875
G1 X99.650 Y124.740 E14.60442
G1 X98.939 Y124.740 E14.63597
G1 X98.939 Y42.998 E18.26164
G1 X98.228 Y42.998 E18.29319
G1 X98.228 Y127.547 E22.04337
G1 X97.516 Y127.547 E22.07491
G1 X97.516 Y42.998 E25.82509
G1 X96.805 Y42.998 E25.85664
G1 X96.805 Y127.547 E29.60682
G1 X96.094 Y127.547 E29.63836
G1 X96.094 Y42.998 E33.38854
G1 X95.383 Y42.998 E33.42009
G1 X95.383 Y133.161 E37.41928
G1 X94.671 Y133.161 E37.45083
G1 X94.671 Y52.694 E41.01996
G1 X93.960 Y55.949 E41.16777
G1 X93.960 Y131.187 E44.50495
G1 X93.249 Y130.708 E44.54298
G1 X93.249 Y57.601 E47.78565
G1 X92.988 Y57.657 E47.79750
G1 X92.538 Y57.655 E47.81746
G1 X92.538 Y130.229 E51.03647
G1 X91.827 Y129.750 E51.07451
G1 X91.827 Y57.651 E54.27242
G1 X91.115 Y57.648 E54.30396
G1 X91.115 Y129.271 E57.48078
G1 X90.404 Y128.791 E57.51882
G1 X90.404 Y57.644 E60.67454
G1 X89.693 Y57.641 E60.70608
G1 X89.693 Y128.312 E63.84071
G1 X88.982 Y127.810 E63.87932
G1 X88.982 Y57.637 E66.99184
G1 X88.270 Y57.633 E67.02339
G1 X88.270 Y128.514 E70.16728
G1 X87.559 Y129.823 E70.23334
G1 X87.559 Y54.226 E73.58641
G1 X86.848 Y54.226 E73.61796
G1 X86.848 Y131.131 E77.02908
G1 X86.648 Y131.500 E77.04768
G1 X86.626 Y131.637 E77.05386
G1 X86.848 Y132.807 E77.10665
G1 X86.848 Y133.161 E77.12238
G1 X86.137 Y133.161 E77.15393
G1 X86.137 Y113.175 E78.04043
G1 X85.425 Y113.175 E78.07198
G1 X85.425 Y133.161 E78.95849
G1 X84.714 Y133.161 E78.99003
G1 X84.714 Y113.175 E79.87654
G1 X84.003 Y113.175 E79.90809
G1 X84.003 Y133.321 E80.80169
G92 E0
G1 E-2.00000 F2400.00000
G1 X94.671 Y49.885 F7800.000
G1 E0.00000 F2400.00000
G1 F1800.000
G1 X94.671 Y45.805 E0.18097
G1 X93.960 Y45.805 E0.21252
G1 X93.960 Y48.434 E0.32912
G1 X93.573 Y47.809 E0.36171
G1 X93.249 Y47.514 E0.38116
G1 X93.249 Y45.805 E0.45696
G1 X92.538 Y45.805 E0.48851
G1 X92.538 Y46.892 E0.53674
G1 X91.827 Y46.270 E0.57864
G1 X91.827 Y45.645 E0.60638
G1 X90.404 Y46.195 F7800.000
G1 F1800.000
G1 X90.404 Y45.805 E0.62368
G1 X89.693 Y45.805 E0.65522
G1 X89.693 Y46.519 E0.68689
G1 X89.384 Y46.745 E0.70386
G1 X88.982 Y46.095 E0.73779
G1 X88.982 Y45.645 E0.75777
G92 E0
G1 E-2.00000 F2400.00000
G1 X86.137 Y88.408 F7800.000
G1 E0.00000 F2400.00000
G1 F1800.000
G1 X86.137 Y54.226 E1.51614
G1 X85.425 Y54.226 E1.54769
G1 X85.425 Y88.248 E3.05673
G1 X84.714 Y88.248 E3.08828
G1 X84.714 Y54.226 E4.59732
G1 X84.003 Y54.226 E4.62887
G1 X84.003 Y88.408 E6.14501
G92 E0
G1 E-2.00000 F2400.00000
G1 X89.204 Y129.580 F7800.000
G1 E0.00000 F2400.00000
G1 F900.000
G1 X92.898 Y132.068 E0.19755
G1 X92.500 Y134.652 E0.31350
G1 X88.552 Y134.652 E0.48858
G1 X88.002 Y131.782 E0.61818
G1 X89.176 Y129.632 E0.72682
G1 X89.079 Y129.067 F7800.000
G1 F900.000
G1 X93.284 Y131.899 E0.95170
G1 X92.805 Y135.007 E1.09118
G1 X88.258 Y135.007 E1.29283
G1 X87.629 Y131.724 E1.44113
G1 X89.051 Y129.119 E1.57275
G1 X88.954 Y128.554 F7800.000
G1 F900.000
G1 X93.670 Y131.731 E1.82495
G1 X93.110 Y135.363 E1.98797
G1 X87.964 Y135.363 E2.21617
G1 X87.255 Y131.665 E2.38317
G1 X88.926 Y128.606 E2.53777
G1 X89.181 Y128.883 F7800.000
G1 X89.605 Y130.171
G1 F1200.000
G1 X92.478 Y133.044 E2.71111
G1 X92.411 Y133.480 E2.72992
G1 X89.156 Y130.225 E2.92631
G1 X88.978 Y130.550 E2.94212
G1 X92.343 Y133.915 E3.14517
G1 X92.276 Y134.351 E3.16398
G1 X88.801 Y130.876 E3.37370
G1 X88.623 Y131.201 E3.38951
G1 X91.807 Y134.385 E3.58164
G1 X91.304 Y134.385 E3.60310
G1 X88.445 Y131.526 E3.77561
G1 X88.282 Y131.826 E3.79018
G1 X88.291 Y131.875 E3.79230
G1 X90.801 Y134.385 E3.94377
G1 X90.298 Y134.385 E3.96523
G1 X88.411 Y132.497 E4.07915
G1 X88.530 Y133.119 E4.10619
G1 X89.796 Y134.385 E4.18256
G1 X89.293 Y134.385 E4.20402
G1 X88.649 Y133.742 E4.24284
G1 X88.769 Y134.364 E4.26987
G1 X88.950 Y134.545 E4.28080
G92 E0
G1 E-2.00000 F2400.00000
G1 X90.940 Y131.071 F7800.000
G1 E0.00000 F2400.00000
G1 F1200.000
G1 X91.146 Y131.210 E0.01062
G1 X92.685 Y132.748 E0.10347
G92 E0
G1 E-2.00000 F2400.00000
G1 X104.432 Y119.738 F7800.000
G1 E0.00000 F2400.00000
G1 F900.000
G1 X103.968 Y115.634 E0.18322
G1 X107.135 Y113.018 E0.36543
G1 X108.333 Y115.425 E0.48465
G1 X107.743 Y120.312 E0.70302
G1 X106.255 Y120.312 E0.76902
G1 X104.489 Y119.756 E0.85111
G1 X104.105 Y120.008 F7800.000
G1 F900.000
G1 X103.593 Y115.482 E1.05314
G1 X107.254 Y112.459 E1.26376
G1 X108.699 Y115.361 E1.40757
G1 X108.058 Y120.668 E1.64464
G1 X106.200 Y120.668 E1.72704
G1 X104.162 Y120.026 E1.82182
G1 X103.777 Y120.278 F7800.000
G1 F900.000
G1 X103.218 Y115.331 E2.04265
G1 X107.373 Y111.900 E2.28169
G1 X109.065 Y115.298 E2.45008
G1 X108.373 Y121.024 E2.70586
G1 X106.067 Y121.024 E2.80817
G1 X106.049 Y120.993 E2.80973
G1 X103.835 Y120.296 E2.91270
G1 X103.988 Y119.938 F7800.000
G92 E0
G1 E-2.00000 F2400.00000
G1 X107.814 Y114.620 F7800.000
G1 E0.00000 F2400.00000
G1 F1200.000
G1 X106.819 Y113.626 E0.05827
G1 X106.543 Y113.853 E0.07306
G1 X107.956 Y115.266 E0.15581
G1 X108.059 Y115.472 E0.16536
G1 X108.016 Y115.828 E0.18022
G1 X106.268 Y114.080 E0.28259
G1 X105.992 Y114.308 E0.29739
G1 X107.961 Y116.277 E0.41273
G1 X107.907 Y116.726 E0.43145
G1 X105.717 Y114.535 E0.55975
G1 X105.441 Y114.763 E0.57454
G1 X107.853 Y117.174 E0.71580
G1 X107.799 Y117.623 E0.73453
G1 X105.166 Y114.990 E0.88875
G1 X104.891 Y115.218 E0.90355
G1 X107.745 Y118.072 E1.07073
G1 X107.690 Y118.521 E1.08945
G1 X104.615 Y115.445 E1.26960
G1 X104.340 Y115.673 E1.28440
G1 X107.636 Y118.969 E1.47750
G1 X107.582 Y119.418 E1.49623
G1 X104.292 Y116.128 E1.68895
G1 X104.356 Y116.695 E1.71259
G1 X107.528 Y119.867 E1.89839
G1 X107.506 Y120.046 E1.90585
G1 X107.204 Y120.046 E1.91838
G1 X104.420 Y117.262 E2.08143
G1 X104.484 Y117.829 E2.10507
G1 X106.701 Y120.046 E2.23490
G1 X106.296 Y120.046 E2.25168
G1 X106.153 Y120.001 E2.25788
G1 X104.549 Y118.396 E2.35186
G1 X104.613 Y118.963 E2.37550
G1 X105.419 Y119.770 E2.42273
G1 X104.685 Y119.538 E2.45460
G1 X104.495 Y119.349 E2.46570
G92 E0
G1 E-2.00000 F2400.00000
G1 X106.680 Y94.247 F7800.000
G1 E0.00000 F2400.00000
G1 F900.000
G1 X104.569 Y91.327 E0.15981
G1 X105.787 Y89.778 E0.24722
G1 X108.693 Y91.668 E0.40099
G1 X108.319 Y94.247 E0.51659
G1 X106.740 Y94.247 E0.58666
G1 X106.498 Y94.603 F7800.000
G1 F900.000
G1 X104.123 Y91.318 E0.76642
G1 X105.708 Y89.303 E0.88014
G1 X109.067 Y91.487 E1.05785
G1 X108.627 Y94.603 E1.19744
G1 X106.558 Y94.603 E1.28922
G1 X106.316 Y94.958 F7800.000
G1 F900.000
G1 X103.678 Y91.309 E1.48894
G1 X105.629 Y88.828 E1.62897
G1 X109.439 Y91.304 E1.83052
G1 X109.405 Y91.717 E1.84890
G1 X108.935 Y94.958 E1.99416
G1 X106.376 Y94.958 E2.10765
G1 X106.251 Y94.564 F7800.000
G92 E0
G1 E-2.00000 F2400.00000
G1 X105.376 Y92.263 F7800.000
G1 E0.00000 F2400.00000
G1 F1200.000
G1 X107.094 Y93.980 E0.10446
G1 X107.597 Y93.980 E0.12608
G1 X104.924 Y91.307 E0.28864
G1 X105.145 Y91.026 E0.30404
G1 X108.090 Y93.970 E0.48311
G1 X108.154 Y93.531 E0.50220
G1 X105.367 Y90.744 E0.67168
G1 X105.588 Y90.462 E0.68708
G1 X108.217 Y93.092 E0.84697
G1 X108.281 Y92.653 E0.86605
G1 X105.809 Y90.181 E1.01636
G1 X106.841 Y90.793 F7800.000
G1 F1200.000
G1 X107.047 Y90.916 E1.02668
G1 X108.486 Y92.355 E1.11417
G92 E0
G1 E-2.00000 F2400.00000
G1 X92.522 Y56.331 F7800.000
G1 E0.00000 F2400.00000
G1 F900.000
G1 X88.971 Y56.313 E0.15750
G1 X88.812 Y49.076 E0.47856
G1 X89.020 Y48.657 E0.49934
G1 X90.935 Y47.249 E0.60475
G1 X92.536 Y48.649 E0.69911
G1 X93.766 Y50.634 E0.80266
G1 X92.534 Y56.272 E1.05865
G1 X92.808 Y56.688 F7800.000
G1 F900.000
G1 X88.623 Y56.667 E1.24427
G1 X88.454 Y48.997 E1.58456
G1 X88.739 Y48.421 E1.61304
G1 X90.954 Y46.794 E1.73495
G1 X92.811 Y48.417 E1.84432
G1 X94.124 Y50.536 E1.95489
G1 X94.115 Y50.703 E1.96233
G1 X92.820 Y56.629 E2.23138
G1 X93.102 Y57.006 F7800.000
G1 F900.000
G1 X92.941 Y57.044 E2.23871
G1 X88.275 Y57.021 E2.44570
G1 X88.097 Y48.917 E2.80522
G1 X88.459 Y48.186 E2.84142
G1 X90.973 Y46.338 E2.97981
G1 X93.085 Y48.184 E3.10420
G1 X94.485 Y50.443 E3.22207
G1 X94.469 Y50.751 E3.23574
G1 X93.115 Y56.947 E3.51706
G1 X92.952 Y56.936 F7800.000
G92 E0
G1 E-2.00000 F2400.00000
G1 X93.643 Y50.637 F7800.000
G1 E0.00000 F2400.00000
G1 F1200.000
G1 X90.734 Y47.728 E0.17584
G1 X90.444 Y47.941 E0.19122
G1 X93.429 Y50.926 E0.37168
G1 X93.339 Y51.339 E0.38974
G1 X90.154 Y48.154 E0.58228
G1 X89.864 Y48.367 E0.59765
G1 X93.249 Y51.752 E0.80227
G1 X93.159 Y52.165 E0.82032
G1 X89.574 Y48.580 E1.03701
G1 X89.284 Y48.793 E1.05239
G1 X93.069 Y52.577 E1.28114
G1 X92.978 Y52.990 E1.29920
G1 X89.094 Y49.106 E1.53398
G1 X89.080 Y49.136 E1.53539
G1 X89.090 Y49.605 E1.55544
G1 X92.888 Y53.403 E1.78503
G1 X92.798 Y53.816 E1.80309
G1 X89.101 Y50.119 E2.02655
G1 X89.113 Y50.633 E2.04853
G1 X92.708 Y54.228 E2.26585
G1 X92.618 Y54.641 E2.28391
G1 X89.124 Y51.147 E2.49510
G1 X89.135 Y51.662 E2.51709
G1 X92.528 Y55.054 E2.72214
G1 X92.437 Y55.467 E2.74020
G1 X89.146 Y52.176 E2.93913
G1 X89.158 Y52.690 E2.96111
G1 X92.347 Y55.879 E3.15390
G1 X92.307 Y56.063 E3.16193
G1 X92.026 Y56.062 E3.17393
G1 X89.169 Y53.204 E3.34664
G1 X89.180 Y53.719 E3.36863
G1 X91.521 Y56.059 E3.51011
G1 X91.015 Y56.056 E3.53171
G1 X89.192 Y54.233 E3.64196
G1 X89.203 Y54.747 E3.66394
G1 X90.510 Y56.054 E3.74295
G1 X90.005 Y56.051 E3.76455
G1 X89.214 Y55.261 E3.81232
G1 X89.226 Y55.775 E3.83430
G1 X89.660 Y56.210 E3.86056
; stop printing object panter.stl id:0 copy 0
