; generated by Slic3r++ 2.2.50 on 2020-05-18 at 19:20:34 UTC

; 

; external perimeters extrusion width = 0.45mm
; perimeters extrusion width = 0.45mm
; infill extrusion width = 0.45mm
; solid infill extrusion width = 0.45mm
; top infill extrusion width = 0.40mm
; first layer extrusion width = 0.42mm

; object:{"name":"raspi_camera_2020_mount","id":"raspi_camera_2020_mount.stl id:0 copy 0","object_center":[58.729000,102.733600,58.729000],"boundingbox_center":[102.733600,15.500000,22.001118],"boundingbox_size":[18.000000,31.000000,0.000000]}
; object:{"name":"raspi_camera_holder","id":"raspi_camera_holder.stl id:1 copy 0","object_center":[105.657670,105.961348,105.657670],"boundingbox_center":[105.961348,4.250000,27.926968],"boundingbox_size":[39.000000,8.500000,0.000000]}

M201 X9000 Y9000 Z500 E10000 ; sets maximum accelerations, mm/sec^2
M203 X500 Y500 Z12 E120 ; sets maximum feedrates, mm/sec
M204 P1500 R1500 T1500 ; sets acceleration (P, T) and retract acceleration (R), mm/sec^2
M205 X10.00 Y10.00 Z0.20 E2.50 ; sets the jerk limits, mm/sec
M205 S0 T0 ; sets the minimum extruding and travel feed rate, mm/sec
M107
M190 S60 ; set bed temperature and wait for it to be reached
M104 S200 ; set temperature
G28 ; home all axes
G1 Z5 F5000 ; lift nozzle
M109 S200 ; set temperature and wait for it to be reached
G21 ; set units to millimeters
G90 ; use absolute coordinates
M82 ; use absolute distances for extrusion
G92 E0
; Filament gcode
G1 Z0.200 F7800.000
G1 E-2.00000 F2400.00000
G1 X47.377 Y88.521 F7800.000
G1 E0.00000 F2400.00000
M204 S1250
G1 F1800.000
G1 X48.641 Y88.027 E0.04255
G1 X50.323 Y87.645 E0.09662
G1 X99.513 Y80.355 E1.65578
G1 X100.609 Y80.273 E1.69026
G1 X110.664 Y80.273 E2.00551
G1 X112.237 Y80.427 E2.05509
G1 X113.830 Y80.916 E2.10731
G1 X114.715 Y81.349 E2.13822
G1 X115.498 Y81.863 E2.16759
G1 X116.681 Y82.919 E2.21731
G1 X117.192 Y83.532 E2.24234
G1 X124.736 Y93.978 E2.64634
G1 X125.294 Y94.988 E2.68251
G1 X125.654 Y96.084 E2.71869
G1 X125.810 Y97.437 E2.76138
G1 X125.780 Y126.063 E3.65893
G1 X125.652 Y126.851 E3.68396
G1 X125.421 Y127.621 E3.70919
G1 X125.091 Y128.355 E3.73442
G1 X124.673 Y129.036 E3.75945
G1 X124.167 Y129.661 E3.78467
G1 X123.588 Y130.211 E3.80971
G1 X122.939 Y130.686 E3.83493
G1 X122.238 Y131.069 E3.85997
G1 X120.997 Y131.495 E3.90113
G1 X119.699 Y131.649 E3.94210
G1 X91.657 Y131.650 E4.82133
G1 X90.263 Y131.482 E4.86536
G1 X48.080 Y117.244 E6.26128
G1 X47.228 Y116.874 E6.29042
G1 X46.290 Y116.349 E6.32413
G1 X45.422 Y115.735 E6.35745
G1 X44.694 Y115.102 E6.38769
G1 X43.583 Y113.849 E6.44023
G1 X43.045 Y113.063 E6.47008
G1 X42.516 Y112.085 E6.50494
G1 X42.111 Y111.096 E6.53846
G1 X41.809 Y110.058 E6.57236
G1 X41.615 Y108.969 E6.60703
G1 X41.546 Y108.013 E6.63707
G1 X41.541 Y97.623 E6.96285
G1 X41.603 Y96.602 E6.99492
G1 X41.767 Y95.596 E7.02689
G1 X42.093 Y94.424 E7.06502
G1 X42.529 Y93.354 E7.10123
G1 X43.090 Y92.331 E7.13783
G1 X43.753 Y91.393 E7.17384
G1 X44.526 Y90.527 E7.21024
G1 X45.388 Y89.758 E7.24645
G1 X46.331 Y89.092 E7.28266
G1 X47.325 Y88.550 E7.31814
M204 S1500
; printing object raspi_camera_2020_mount.stl id:0 copy 0
G92 E0
G1 E-2.00000 F2400.00000
G1 X51.939 Y100.188 F7800.000
G1 E0.00000 F2400.00000
M204 S1250
G1 F900.000
G1 X51.531 Y100.391 E0.01428
G1 X51.167 Y100.665 E0.02856
G1 X50.861 Y101.002 E0.04284
G1 X50.621 Y101.389 E0.05713
G1 X50.456 Y101.814 E0.07141
G1 X50.373 Y102.262 E0.08569
G1 X50.373 Y102.717 E0.09997
G1 X50.456 Y103.165 E0.11425
G1 X50.621 Y103.590 E0.12853
G1 X50.861 Y103.977 E0.14282
G1 X51.167 Y104.313 E0.15710
G1 X51.531 Y104.588 E0.17138
G1 X51.939 Y104.791 E0.18566
G1 X52.377 Y104.916 E0.19994
G1 X52.830 Y104.958 E0.21422
G1 X53.284 Y104.916 E0.22850
G1 X53.722 Y104.791 E0.24279
G1 X54.130 Y104.588 E0.25707
G1 X54.493 Y104.313 E0.27135
G1 X54.800 Y103.977 E0.28563
G1 X55.040 Y103.590 E0.29991
G1 X55.204 Y103.165 E0.31419
G1 X55.288 Y102.717 E0.32848
G1 X55.288 Y102.262 E0.34276
G1 X55.204 Y101.814 E0.35704
G1 X55.040 Y101.389 E0.37132
G1 X54.800 Y101.002 E0.38560
G1 X54.493 Y100.665 E0.39988
G1 X54.130 Y100.391 E0.41417
G1 X53.722 Y100.188 E0.42845
G1 X53.284 Y100.063 E0.44273
G1 X52.830 Y100.021 E0.45701
G1 X52.377 Y100.063 E0.47129
G1 X51.996 Y100.171 E0.48369
M204 S1500
G1 X52.100 Y100.534 F7800.000
M204 S1250
G1 F900.000
G1 X51.730 Y100.713 E0.49656
G1 X51.423 Y100.945 E0.50865
G1 X51.163 Y101.230 E0.52074
G1 X50.960 Y101.558 E0.53283
G1 X50.820 Y101.917 E0.54492
G1 X50.750 Y102.297 E0.55701
G1 X50.750 Y102.682 E0.56910
G1 X50.820 Y103.061 E0.58119
G1 X50.960 Y103.421 E0.59328
G1 X51.163 Y103.749 E0.60537
G1 X51.423 Y104.034 E0.61746
G1 X51.730 Y104.266 E0.62955
G1 X51.950 Y104.375 E0.63725
G1 X52.075 Y104.438 E0.64164
G1 X52.446 Y104.543 E0.65373
G1 X52.830 Y104.579 E0.66582
G1 X53.214 Y104.543 E0.67791
G1 X53.585 Y104.438 E0.69000
G1 X53.930 Y104.266 E0.70209
G1 X54.238 Y104.034 E0.71418
G1 X54.498 Y103.749 E0.72627
G1 X54.701 Y103.421 E0.73836
G1 X54.840 Y103.061 E0.75045
G1 X54.911 Y102.682 E0.76254
G1 X54.911 Y102.297 E0.77464
G1 X54.840 Y101.917 E0.78673
G1 X54.701 Y101.558 E0.79882
G1 X54.498 Y101.230 E0.81091
G1 X54.238 Y100.945 E0.82300
G1 X53.930 Y100.713 E0.83509
G1 X53.585 Y100.541 E0.84718
G1 X53.214 Y100.435 E0.85927
G1 X52.830 Y100.400 E0.87136
G1 X52.446 Y100.435 E0.88345
G1 X52.157 Y100.518 E0.89287
M204 S1500
G1 X51.786 Y101.143 F7800.000
M204 S1250
G1 F900.000
G1 X51.678 Y101.225 E0.89713
G1 X51.465 Y101.458 E0.90703
G1 X51.299 Y101.727 E0.91693
G1 X51.185 Y102.021 E0.92683
G1 X51.127 Y102.331 E0.93673
G1 X51.127 Y102.647 E0.94663
G1 X51.185 Y102.958 E0.95653
G1 X51.299 Y103.252 E0.96643
G1 X51.465 Y103.520 E0.97633
G1 X51.678 Y103.754 E0.98622
G1 X51.930 Y103.944 E0.99612
G1 X52.212 Y104.085 E1.00602
G1 X52.516 Y104.171 E1.01592
G1 X52.830 Y104.200 E1.02582
G1 X53.145 Y104.171 E1.03572
G1 X53.448 Y104.085 E1.04562
G1 X53.731 Y103.944 E1.05552
G1 X53.983 Y103.754 E1.06542
G1 X54.196 Y103.520 E1.07532
G1 X54.362 Y103.252 E1.08522
G1 X54.476 Y102.958 E1.09512
G1 X54.534 Y102.647 E1.10502
G1 X54.534 Y102.331 E1.11492
G1 X54.476 Y102.021 E1.12482
G1 X54.362 Y101.727 E1.13471
G1 X54.196 Y101.458 E1.14461
G1 X53.983 Y101.225 E1.15451
G1 X53.731 Y101.035 E1.16441
G1 X53.448 Y100.894 E1.17431
G1 X53.145 Y100.808 E1.18421
G1 X52.830 Y100.778 E1.19411
G1 X52.516 Y100.808 E1.20401
G1 X52.212 Y100.894 E1.21391
G1 X51.930 Y101.035 E1.22381
G1 X51.834 Y101.107 E1.22757
M204 S1500
G1 X51.661 Y101.090 F7800.000
G92 E0
G1 E-2.00000 F2400.00000
G1 X68.764 Y110.769 F7800.000
G1 E0.00000 F2400.00000
M204 S1250
G1 F1800.000
G1 X51.756 Y110.769 E0.53330
G1 X51.389 Y110.749 E0.54482
G1 X51.053 Y110.692 E0.55549
G1 X50.726 Y110.598 E0.56616
G1 X50.412 Y110.467 E0.57682
G1 X50.114 Y110.303 E0.58749
G1 X49.837 Y110.106 E0.59816
G1 X49.583 Y109.879 E0.60883
G1 X49.356 Y109.625 E0.61950
G1 X49.159 Y109.348 E0.63017
G1 X48.995 Y109.050 E0.64084
G1 X48.864 Y108.736 E0.65151
G1 X48.770 Y108.409 E0.66218
G1 X48.713 Y108.073 E0.67285
G1 X48.693 Y107.707 E0.68436
G1 X48.693 Y97.761 E0.99621
G1 X48.713 Y97.394 E1.00773
G1 X48.770 Y97.058 E1.01840
G1 X48.864 Y96.731 E1.02907
G1 X49.055 Y96.308 E1.04361
G1 X49.159 Y96.119 E1.05039
G1 X49.356 Y95.842 E1.06106
G1 X49.583 Y95.588 E1.07172
G1 X49.837 Y95.361 E1.08239
G1 X50.114 Y95.164 E1.09306
G1 X50.412 Y95.000 E1.10373
G1 X50.726 Y94.870 E1.11440
G1 X51.053 Y94.775 E1.12507
G1 X51.389 Y94.718 E1.13574
G1 X51.756 Y94.698 E1.14726
G1 X68.764 Y94.698 E1.68056
G1 X68.764 Y110.709 E2.18259
M204 S1500
G1 X69.141 Y111.147 F7800.000
M204 S1250
G1 F1800.000
G1 X51.745 Y111.147 E2.72804
G1 X51.346 Y111.124 E2.74056
G1 X50.969 Y111.060 E2.75256
G1 X50.602 Y110.954 E2.76455
G1 X50.248 Y110.808 E2.77655
G1 X49.913 Y110.623 E2.78855
G1 X49.601 Y110.401 E2.80054
G1 X49.316 Y110.146 E2.81254
G1 X49.061 Y109.861 E2.82454
G1 X48.839 Y109.549 E2.83653
G1 X48.654 Y109.214 E2.84853
G1 X48.508 Y108.861 E2.86053
G1 X48.402 Y108.493 E2.87252
G1 X48.338 Y108.116 E2.88452
G1 X48.316 Y107.717 E2.89704
G1 X48.316 Y97.750 E3.20955
G1 X48.338 Y97.352 E3.22206
G1 X48.402 Y96.974 E3.23406
G1 X48.508 Y96.607 E3.24605
G1 X48.654 Y96.253 E3.25805
G1 X48.839 Y95.918 E3.27005
G1 X49.061 Y95.606 E3.28204
G1 X49.316 Y95.321 E3.29404
G1 X49.601 Y95.066 E3.30604
G1 X49.913 Y94.845 E3.31804
G1 X50.248 Y94.659 E3.33003
G1 X50.602 Y94.513 E3.34203
G1 X50.969 Y94.407 E3.35403
G1 X51.346 Y94.343 E3.36602
G1 X51.745 Y94.321 E3.37854
G1 X69.141 Y94.321 E3.92399
G1 X69.141 Y111.087 E4.44967
M204 S1500
G1 X69.518 Y111.524 F7800.000
M204 S1250
G1 F1800.000
G1 X51.734 Y111.524 E5.00728
G1 X51.304 Y111.499 E5.02079
G1 X50.885 Y111.428 E5.03412
G1 X50.477 Y111.311 E5.04744
G1 X50.084 Y111.148 E5.06076
G1 X49.712 Y110.942 E5.07409
G1 X49.366 Y110.696 E5.08741
G1 X49.049 Y110.413 E5.10074
G1 X48.766 Y110.096 E5.11406
G1 X48.520 Y109.750 E5.12739
G1 X48.314 Y109.378 E5.14071
G1 X48.151 Y108.985 E5.15404
G1 X48.034 Y108.577 E5.16736
G1 X47.963 Y108.158 E5.18069
G1 X47.938 Y107.728 E5.19420
G1 X47.938 Y97.739 E5.50737
G1 X47.963 Y97.309 E5.52088
G1 X48.034 Y96.890 E5.53421
G1 X48.151 Y96.482 E5.54753
G1 X48.314 Y96.089 E5.56086
G1 X48.520 Y95.717 E5.57418
G1 X48.766 Y95.371 E5.58751
G1 X49.049 Y95.054 E5.60083
G1 X49.366 Y94.771 E5.61416
G1 X49.712 Y94.525 E5.62748
G1 X50.084 Y94.319 E5.64081
G1 X50.477 Y94.157 E5.65413
G1 X50.885 Y94.039 E5.66746
G1 X51.304 Y93.968 E5.68078
G1 X51.734 Y93.944 E5.69429
G1 X69.518 Y93.944 E6.25190
G1 X69.518 Y111.464 E6.80123
M204 S1500
G1 X69.172 Y111.324 F7800.000
G92 E0
G1 E-2.00000 F2400.00000
G1 X56.538 Y110.656 F7800.000
G1 E0.00000 F2400.00000
M204 S1250
G1 F1200.000
G1 X48.975 Y103.094 E0.32733
G1 X48.975 Y103.627 E0.34365
G1 X55.835 Y110.487 E0.64055
G1 X55.301 Y110.487 E0.65687
G1 X48.975 Y104.161 E0.93069
G1 X48.975 Y104.694 E0.94701
G1 X54.768 Y110.487 E1.19774
G1 X54.235 Y110.487 E1.21406
G1 X48.975 Y105.227 E1.44172
G1 X48.975 Y105.760 E1.45804
G1 X53.702 Y110.487 E1.66261
G1 X53.168 Y110.487 E1.67893
G1 X48.975 Y106.294 E1.86042
G1 X48.975 Y106.827 E1.87674
G1 X52.635 Y110.487 E2.03514
G1 X52.102 Y110.487 E2.05147
G1 X48.975 Y107.360 E2.18679
G1 X48.987 Y107.905 E2.20347
G1 X51.557 Y110.475 E2.31471
G1 X51.116 Y110.416 E2.32831
G1 X50.903 Y110.354 E2.33511
G1 X48.870 Y108.322 E2.42310
M204 S1500
G92 E0
G1 E-2.00000 F2400.00000
G1 X49.609 Y95.729 F7800.000
G1 E0.00000 F2400.00000
M204 S1250
G1 F1200.000
G1 X53.795 Y99.914 E0.18118
G1 X53.336 Y99.784 E0.19578
G1 X53.110 Y99.763 E0.20273
G1 X49.490 Y96.142 E0.35944
G1 X49.290 Y96.476 E0.37134
G1 X52.575 Y99.761 E0.51353
G1 X52.325 Y99.784 E0.52121
G1 X52.122 Y99.842 E0.52765
G1 X49.126 Y96.845 E0.65734
G1 X49.021 Y97.273 E0.67083
G1 X51.725 Y99.978 E0.78790
G1 X51.371 Y100.157 E0.80005
G1 X48.976 Y97.762 E0.90373
G1 X48.975 Y98.295 E0.92004
G1 X51.067 Y100.387 E1.01058
G1 X50.976 Y100.455 E1.01408
G1 X50.798 Y100.651 E1.02217
G1 X48.975 Y98.828 E1.10106
G1 X48.975 Y99.361 E1.11738
G1 X50.562 Y100.947 E1.18604
G1 X50.360 Y101.279 E1.19792
G1 X48.975 Y99.894 E1.25785
G1 X48.975 Y100.428 E1.27418
G1 X50.211 Y101.664 E1.32767
G1 X50.115 Y102.101 E1.34136
G1 X48.975 Y100.961 E1.39068
G1 X48.975 Y101.494 E1.40701
G1 X50.090 Y102.609 E1.45524
G1 X50.090 Y102.743 E1.45936
G1 X50.181 Y103.234 E1.47462
G1 X48.975 Y102.028 E1.52682
G1 X48.975 Y102.561 E1.54315
G1 X56.901 Y110.487 E1.88621
G1 X57.434 Y110.487 E1.90253
G1 X52.070 Y105.122 E2.13472
G1 X52.325 Y105.195 E2.14281
G1 X52.712 Y105.231 E2.15471
G1 X57.968 Y110.487 E2.38222
G1 X58.501 Y110.487 E2.39854
G1 X53.220 Y105.206 E2.62713
G1 X53.336 Y105.195 E2.63070
G1 X53.652 Y105.105 E2.64076
G1 X59.034 Y110.487 E2.87372
G1 X59.568 Y110.487 E2.89004
G1 X54.033 Y104.952 E3.12960
G1 X54.279 Y104.829 E3.13802
G1 X54.373 Y104.759 E3.14162
G1 X60.101 Y110.487 E3.38955
G1 X60.634 Y110.487 E3.40587
G1 X54.677 Y104.529 E3.66374
G1 X54.932 Y104.252 E3.67529
G1 X61.167 Y110.487 E3.94517
G1 X61.701 Y110.487 E3.96149
G1 X55.155 Y103.941 E4.24482
G1 X55.294 Y103.716 E4.25291
G1 X55.341 Y103.594 E4.25692
G1 X62.234 Y110.487 E4.55526
G1 X62.767 Y110.487 E4.57158
G1 X55.485 Y103.204 E4.88680
G1 X55.569 Y102.755 E4.90079
G1 X63.300 Y110.487 E5.23546
G1 X63.834 Y110.487 E5.25178
G1 X55.568 Y102.221 E5.60955
G1 X55.477 Y101.736 E5.62465
G1 X55.390 Y101.509 E5.63210
G1 X64.367 Y110.487 E6.02068
G1 X64.900 Y110.487 E6.03700
G1 X50.004 Y95.591 E6.68176
G1 X50.320 Y95.373 E6.69350
G1 X65.434 Y110.487 E7.34767
G1 X65.967 Y110.487 E7.36399
G1 X50.676 Y95.196 E8.02582
G1 X50.820 Y95.137 E8.03057
G1 X51.076 Y95.063 E8.03874
G1 X66.500 Y110.487 E8.70635
G1 X67.033 Y110.487 E8.72267
G1 X51.540 Y94.993 E9.39330
G1 X52.061 Y94.981 E9.40924
G1 X67.567 Y110.487 E10.08041
G1 X68.100 Y110.487 E10.09673
G1 X52.594 Y94.981 E10.76791
G1 X53.127 Y94.981 E10.78423
G1 X68.482 Y110.335 E11.44884
G1 X68.482 Y109.802 E11.46516
G1 X53.660 Y94.981 E12.10668
G1 X54.194 Y94.981 E12.12300
G1 X68.482 Y109.268 E12.74145
G1 X68.482 Y108.735 E12.75777
G1 X54.727 Y94.981 E13.35313
G1 X55.260 Y94.981 E13.36945
G1 X68.482 Y108.202 E13.94173
G1 X68.482 Y107.669 E13.95805
G1 X55.793 Y94.981 E14.50725
G1 X56.327 Y94.981 E14.52357
G1 X68.482 Y107.135 E15.04969
G1 X68.482 Y106.602 E15.06601
G1 X56.860 Y94.981 E15.56904
G1 X57.393 Y94.981 E15.58536
G1 X68.482 Y106.069 E16.06531
G1 X68.482 Y105.536 E16.08163
G1 X57.926 Y94.981 E16.53850
G1 X58.460 Y94.981 E16.55482
G1 X68.482 Y105.002 E16.98861
G1 X68.482 Y104.469 E17.00493
G1 X58.993 Y94.981 E17.41563
G1 X59.526 Y94.981 E17.43196
G1 X68.482 Y103.936 E17.81958
G1 X68.482 Y103.402 E17.83590
G1 X60.060 Y94.981 E18.20044
G1 X60.593 Y94.981 E18.21676
G1 X68.482 Y102.869 E18.55821
G1 X68.482 Y102.336 E18.57454
G1 X61.126 Y94.981 E18.89291
G1 X61.659 Y94.981 E18.90923
G1 X68.482 Y101.803 E19.20452
G1 X68.482 Y101.269 E19.22085
G1 X62.193 Y94.981 E19.49306
G1 X62.726 Y94.981 E19.50938
G1 X68.482 Y100.736 E19.75850
G1 X68.482 Y100.203 E19.77483
G1 X63.259 Y94.981 E20.00087
G1 X63.792 Y94.981 E20.01719
G1 X68.482 Y99.670 E20.22016
G1 X68.482 Y99.136 E20.23648
G1 X64.326 Y94.981 E20.41636
G1 X64.859 Y94.981 E20.43268
G1 X68.482 Y98.603 E20.58948
G1 X68.482 Y98.070 E20.60580
G1 X65.392 Y94.981 E20.73952
G1 X65.926 Y94.981 E20.75584
G1 X68.482 Y97.537 E20.86647
G1 X68.482 Y97.003 E20.88279
G1 X66.459 Y94.981 E20.97035
G1 X66.992 Y94.981 E20.98667
G1 X68.482 Y96.470 E21.05114
G1 X68.482 Y95.937 E21.06746
G1 X67.525 Y94.981 E21.10884
G1 X68.059 Y94.981 E21.12517
G1 X68.651 Y95.573 E21.15082
M204 S1500
; stop printing object raspi_camera_2020_mount.stl id:0 copy 0
; printing object raspi_camera_holder.stl id:1 copy 0
G92 E0
G1 E-2.00000 F2400.00000
G1 X92.658 Y98.426 F7800.000
G1 E0.00000 F2400.00000
M204 S1250
G1 F1800.000
G1 X97.310 Y98.426 E0.14586
G1 X99.622 Y92.647 E0.34100
G1 X99.622 Y88.503 E0.47092
G1 X99.641 Y88.282 E0.47789
G1 X99.688 Y88.108 E0.48353
G1 X99.764 Y87.945 E0.48917
G1 X99.867 Y87.798 E0.49481
G1 X99.994 Y87.671 E0.50045
G1 X100.142 Y87.567 E0.50609
G1 X100.305 Y87.491 E0.51173
G1 X100.478 Y87.445 E0.51737
G1 X100.694 Y87.426 E0.52414
G1 X100.694 Y94.430 E0.74375
G1 X100.433 Y98.426 E0.86929
G1 X110.882 Y98.426 E1.19690
G1 X110.622 Y94.430 E1.32244
G1 X110.622 Y87.426 E1.54205
G1 X110.837 Y87.445 E1.54881
G1 X111.011 Y87.491 E1.55446
G1 X111.174 Y87.567 E1.56010
G1 X111.321 Y87.671 E1.56574
G1 X111.448 Y87.798 E1.57138
G1 X111.552 Y87.945 E1.57702
G1 X111.628 Y88.108 E1.58266
G1 X111.674 Y88.282 E1.58830
G1 X111.694 Y88.503 E1.59527
G1 X111.694 Y92.647 E1.72519
G1 X114.005 Y98.426 E1.92033
G1 X118.657 Y98.426 E2.06619
G1 X118.657 Y106.497 E2.31927
G1 X105.592 Y106.497 E2.72891
G1 X105.023 Y106.532 E2.74680
G1 X104.433 Y106.640 E2.76560
G1 X103.860 Y106.818 E2.78440
G1 X103.313 Y107.064 E2.80321
G1 X102.800 Y107.374 E2.82201
G1 X102.328 Y107.744 E2.84081
G1 X101.904 Y108.168 E2.85961
G1 X101.534 Y108.640 E2.87842
G1 X101.224 Y109.154 E2.89722
G1 X100.978 Y109.700 E2.91602
G1 X100.889 Y109.987 E2.92542
G1 X100.800 Y110.273 E2.93482
G1 X100.691 Y110.863 E2.95362
G1 X100.655 Y111.461 E2.97243
G1 X100.691 Y112.060 E2.99123
G1 X100.800 Y112.650 E3.01003
G1 X100.978 Y113.222 E3.02883
