; generated by Slic3r++ 2.2.50 on 2020-06-05 at 21:35:51 UTC

; 

; external perimeters extrusion width = 0.45mm
; perimeters extrusion width = 0.45mm
; infill extrusion width = 0.45mm
; solid infill extrusion width = 0.45mm
; top infill extrusion width = 0.40mm
; first layer extrusion width = 0.42mm

; object:{"name":"Stormtrooper","id":"Stormtrooper.STL id:0 copy 0","object_center":[100.000000,100.000000,100.000000],"boundingbox_center":[100.000000,4.500000,44.579865],"boundingbox_size":[66.117367,9.000001,0.000000]}

M201 X9000 Y9000 Z500 E10000 ; sets maximum accelerations, mm/sec^2
M203 X500 Y500 Z12 E120 ; sets maximum feedrates, mm/sec
M204 P1500 R1500 T1500 ; sets acceleration (P, T) and retract acceleration (R), mm/sec^2
M205 X10.00 Y10.00 Z0.20 E2.50 ; sets the jerk limits, mm/sec
M205 S0 T0 ; sets the minimum extruding and travel feed rate, mm/sec
M107
M190 S60 ; set bed temperature and wait for it to be reached
M104 S205 ; set temperature
G28 ; home all axes
G1 Z5 F5000 ; lift nozzle
M109 S205 ; set temperature and wait for it to be reached
G21 ; set units to millimeters
G90 ; use absolute coordinates
M82 ; use absolute distances for extrusion
G92 E0
; Filament gcode
G1 Z0.200 F7800.000
G1 E-2.00000 F2400.00000
G1 X83.662 Y66.636 F7800.000
G1 E0.00000 F2400.00000
M204 S1250
G1 F1200.000
G1 X85.146 Y65.199 E0.06477
G1 X86.740 Y63.997 E0.12735
G1 X89.126 Y62.666 E0.21304
G1 X90.993 Y61.909 E0.27618
G1 X93.080 Y61.327 E0.34413
G1 X95.691 Y60.921 E0.42697
G1 X100.007 Y60.753 E0.56239
G1 X102.644 Y60.810 E0.64511
G1 X104.930 Y60.992 E0.71702
G1 X107.221 Y61.397 E0.78995
G1 X109.799 Y62.199 E0.87459
G1 X112.106 Y63.290 E0.95463
G1 X114.132 Y64.619 E1.03060
G1 X116.128 Y66.413 E1.11474
G1 X117.384 Y67.863 E1.17490
G1 X118.533 Y69.538 E1.23857
G1 X119.836 Y72.048 E1.32725
G1 X120.522 Y73.980 E1.39151
G1 X120.917 Y75.768 E1.44893
G1 X123.555 Y90.595 E1.92112
G1 X128.377 Y125.157 E3.01528
G1 X128.473 Y127.216 E3.07993
G1 X128.189 Y129.434 E3.15004
G1 X127.643 Y131.259 E3.20978
G1 X126.773 Y133.065 E3.27260
G1 X125.607 Y134.731 E3.33637
G1 X124.395 Y135.988 E3.39110
G1 X123.662 Y136.604 E3.42113
G1 X122.002 Y137.701 E3.48353
G1 X120.380 Y138.453 E3.53960
G1 X118.459 Y139.004 E3.60223
G1 X116.224 Y139.247 E3.67273
G1 X83.815 Y139.247 E4.68888
G1 X81.331 Y138.957 E4.76730
G1 X79.478 Y138.399 E4.82800
G1 X77.596 Y137.478 E4.89370
G1 X75.922 Y136.279 E4.95824
G1 X74.433 Y134.779 E5.02452
G1 X73.246 Y133.097 E5.08907
G1 X72.340 Y131.214 E5.15457
G1 X71.762 Y129.213 E5.21989
G1 X71.525 Y127.150 E5.28501
G1 X71.635 Y125.057 E5.35071
G1 X76.611 Y89.562 E6.47453
G1 X79.252 Y74.862 E6.94281
G1 X79.835 Y72.883 E7.00748
G1 X80.583 Y71.146 E7.06679
G1 X81.935 Y68.805 E7.15155
G1 X83.624 Y66.683 E7.23660
M204 S1500
; printing object Stormtrooper.STL id:0 copy 0
G92 E0
G1 E-2.00000 F2400.00000
G1 X104.252 Y71.291 F7800.000
G1 E0.00000 F2400.00000
M204 S1250
G1 F900.000
G1 X104.171 Y71.766 E0.01510
G1 X104.171 Y72.247 E0.03020
G1 X104.252 Y72.722 E0.04530
G1 X104.413 Y73.176 E0.06040
G1 X104.648 Y73.596 E0.07550
G1 X104.950 Y73.971 E0.09059
G1 X105.312 Y74.289 E0.10569
G1 X105.722 Y74.542 E0.12079
G1 X106.169 Y74.721 E0.13589
G1 X106.639 Y74.823 E0.15099
G1 X107.121 Y74.843 E0.16609
G1 X107.598 Y74.782 E0.18119
G1 X108.059 Y74.641 E0.19629
G1 X108.489 Y74.424 E0.21139
G1 X108.876 Y74.138 E0.22649
G1 X109.209 Y73.790 E0.24158
G1 X109.479 Y73.391 E0.25668
G1 X109.677 Y72.952 E0.27178
G1 X109.798 Y72.486 E0.28688
G1 X109.839 Y72.007 E0.30198
G1 X109.798 Y71.527 E0.31708
G1 X109.677 Y71.061 E0.33218
G1 X109.479 Y70.622 E0.34728
G1 X109.209 Y70.223 E0.36238
G1 X108.876 Y69.875 E0.37748
G1 X108.489 Y69.589 E0.39258
G1 X108.059 Y69.372 E0.40767
G1 X107.598 Y69.231 E0.42277
G1 X107.120 Y69.170 E0.43787
G1 X106.639 Y69.190 E0.45297
G1 X106.169 Y69.292 E0.46807
G1 X105.722 Y69.471 E0.48317
G1 X105.312 Y69.724 E0.49827
G1 X104.950 Y70.042 E0.51337
G1 X104.648 Y70.417 E0.52847
G1 X104.413 Y70.837 E0.54357
G1 X104.272 Y71.235 E0.55678
M204 S1500
G1 X104.628 Y71.360 F7800.000
M204 S1250
G1 F900.000
G1 X104.548 Y71.798 E0.57073
G1 X104.548 Y72.215 E0.58382
G1 X104.619 Y72.627 E0.59691
G1 X104.758 Y73.020 E0.60999
G1 X104.961 Y73.385 E0.62308
G1 X105.223 Y73.709 E0.63617
G1 X105.537 Y73.985 E0.64925
G1 X105.892 Y74.204 E0.66234
G1 X106.279 Y74.359 E0.67542
G1 X106.687 Y74.447 E0.68851
G1 X107.104 Y74.465 E0.70160
G1 X107.518 Y74.412 E0.71468
G1 X107.918 Y74.290 E0.72777
G1 X108.290 Y74.102 E0.74086
G1 X108.626 Y73.854 E0.75394
G1 X108.915 Y73.552 E0.76703
G1 X109.148 Y73.207 E0.78012
G1 X109.320 Y72.826 E0.79320
G1 X109.425 Y72.422 E0.80629
G1 X109.461 Y72.007 E0.81938
G1 X109.425 Y71.591 E0.83246
G1 X109.320 Y71.187 E0.84555
G1 X109.148 Y70.806 E0.85863
G1 X108.915 Y70.461 E0.87172
G1 X108.626 Y70.159 E0.88481
G1 X108.290 Y69.911 E0.89789
G1 X107.918 Y69.723 E0.91098
G1 X107.518 Y69.601 E0.92407
G1 X107.104 Y69.548 E0.93715
G1 X106.687 Y69.566 E0.95024
G1 X106.279 Y69.654 E0.96333
G1 X105.892 Y69.809 E0.97641
G1 X105.537 Y70.028 E0.98950
G1 X105.223 Y70.304 E1.00259
G1 X104.961 Y70.629 E1.01567
G1 X104.758 Y70.993 E1.02876
G1 X104.648 Y71.304 E1.03909
M204 S1500
G1 X104.245 Y71.475 F7800.000
G92 E0
G1 E-2.00000 F2400.00000
G1 X108.090 Y106.211 F7800.000
G1 E0.00000 F2400.00000
M204 S1250
G1 F1200.000
G1 X106.826 Y106.106 E0.03976
G1 X93.174 Y106.106 E0.46781
G1 X91.910 Y106.211 E0.50757
G1 X90.642 Y106.535 E0.54859
G1 X89.446 Y107.064 E0.58962
G1 X88.374 Y107.770 E0.62986
G1 X87.396 Y108.674 E0.67162
G1 X86.598 Y109.713 E0.71269
G1 X85.984 Y110.868 E0.75371
G1 X85.583 Y112.071 E0.79348
G1 X82.340 Y125.388 E1.22323
G1 X82.277 Y125.789 E1.23593
G1 X82.281 Y126.233 E1.24988
G1 X82.357 Y126.672 E1.26383
G1 X82.504 Y127.091 E1.27778
G1 X82.718 Y127.482 E1.29172
G1 X82.993 Y127.831 E1.30567
G1 X83.321 Y128.131 E1.31962
G1 X83.695 Y128.374 E1.33357
G1 X84.102 Y128.551 E1.34752
G1 X84.534 Y128.660 E1.36146
G1 X84.937 Y128.693 E1.37416
G1 X115.063 Y128.693 E2.31872
G1 X115.466 Y128.660 E2.33142
G1 X115.898 Y128.551 E2.34537
G1 X116.305 Y128.374 E2.35932
G1 X116.679 Y128.131 E2.37327
G1 X117.007 Y127.831 E2.38721
G1 X117.133 Y127.672 E2.39359
G1 X117.282 Y127.482 E2.40116
G1 X117.496 Y127.091 E2.41511
G1 X117.643 Y126.672 E2.42906
G1 X117.719 Y126.233 E2.44301
G1 X117.723 Y125.789 E2.45696
G1 X117.660 Y125.388 E2.46966
G1 X114.417 Y112.071 E2.89941
G1 X114.016 Y110.868 E2.93917
G1 X113.402 Y109.713 E2.98020
G1 X112.605 Y108.675 E3.02122
G1 X111.647 Y107.784 E3.06225
G1 X110.554 Y107.064 E3.10327
G1 X109.358 Y106.535 E3.14430
G1 X108.148 Y106.226 E3.18345
M204 S1500
G1 X108.055 Y106.592 F7800.000
M204 S1250
G1 F1200.000
G1 X106.810 Y106.483 E3.22261
G1 X93.190 Y106.483 E3.64967
G1 X91.973 Y106.584 E3.68795
G1 X90.766 Y106.892 E3.72701
G1 X89.627 Y107.396 E3.76606
G1 X88.607 Y108.068 E3.80434
G1 X87.676 Y108.929 E3.84413
G1 X86.916 Y109.917 E3.88321
G1 X86.332 Y111.017 E3.92226
G1 X85.945 Y112.175 E3.96054
G1 X82.710 Y125.463 E4.38932
G1 X82.655 Y125.817 E4.40056
G1 X82.658 Y126.199 E4.41256
G1 X82.723 Y126.576 E4.42456
G1 X82.850 Y126.937 E4.43655
G1 X83.034 Y127.273 E4.44855
G1 X83.270 Y127.574 E4.46055
G1 X83.553 Y127.832 E4.47255
G1 X83.874 Y128.040 E4.48455
G1 X84.225 Y128.193 E4.49655
G1 X84.596 Y128.287 E4.50855
G1 X84.953 Y128.316 E4.51979
G1 X115.047 Y128.316 E5.46337
G1 X115.404 Y128.287 E5.47461
G1 X115.775 Y128.193 E5.48661
G1 X116.126 Y128.040 E5.49861
G1 X116.447 Y127.832 E5.51061
G1 X116.730 Y127.574 E5.52260
G1 X116.836 Y127.439 E5.52800
G1 X116.966 Y127.273 E5.53460
G1 X117.150 Y126.937 E5.54660
G1 X117.277 Y126.576 E5.55860
G1 X117.342 Y126.199 E5.57060
G1 X117.345 Y125.817 E5.58260
G1 X117.289 Y125.463 E5.59384
G1 X114.055 Y112.175 E6.02261
G1 X113.668 Y111.017 E6.06090
G1 X113.084 Y109.917 E6.09995
G1 X112.325 Y108.930 E6.13900
G1 X111.413 Y108.081 E6.17805
G1 X110.373 Y107.396 E6.21711
G1 X109.234 Y106.892 E6.25616
G1 X108.113 Y106.606 E6.29244
M204 S1500
G1 X108.020 Y106.972 F7800.000
M204 S1250
G1 F1200.000
G1 X106.795 Y106.860 E6.33101
G1 X93.205 Y106.860 E6.75708
G1 X92.036 Y106.958 E6.79388
G1 X90.890 Y107.250 E6.83096
G1 X89.808 Y107.728 E6.86804
G1 X88.841 Y108.365 E6.90437
G1 X87.955 Y109.184 E6.94218
G1 X87.234 Y110.122 E6.97927
G1 X86.679 Y111.166 E7.01635
G1 X86.308 Y112.280 E7.05316
G1 X83.081 Y125.537 E7.48095
G1 X83.032 Y125.845 E7.49073
G1 X83.034 Y126.165 E7.50078
G1 X83.089 Y126.481 E7.51083
G1 X83.195 Y126.783 E7.52088
G1 X83.250 Y126.883 E7.52444
G1 X83.350 Y127.064 E7.53093
G1 X83.548 Y127.316 E7.54098
G1 X83.784 Y127.533 E7.55103
G1 X84.053 Y127.707 E7.56108
G1 X84.347 Y127.835 E7.57113
G1 X84.658 Y127.914 E7.58118
G1 X84.968 Y127.939 E7.59095
G1 X115.032 Y127.939 E8.53356
G1 X115.342 Y127.914 E8.54334
G1 X115.653 Y127.835 E8.55339
G1 X115.947 Y127.707 E8.56344
G1 X116.216 Y127.533 E8.57349
G1 X116.452 Y127.316 E8.58354
G1 X116.540 Y127.206 E8.58796
G1 X116.650 Y127.064 E8.59359
G1 X116.805 Y126.783 E8.60364
G1 X116.911 Y126.481 E8.61369
G1 X116.966 Y126.165 E8.62374
G1 X116.968 Y125.845 E8.63379
G1 X116.919 Y125.537 E8.64356
G1 X113.692 Y112.280 E9.07136
G1 X113.321 Y111.166 E9.10817
G1 X112.766 Y110.122 E9.14524
G1 X112.045 Y109.184 E9.18232
G1 X111.179 Y108.379 E9.21940
G1 X110.192 Y107.728 E9.25648
G1 X109.110 Y107.250 E9.29356
G1 X108.078 Y106.987 E9.32697
M204 S1500
G1 X107.871 Y106.600 F7800.000
G92 E0
G1 E-2.00000 F2400.00000
G1 X114.970 Y98.493 F7800.000
G1 E0.00000 F2400.00000
M204 S1250
G1 F1200.000
G1 X121.274 Y126.025 E0.88560
G1 X121.323 Y126.917 E0.91361
G1 X121.222 Y127.806 E0.94167
G1 X120.973 Y128.666 E0.96973
G1 X120.584 Y129.472 E0.99778
G1 X120.066 Y130.202 E1.02584
G1 X119.434 Y130.834 E1.05389
G1 X118.704 Y131.352 E1.08195
G1 X117.898 Y131.741 E1.11001
G1 X117.039 Y131.990 E1.13806
G1 X116.124 Y132.095 E1.16695
G1 X83.876 Y132.095 E2.17803
G1 X82.961 Y131.990 E2.20691
G1 X82.102 Y131.741 E2.23497
G1 X81.296 Y131.352 E2.26303
G1 X80.566 Y130.834 E2.29108
G1 X79.934 Y130.202 E2.31914
G1 X79.416 Y129.472 E2.34720
G1 X79.027 Y128.666 E2.37525
G1 X78.778 Y127.806 E2.40331
G1 X78.677 Y126.917 E2.43137
G1 X78.726 Y126.025 E2.45938
G1 X85.025 Y98.516 E3.34423
G1 X84.535 Y97.519 E3.37905
G1 X84.107 Y96.235 E3.42148
G1 X83.676 Y94.438 E3.47943
G1 X83.500 Y93.105 E3.52159
G1 X83.499 Y91.930 E3.55842
G1 X83.680 Y90.656 E3.59879
G1 X84.127 Y88.972 E3.65339
G1 X85.059 Y86.262 E3.74325
G1 X85.564 Y84.667 E3.79571
G1 X85.893 Y83.137 E3.84479
G1 X86.032 Y81.495 E3.89646
G1 X86.016 Y79.210 E3.96811
G1 X86.049 Y77.682 E4.01603
G1 X86.216 Y76.507 E4.05325
G1 X86.568 Y75.304 E4.09256
G1 X87.101 Y74.093 E4.13402
G1 X87.831 Y72.857 E4.17905
G1 X88.763 Y71.651 E4.22682
G1 X89.804 Y70.631 E4.27253
G1 X90.748 Y69.923 E4.30953
G1 X91.954 Y69.236 E4.35304
G1 X93.292 Y68.684 E4.39841
G1 X94.749 Y68.284 E4.44580
G1 X96.301 Y68.049 E4.49501
G1 X98.370 Y67.935 E4.55998
G1 X99.998 Y67.906 E4.61104
G1 X102.296 Y67.955 E4.68312
G1 X104.248 Y68.113 E4.74452
G1 X105.715 Y68.391 E4.79132
G1 X106.352 Y68.595 E4.81230
G1 X106.339 Y68.869 E4.82092
G1 X106.058 Y68.930 E4.82994
G1 X105.551 Y69.133 E4.84705
G1 X105.087 Y69.420 E4.86416
G1 X104.677 Y69.780 E4.88127
G1 X104.334 Y70.205 E4.89838
G1 X104.068 Y70.681 E4.91550
G1 X103.886 Y71.196 E4.93261
G1 X103.794 Y71.734 E4.94972
G1 X103.794 Y72.279 E4.96683
G1 X103.886 Y72.817 E4.98394
G1 X104.068 Y73.332 E5.00105
G1 X104.334 Y73.808 E5.01817
G1 X104.677 Y74.233 E5.03528
G1 X105.087 Y74.594 E5.05239
G1 X105.551 Y74.880 E5.06950
G1 X106.058 Y75.083 E5.08661
G1 X106.591 Y75.198 E5.10372
G1 X107.137 Y75.221 E5.12084
G1 X107.678 Y75.152 E5.13795
G1 X108.200 Y74.992 E5.15506
G1 X108.687 Y74.746 E5.17217
G1 X109.126 Y74.422 E5.18928
G1 X109.503 Y74.028 E5.20639
G1 X109.809 Y73.576 E5.22351
G1 X110.034 Y73.078 E5.24062
G1 X110.171 Y72.550 E5.25773
G1 X110.218 Y72.007 E5.27484
G1 X110.171 Y71.463 E5.29195
G1 X110.007 Y70.832 E5.31237
G1 X110.232 Y70.693 E5.32065
G1 X110.806 Y71.193 E5.34452
G1 X111.717 Y72.230 E5.38778
G1 X112.531 Y73.429 E5.43323
G1 X113.223 Y74.781 E5.48085
G1 X113.651 Y75.974 E5.52059
G1 X113.893 Y77.119 E5.55731
G1 X113.985 Y78.458 E5.59939
G1 X113.960 Y81.049 E5.68061
G1 X114.062 Y82.795 E5.73544
G1 X114.343 Y84.314 E5.78390
G1 X114.918 Y86.196 E5.84559
G1 X115.731 Y88.528 E5.92303
G1 X116.248 Y90.328 E5.98174
G1 X116.470 Y91.589 E6.02191
G1 X116.517 Y92.764 E6.05876
G1 X116.393 Y94.041 E6.09899
G1 X116.080 Y95.536 E6.14688
G1 X115.656 Y97.006 E6.19484
G1 X115.291 Y97.906 E6.22531
G1 X114.999 Y98.440 E6.24439
M204 S1500
G1 X115.369 Y98.548 F7800.000
M204 S1250
G1 F1200.000
G1 X121.649 Y125.972 E7.12651
G1 X121.701 Y126.928 E7.15654
G1 X121.593 Y127.880 E7.18658
G1 X121.326 Y128.801 E7.21663
G1 X120.910 Y129.664 E7.24668
G1 X120.356 Y130.446 E7.27672
G1 X119.678 Y131.123 E7.30677
G1 X118.897 Y131.678 E7.33682
G1 X118.034 Y132.095 E7.36687
G1 X117.113 Y132.361 E7.39691
G1 X116.145 Y132.472 E7.42746
G1 X83.855 Y132.472 E8.43989
G1 X82.887 Y132.361 E8.47044
G1 X81.966 Y132.095 E8.50049
G1 X81.103 Y131.678 E8.53054
G1 X80.322 Y131.123 E8.56059
G1 X79.644 Y130.446 E8.59063
G1 X79.090 Y129.664 E8.62068
G1 X78.674 Y128.801 E8.65073
G1 X78.407 Y127.880 E8.68077
G1 X78.299 Y126.928 E8.71082
G1 X78.351 Y125.972 E8.74084
G1 X84.627 Y98.562 E9.62251
G1 X84.185 Y97.662 E9.65393
G1 X83.744 Y96.339 E9.69767
G1 X83.304 Y94.507 E9.75675
G1 X83.123 Y93.130 E9.80029
G1 X83.122 Y91.904 E9.83874
G1 X83.310 Y90.581 E9.88065
G1 X83.766 Y88.863 E9.93638
G1 X84.701 Y86.144 E10.02652
G1 X85.199 Y84.571 E10.07827
G1 X85.520 Y83.081 E10.12604
G1 X85.654 Y81.480 E10.17641
G1 X85.639 Y79.207 E10.24769
G1 X85.672 Y77.651 E10.29649
G1 X85.846 Y76.427 E10.33526
G1 X86.213 Y75.174 E10.37619
G1 X86.765 Y73.921 E10.41913
G1 X87.519 Y72.645 E10.46559
G1 X88.480 Y71.400 E10.51491
G1 X89.558 Y70.344 E10.56222
G1 X90.541 Y69.607 E10.60074
G1 X91.788 Y68.897 E10.64574
G1 X93.169 Y68.327 E10.69259
G1 X94.671 Y67.914 E10.74141
G1 X96.262 Y67.673 E10.79188
G1 X98.356 Y67.558 E10.85763
G1 X99.999 Y67.529 E10.90915
G1 X102.316 Y67.578 E10.98180
G1 X104.299 Y67.738 E11.04419
G1 X105.808 Y68.025 E11.09235
G1 X107.345 Y68.516 E11.14296
G1 X108.756 Y69.181 E11.19186
G1 X109.983 Y69.978 E11.23773
G1 X111.073 Y70.925 E11.28299
G1 X112.015 Y71.998 E11.32779
G1 X112.856 Y73.236 E11.37470
G1 X113.570 Y74.630 E11.42381
G1 X114.014 Y75.871 E11.46512
G1 X114.267 Y77.067 E11.50347
G1 X114.362 Y78.447 E11.54684
G1 X114.337 Y81.039 E11.62812
G1 X114.437 Y82.749 E11.68181
G1 X114.710 Y84.225 E11.72886
G1 X115.277 Y86.079 E11.78965
G1 X116.090 Y88.414 E11.86719
G1 X116.616 Y90.243 E11.92685
G1 X116.846 Y91.549 E11.96844
G1 X116.895 Y92.775 E12.00690
G1 X116.767 Y94.098 E12.04858
G1 X116.446 Y95.627 E12.09757
G1 X116.013 Y97.129 E12.14658
G1 X115.632 Y98.068 E12.17835
G1 X115.398 Y98.495 E12.19363
M204 S1500
G1 X115.769 Y98.603 F7800.000
M204 S1250
G1 F1200.000
G1 X122.024 Y125.919 E13.07227
G1 X122.079 Y126.939 E13.10430
G1 X121.964 Y127.955 E13.13634
G1 X121.680 Y128.936 E13.16838
G1 X121.236 Y129.857 E13.20041
G1 X120.645 Y130.690 E13.23245
G1 X119.922 Y131.412 E13.26449
G1 X119.089 Y132.004 E13.29653
G1 X118.169 Y132.448 E13.32856
G1 X117.187 Y132.732 E13.36060
G1 X116.166 Y132.849 E13.39282
G1 X83.834 Y132.849 E14.40660
G1 X82.813 Y132.732 E14.43881
G1 X81.831 Y132.448 E14.47085
G1 X80.911 Y132.004 E14.50289
G1 X80.078 Y131.412 E14.53493
G1 X79.355 Y130.690 E14.56696
G1 X78.764 Y129.857 E14.59900
G1 X78.320 Y128.936 E14.63104
G1 X78.036 Y127.955 E14.66308
G1 X77.921 Y126.939 E14.69511
G1 X77.976 Y125.919 E14.72714
G1 X84.230 Y98.608 E15.60563
G1 X83.836 Y97.806 E15.63365
G1 X83.381 Y96.443 E15.67870
G1 X82.933 Y94.576 E15.73890
G1 X82.745 Y93.155 E15.78384
G1 X82.745 Y91.877 E15.82390
G1 X82.940 Y90.505 E15.86735
G1 X83.405 Y88.753 E15.92420
G1 X84.343 Y86.026 E16.01462
G1 X84.834 Y84.474 E16.06567
G1 X85.146 Y83.026 E16.11212
G1 X85.277 Y81.466 E16.16120
G1 X85.262 Y79.204 E16.23210
G1 X85.296 Y77.620 E16.28178
G1 X85.477 Y76.347 E16.32212
G1 X85.858 Y75.044 E16.36466
G1 X86.429 Y73.748 E16.40907
G1 X87.206 Y72.433 E16.45697
G1 X88.198 Y71.149 E16.50784
G1 X89.312 Y70.057 E16.55675
