; generated by Slic3r++ 2.2.50 on 2020-05-25 at 20:03:17 UTC

; 

; external perimeters extrusion width = 0.45mm
; perimeters extrusion width = 0.45mm
; infill extrusion width = 0.45mm
; solid infill extrusion width = 0.45mm
; top infill extrusion width = 0.40mm
; first layer extrusion width = 0.42mm

; object:{"name":"Touring_Bike_V2_avoid_warping","id":"Touring_Bike_V2_avoid_warping.stl id:0 copy 0","object_center":[100.000000,100.000000,100.000000],"boundingbox_center":[100.000000,0.500000,71.000000],"boundingbox_size":[107.000000,1.000000,0.000000]}

M201 X9000 Y9000 Z500 E10000 ; sets maximum accelerations, mm/sec^2
M203 X500 Y500 Z12 E120 ; sets maximum feedrates, mm/sec
M204 P1500 R1500 T1500 ; sets acceleration (P, T) and retract acceleration (R), mm/sec^2
M205 X10.00 Y10.00 Z0.20 E2.50 ; sets the jerk limits, mm/sec
M205 S0 T0 ; sets the minimum extruding and travel feed rate, mm/sec
M107
M190 S60 ; set bed temperature and wait for it to be reached
M104 S205 ; set temperature
G28 ; home all axes
G1 Z5 F5000 ; lift nozzle
M109 S205 ; set temperature and wait for it to be reached
G21 ; set units to millimeters
G90 ; use absolute coordinates
M82 ; use absolute distances for extrusion
G92 E0
; Filament gcode
G1 Z0.200 F7800.000
G1 E-2.00000 F2400.00000
G1 X60.022 Y53.229 F7800.000
G1 E0.00000 F2400.00000
M204 S1250
G1 F1200.000
G1 X71.234 Y42.017 E0.49717
G1 X71.877 Y41.483 E0.52336
G1 X72.585 Y41.041 E0.54955
G1 X73.347 Y40.698 E0.57573
G1 X74.148 Y40.461 E0.60192
G1 X75.482 Y40.311 E0.64404
G1 X124.506 Y40.311 E2.18114
G1 X125.667 Y40.422 E2.21770
G1 X126.792 Y40.751 E2.25445
G1 X127.835 Y41.287 E2.29120
G1 X128.758 Y42.009 E2.32795
G1 X140.133 Y53.397 E2.83263
G1 X140.667 Y54.094 E2.86016
G1 X141.097 Y54.860 E2.88770
G1 X141.413 Y55.673 E2.91504
G1 X141.612 Y56.528 E2.94257
G1 X141.689 Y57.495 E2.97298
G1 X141.688 Y142.531 E5.63923
G1 X141.557 Y143.769 E5.67828
G1 X141.180 Y144.956 E5.71733
G1 X140.660 Y145.917 E5.75159
G1 X139.978 Y146.771 E5.78584
G1 X128.753 Y157.996 E6.28359
G1 X128.093 Y158.538 E6.31036
G1 X127.366 Y158.985 E6.33712
G1 X126.584 Y159.327 E6.36388
G1 X125.762 Y159.558 E6.39065
G1 X124.518 Y159.689 E6.42989
G1 X75.457 Y159.688 E7.96815
G1 X74.225 Y159.556 E8.00701
G1 X73.044 Y159.180 E8.04587
G1 X72.083 Y158.660 E8.08013
G1 X71.229 Y157.978 E8.11438
G1 X59.958 Y146.703 E8.61425
G1 X59.371 Y145.962 E8.64390
G1 X58.903 Y145.140 E8.67354
G1 X58.566 Y144.257 E8.70319
G1 X58.369 Y143.338 E8.73264
G1 X58.311 Y142.505 E8.75883
G1 X58.312 Y57.469 E11.42507
G1 X58.443 Y56.231 E11.46413
G1 X58.820 Y55.044 E11.50318
G1 X59.340 Y54.083 E11.53743
G1 X59.984 Y53.276 E11.56981
M204 S1500
; printing object Touring_Bike_V2_avoid_warping.stl id:0 copy 0
G92 E0
G1 E-2.00000 F2400.00000
G1 X101.951 Y104.784 F7800.000
G1 E0.00000 F2400.00000
M204 S1250
G1 F900.000
G1 X104.343 Y104.252 E0.07684
G1 X104.523 Y105.058 E0.10273
G1 X102.130 Y105.590 E0.17957
G1 X101.964 Y104.842 E0.20359
M204 S1500
G1 X102.288 Y105.604 F7800.000
M204 S1250
G1 F900.000
G1 X102.599 Y107.007 E0.24865
G1 X102.118 Y107.070 E0.26388
G1 X100.748 Y107.129 E0.30686
G1 X99.519 Y107.054 E0.34547
G1 X98.299 Y106.861 E0.38419
G1 X97.234 Y106.590 E0.41866
G1 X95.620 Y106.021 E0.47230
G1 X94.081 Y105.164 E0.52754
G1 X93.143 Y104.524 E0.56316
G1 X92.167 Y103.709 E0.60302
G1 X91.277 Y102.802 E0.64287
G1 X90.864 Y102.290 E0.66348
G1 X92.073 Y101.484 E0.70903
G1 X93.482 Y102.840 E0.77032
G1 X94.455 Y103.592 E0.80888
G1 X95.503 Y104.234 E0.84743
G1 X96.615 Y104.760 E0.88598
G1 X97.776 Y105.163 E0.92454
G1 X98.975 Y105.439 E0.96309
G1 X100.196 Y105.583 E1.00165
G1 X102.228 Y105.603 E1.06535
M204 S1500
G92 E0
G1 E-2.00000 F2400.00000
G1 X92.717 Y101.086 F7800.000
G1 E0.00000 F2400.00000
M204 S1250
G1 F900.000
G1 X92.113 Y101.489 E0.02276
G1 X90.823 Y99.554 E0.09568
G1 X91.427 Y99.151 E0.11844
G1 X92.684 Y101.036 E0.18949
M204 S1500
G92 E0
G1 E-2.00000 F2400.00000
G1 X82.403 Y104.251 F7800.000
G1 E0.00000 F2400.00000
M204 S1250
G1 F1200.000
G1 X83.548 Y104.564 E0.03720
G1 X82.220 Y105.449 E0.08725
G1 X83.481 Y107.341 E0.15855
G1 X86.457 Y105.357 E0.27070
G1 X102.299 Y109.678 E0.78554
G1 X103.101 Y108.987 E0.81874
G1 X103.950 Y112.806 E0.94140
G1 X106.170 Y112.312 E1.01271
G1 X105.329 Y108.528 E1.13424
G1 X105.848 Y108.635 E1.15083
G1 X106.414 Y108.866 E1.17002
G1 X106.928 Y109.198 E1.18920
G1 X107.372 Y109.619 E1.20839
G1 X107.730 Y110.115 E1.22757
G1 X107.991 Y110.669 E1.24676
G1 X108.232 Y111.595 E1.27676
G1 X108.103 Y112.534 E1.30648
G1 X107.912 Y113.110 E1.32551
G1 X107.619 Y113.641 E1.34453
G1 X107.237 Y114.106 E1.36341
G1 X106.711 Y114.534 E1.38465
G1 X106.242 Y114.799 E1.40156
G1 X105.672 Y114.994 E1.42044
G1 X105.000 Y115.082 E1.44169
G1 X104.461 Y115.061 E1.45860
G1 X103.520 Y114.848 E1.48886
G1 X87.794 Y129.002 E2.15224
G1 X87.762 Y129.524 E2.16862
G1 X83.100 Y127.312 E2.33041
G1 X82.126 Y129.367 E2.40171
G1 X86.433 Y131.410 E2.55119
G1 X85.851 Y131.577 E2.57018
G1 X85.359 Y131.610 E2.58564
G1 X84.871 Y131.539 E2.60110
G1 X84.380 Y131.356 E2.61754
G1 X80.547 Y129.439 E2.75188
G1 X80.110 Y129.160 E2.76816
G1 X79.763 Y128.817 E2.78347
G1 X79.494 Y128.409 E2.79877
G1 X79.213 Y127.685 E2.82312
G1 X78.188 Y127.173 E2.85904
G1 X79.021 Y125.090 E2.92938
G1 X76.678 Y124.153 E3.00852
G1 X77.061 Y123.870 E3.02346
G1 X77.245 Y123.808 E3.02955
G1 X77.440 Y123.807 E3.03563
G1 X77.669 Y123.880 E3.04319
G1 X81.273 Y125.681 E3.16952
G1 X81.691 Y115.661 E3.48397
G1 X82.744 Y108.626 E3.70701
G1 X81.174 Y106.271 E3.79575
G1 X78.896 Y105.648 E3.86980
G1 X78.682 Y105.563 E3.87701
G1 X78.519 Y105.453 E3.88320
G1 X78.165 Y105.080 E3.89933
G1 X77.060 Y105.080 E3.93396
G1 X77.060 Y103.754 E3.97553
G1 X78.892 Y103.754 E4.03297
G1 X80.345 Y104.151 E4.08020
G1 X84.056 Y100.441 E4.24475
G1 X84.056 Y96.984 E4.35311
G1 X86.212 Y96.984 E4.42071
G1 X86.212 Y100.088 E4.51802
G1 X86.181 Y100.323 E4.52544
G1 X86.105 Y100.506 E4.53164
G1 X85.961 Y100.693 E4.53906
G1 X82.446 Y104.209 E4.69496
M204 S1500
G92 E0
G1 E-2.00000 F2400.00000
G1 X81.246 Y98.036 F7800.000
G1 E0.00000 F2400.00000
M204 S1250
G1 F1200.000
G1 X78.323 Y98.036 E0.09165
G1 X76.432 Y80.582 E0.64210
G1 X78.648 Y80.582 E0.71157
G1 X78.648 Y90.732 E1.02981
G1 X80.922 Y90.732 E1.10112
G1 X80.922 Y80.582 E1.41936
G1 X83.137 Y80.582 E1.48883
G1 X81.253 Y97.976 E2.03740
M204 S1500
G92 E0
G1 E-2.00000 F2400.00000
G1 X81.253 Y75.953 F7800.000
G1 E0.00000 F2400.00000
M204 S1250
G1 F1200.000
G1 X80.851 Y75.953 E0.01257
G1 X80.851 Y74.003 E0.07371
G1 X78.577 Y74.003 E0.14502
G1 X78.577 Y75.953 E0.20616
G1 X78.151 Y75.953 E0.21951
G1 X78.155 Y73.627 E0.29244
G1 X76.381 Y59.654 E0.73406
G1 X78.577 Y59.654 E0.80291
G1 X78.577 Y69.804 E1.12116
G1 X80.851 Y69.804 E1.19246
G1 X80.851 Y59.654 E1.51071
G1 X83.047 Y59.654 E1.57956
G1 X81.274 Y73.627 E2.02119
G1 X81.277 Y75.918 E2.09301
M204 S1500
G92 E0
G1 E-2.00000 F2400.00000
G1 X86.191 Y70.617 F7800.000
G1 E0.00000 F2400.00000
M204 S1250
G1 F900.000
G1 X88.465 Y70.617 E0.07130
G1 X88.465 Y66.687 E0.19453
G1 X88.195 Y66.417 E0.20650
G1 X89.126 Y66.417 E0.23567
G1 X89.126 Y70.236 E0.35542
G1 X89.074 Y70.427 E0.36163
G1 X88.982 Y70.647 E0.36910
G1 X88.766 Y71.023 E0.38269
G1 X88.766 Y76.458 E0.55311
G1 X85.890 Y76.458 E0.64328
G1 X85.890 Y71.023 E0.81370
G1 X85.673 Y70.647 E0.82729
G1 X85.582 Y70.428 E0.83476
G1 X85.530 Y70.236 E0.84096
G1 X85.530 Y66.417 E0.96071
G1 X86.460 Y66.417 E0.98989
G1 X86.191 Y66.687 E1.00185
G1 X86.191 Y70.557 E1.12320
M204 S1500
G92 E0
G1 E-2.00000 F2400.00000
G1 X92.030 Y101.966 F7800.000
G1 E0.00000 F2400.00000
M204 S1250
G1 F900.000
G1 X93.235 Y103.125 E0.05243
G1 X94.240 Y103.902 E0.09226
G1 X95.324 Y104.566 E0.13209
G1 X96.472 Y105.110 E0.17193
G1 X97.672 Y105.526 E0.21176
G1 X98.910 Y105.811 E0.25159
G1 X100.172 Y105.960 E0.29142
G1 X101.985 Y105.978 E0.34826
G1 X102.143 Y106.691 E0.37118
G1 X100.752 Y106.752 E0.41485
G1 X99.560 Y106.679 E0.45228
G1 X98.375 Y106.491 E0.48988
G1 X97.343 Y106.229 E0.52328
G1 X95.776 Y105.676 E0.57539
G1 X94.280 Y104.843 E0.62908
G1 X93.370 Y104.223 E0.66359
G1 X92.423 Y103.431 E0.70230
G1 X91.559 Y102.551 E0.74098
G1 X91.417 Y102.375 E0.74806
G1 X91.980 Y102.000 E0.76930
M204 S1500
G92 E0
G1 E-2.00000 F2400.00000
G1 X81.677 Y104.444 F7800.000
G1 E0.00000 F2400.00000
M204 S1250
G1 F1200.000
G1 X82.649 Y104.709 E0.03160
G1 X81.697 Y105.345 E0.06749
G1 X83.377 Y107.864 E0.16244
G1 X86.524 Y105.766 E0.28103
G1 X102.393 Y110.094 E0.79678
G1 X102.870 Y109.684 E0.81651
G1 X103.664 Y113.255 E0.93124
G1 X106.620 Y112.599 E1.02619
G1 X105.828 Y109.034 E1.14069
G1 X106.239 Y109.202 E1.15462
G1 X106.694 Y109.496 E1.17160
G1 X107.087 Y109.868 E1.18858
G1 X107.404 Y110.307 E1.20557
G1 X107.635 Y110.797 E1.22255
G1 X107.848 Y111.617 E1.24911
G1 X107.734 Y112.448 E1.27540
G1 X107.565 Y112.958 E1.29226
G1 X107.306 Y113.429 E1.30910
G1 X106.970 Y113.838 E1.32569
G1 X106.498 Y114.221 E1.34475
G1 X106.087 Y114.454 E1.35957
G1 X105.586 Y114.625 E1.37617
G1 X104.983 Y114.704 E1.39523
G1 X104.510 Y114.686 E1.41006
G1 X103.413 Y114.438 E1.44534
G1 X87.338 Y128.905 E2.12343
G1 X85.420 Y127.995 E2.19000
G1 X102.899 Y112.263 E2.92734
G1 X85.282 Y107.459 E3.49988
G1 X84.021 Y115.867 E3.76647
G1 X83.552 Y127.109 E4.11926
G1 X82.921 Y126.810 E4.14117
G1 X81.619 Y129.554 E4.23639
G1 X80.734 Y129.111 E4.26744
G1 X80.347 Y128.864 E4.28185
G1 X80.056 Y128.576 E4.29466
G1 X79.831 Y128.235 E4.30747
G1 X79.511 Y127.413 E4.33513
G1 X78.667 Y126.991 E4.36473
G1 X79.397 Y125.165 E4.42638
G1 X81.626 Y126.279 E4.50450
G1 X82.067 Y115.697 E4.83658
G1 X83.138 Y108.538 E5.06355
G1 X81.410 Y105.945 E5.16128
G1 X79.016 Y105.290 E5.23910
G1 X78.859 Y105.228 E5.24437
G1 X78.764 Y105.163 E5.24798
G1 X78.327 Y104.703 E5.26789
G1 X77.437 Y104.703 E5.29578
G1 X77.437 Y104.131 E5.31370
G1 X78.842 Y104.131 E5.35774
G1 X80.457 Y104.573 E5.41025
G1 X84.433 Y100.597 E5.58656
G1 X84.433 Y97.362 E5.68799
G1 X85.835 Y97.362 E5.73194
G1 X85.835 Y100.063 E5.81666
G1 X85.814 Y100.224 E5.82174
G1 X85.776 Y100.315 E5.82484
G1 X85.677 Y100.444 E5.82993
G1 X81.719 Y104.402 E6.00542
M204 S1500
G92 E0
G1 E-2.00000 F2400.00000
G1 X80.908 Y97.659 F7800.000
G1 E0.00000 F2400.00000
M204 S1250
G1 F900.000
G1 X78.662 Y97.659 E0.07042
G1 X77.952 Y91.109 E0.27699
G1 X81.617 Y91.109 E0.39191
G1 X80.914 Y97.599 E0.59659
M204 S1500
G92 E0
G1 E-2.00000 F2400.00000
G1 X81.299 Y90.902 F7800.000
G1 E0.00000 F2400.00000
M204 S1250
G1 F900.000
G1 X81.299 Y80.959 E0.31176
G1 X82.717 Y80.959 E0.35623
G1 X81.638 Y90.920 E0.67039
G1 X81.359 Y90.905 E0.67915
M204 S1500
G92 E0
G1 E-2.00000 F2400.00000
G1 X78.270 Y90.903 F7800.000
G1 E0.00000 F2400.00000
M204 S1250
G1 F900.000
G1 X77.932 Y90.921 E0.01064
G1 X76.852 Y80.959 E0.32482
G1 X78.270 Y80.959 E0.36929
G1 X78.270 Y90.843 E0.67919
M204 S1500
G92 E0
G1 E-2.00000 F2400.00000
G1 X86.267 Y76.081 F7800.000
G1 E0.00000 F2400.00000
M204 S1250
G1 F900.000
G1 X86.267 Y70.994 E0.15949
G1 X88.389 Y70.994 E0.22602
G1 X88.389 Y76.081 E0.38551
G1 X86.327 Y76.081 E0.45015
M204 S1500
G92 E0
G1 E-2.00000 F2400.00000
G1 X80.894 Y73.626 F7800.000
G1 E0.00000 F2400.00000
M204 S1250
G1 F900.000
G1 X78.535 Y73.626 E0.07398
G1 X78.098 Y70.181 E0.18285
G1 X81.331 Y70.181 E0.28424
G1 X80.902 Y73.566 E0.39123
M204 S1500
G92 E0
G1 E-2.00000 F2400.00000
G1 X81.233 Y68.324 F7800.000
G1 E0.00000 F2400.00000
M204 S1250
G1 F900.000
G1 X81.229 Y60.031 E0.26003
G1 X82.619 Y60.031 E0.30364
G1 X81.564 Y68.345 E0.56642
G1 X81.293 Y68.328 E0.57495
M204 S1500
G92 E0
G1 E-2.00000 F2400.00000
G1 X78.200 Y68.324 F7800.000
G1 E0.00000 F2400.00000
M204 S1250
G1 F900.000
G1 X77.865 Y68.345 E0.01054
G1 X76.809 Y60.031 E0.27332
G1 X78.200 Y60.031 E0.31693
G1 X78.200 Y68.264 E0.57508
M204 S1500
G92 E0
G1 E-2.00000 F2400.00000
G1 X73.536 Y64.536 F7800.000
G1 E0.00000 F2400.00000
M204 S1250
G1 F900.000
G1 X65.464 Y64.536 E0.25308
G1 X65.464 Y58.464 E0.44346
G1 X73.536 Y58.464 E0.69654
G1 X73.536 Y64.476 E0.88503
M204 S1500
G92 E0
G1 E-2.00000 F2400.00000
G1 X73.984 Y57.007 F7800.000
G1 E0.00000 F2400.00000
M204 S1250
G1 F1200.000
G1 X73.913 Y57.454 E0.01417
G1 X73.913 Y142.546 E2.68218
G1 X73.984 Y142.993 E2.69636
G1 X74.210 Y143.437 E2.71200
G1 X74.563 Y143.790 E2.72764
G1 X75.007 Y144.016 E2.74328
G1 X75.454 Y144.087 E2.75746
G1 X124.546 Y144.087 E4.29671
G1 X124.993 Y144.016 E4.31089
G1 X125.437 Y143.790 E4.32653
G1 X125.790 Y143.437 E4.34217
G1 X126.016 Y142.993 E4.35781
G1 X126.087 Y142.546 E4.37198
G1 X126.087 Y57.454 E7.04000
G1 X126.016 Y57.007 E7.05417
G1 X125.790 Y56.563 E7.06981
G1 X125.437 Y56.210 E7.08545
G1 X124.993 Y55.984 E7.10109
G1 X124.546 Y55.913 E7.11527
G1 X75.454 Y55.913 E8.65452
G1 X75.007 Y55.984 E8.66870
G1 X74.563 Y56.210 E8.68434
G1 X74.210 Y56.563 E8.69998
G1 X74.011 Y56.954 E8.71374
M204 S1500
G92 E0
G1 E-2.00000 F2400.00000
G1 X97.596 Y96.218 F7800.000
G1 E0.00000 F2400.00000
M204 S1250
G1 F900.000
G1 X96.813 Y98.371 E0.07182
G1 X96.673 Y98.971 E0.09116
G1 X96.681 Y99.601 E0.11090
G1 X96.840 Y100.210 E0.13064
G1 X97.140 Y100.763 E0.15038
G1 X97.564 Y101.229 E0.17012
G1 X98.087 Y101.580 E0.18986
G1 X98.679 Y101.795 E0.20960
G1 X99.305 Y101.863 E0.22934
G1 X99.928 Y101.778 E0.24908
G1 X100.514 Y101.547 E0.26882
G1 X101.027 Y101.183 E0.28856
G1 X101.438 Y100.706 E0.30830
G1 X101.718 Y100.156 E0.32764
G1 X102.501 Y98.003 E0.39946
G1 X97.652 Y96.239 E0.56124
M204 S1500
G1 X97.220 Y96.081 F7800.000
G1 X97.919 Y95.506
M204 S1250
G1 F900.000
G1 X102.768 Y97.270 E0.72303
G1 X104.940 Y91.301 E0.92219
G1 X103.961 Y90.945 E0.95486
G1 X103.654 Y91.518 E0.97524
G1 X103.347 Y91.830 E0.98897
G1 X102.965 Y92.043 E1.00269
G1 X102.538 Y92.139 E1.01641
G1 X102.101 Y92.111 E1.03014
G1 X101.690 Y91.962 E1.04386
G1 X101.337 Y91.702 E1.05759
G1 X101.072 Y91.354 E1.07131
G1 X100.916 Y90.945 E1.08504
G1 X100.881 Y90.509 E1.09876
G1 X101.014 Y89.872 E1.11914
G1 X100.035 Y89.516 E1.15181
G1 X97.863 Y95.485 E1.35097
M204 S1500
G1 X97.784 Y95.882 F7800.000
G92 E0
G1 E-2.00000 F2400.00000
G1 X100.302 Y88.783 F7800.000
G1 E0.00000 F2400.00000
M204 S1250
G1 F900.000
G1 X101.308 Y89.149 E0.03355
G1 X102.409 Y86.123 E0.13451
G1 X101.403 Y85.757 E0.16806
G1 X100.323 Y88.727 E0.26714
M204 S1500
G1 X100.165 Y89.159 F7800.000
G92 E0
G1 E-2.00000 F2400.00000
G1 X102.302 Y85.254 F7800.000
G1 E0.00000 F2400.00000
M204 S1250
G1 F1200.000
G1 X103.409 Y85.657 E0.03692
G1 X101.972 Y89.604 E0.16861
G1 X103.400 Y90.124 E0.21626
G1 X104.837 Y86.177 E0.34795
G1 X107.308 Y87.076 E0.43041
G1 X105.940 Y90.835 E0.55583
G1 X107.538 Y91.417 E0.60913
G1 X107.271 Y92.150 E0.63359
G1 X105.673 Y91.568 E0.68689
G1 X103.501 Y97.537 E0.88605
G1 X105.098 Y98.119 E0.93935
G1 X104.832 Y98.852 E0.96381
G1 X103.234 Y98.270 E1.01711
G1 X102.457 Y100.406 E1.08837
G1 X102.347 Y100.665 E1.09720
G1 X102.113 Y101.107 E1.11287
G1 X102.113 Y104.362 E1.21493
G1 X104.630 Y103.802 E1.29578
G1 X104.794 Y104.544 E1.31959
G1 X106.155 Y103.906 E1.36670
G1 X107.222 Y103.249 E1.40599
G1 X108.206 Y102.475 E1.44525
G1 X109.097 Y101.594 E1.48452
G1 X109.804 Y100.717 E1.51984
G1 X110.550 Y99.560 E1.56302
G1 X111.095 Y98.431 E1.60232
G1 X111.468 Y97.368 E1.63764
G1 X111.783 Y96.027 E1.68083
G1 X111.918 Y94.781 E1.72013
G1 X111.911 Y93.529 E1.75940
G1 X111.779 Y92.410 E1.79472
G1 X111.472 Y91.067 E1.83791
G1 X111.045 Y89.889 E1.87721
G1 X110.488 Y88.767 E1.91648
G1 X109.807 Y87.716 E1.95574
G1 X109.094 Y86.843 E1.99106
G1 X108.110 Y85.879 E2.03426
G1 X107.116 Y85.116 E2.07356
G1 X106.042 Y84.472 E2.11281
G1 X105.019 Y84.001 E2.14814
G1 X103.711 Y83.568 E2.19133
G1 X102.302 Y83.278 E2.23643
G1 X102.302 Y85.194 E2.29650
M204 S1500
G1 X102.210 Y85.644 F7800.000
G1 X101.922 Y85.116
M204 S1250
G1 F1200.000
G1 X101.922 Y83.239 E2.35536
G1 X100.356 Y83.227 E2.40446
G1 X99.222 Y83.340 E2.44020
G1 X97.984 Y83.607 E2.47990
G1 X96.786 Y84.015 E2.51960
G1 X95.641 Y84.558 E2.55933
G1 X94.468 Y85.305 E2.60294
G1 X93.577 Y86.017 E2.63868
G1 X92.684 Y86.914 E2.67838
G1 X91.900 Y87.908 E2.71808
G1 X91.234 Y88.987 E2.75781
G1 X90.657 Y90.252 E2.80142
G1 X90.297 Y91.333 E2.83716
G1 X90.036 Y92.572 E2.87686
G1 X89.919 Y93.833 E2.91656
