; generated by Slic3r++ 2.2.50 on 2020-06-11 at 11:14:41 UTC

; 

; external perimeters extrusion width = 0.45mm
; perimeters extrusion width = 0.45mm
; infill extrusion width = 0.45mm
; solid infill extrusion width = 0.45mm
; top infill extrusion width = 0.40mm
; first layer extrusion width = 0.42mm

; object:{"name":"UniversalDockBase","id":"UniversalDockBase.stl id:0 copy 0","object_center":[100.000000,100.000000,100.000000],"boundingbox_center":[100.000000,31.517143,100.000000],"boundingbox_size":[61.892021,63.034286,0.000000]}

M201 X9000 Y9000 Z500 E10000 ; sets maximum accelerations, mm/sec^2
M203 X500 Y500 Z12 E120 ; sets maximum feedrates, mm/sec
M204 P1500 R1500 T1500 ; sets acceleration (P, T) and retract acceleration (R), mm/sec^2
M205 X10.00 Y10.00 Z0.20 E2.50 ; sets the jerk limits, mm/sec
M205 S0 T0 ; sets the minimum extruding and travel feed rate, mm/sec
M107
M190 S60 ; set bed temperature and wait for it to be reached
M104 S205 ; set temperature
G28 ; home all axes
G1 Z5 F5000 ; lift nozzle
M109 S205 ; set temperature and wait for it to be reached
G21 ; set units to millimeters
G90 ; use absolute coordinates
M82 ; use absolute distances for extrusion
G92 E0
; Filament gcode
G1 Z0.200 F7800.000
G1 E-2.00000 F2400.00000
G1 X48.246 Y64.674 F7800.000
G1 E0.00000 F2400.00000
M204 S1250
G1 F1200.000
G1 X49.670 Y63.862 E0.05140
G1 X50.596 Y63.483 E0.08277
G1 X52.114 Y63.061 E0.13218
G1 X53.887 Y62.884 E0.18805
G1 X146.006 Y62.883 E3.07638
G1 X147.992 Y63.081 E3.13894
G1 X149.879 Y63.655 E3.20079
G1 X151.638 Y64.596 E3.26333
G1 X153.115 Y65.798 E3.32306
G1 X154.433 Y67.381 E3.38763
G1 X155.346 Y69.056 E3.44744
G1 X155.955 Y70.956 E3.51000
G1 X156.169 Y72.646 E3.56343
G1 X156.173 Y127.382 E5.27963
G1 X156.041 Y128.656 E5.31980
G1 X155.852 Y129.501 E5.34694
G1 X155.408 Y130.857 E5.39168
G1 X154.740 Y132.167 E5.43778
G1 X154.257 Y132.907 E5.46550
G1 X153.345 Y134.005 E5.51026
G1 X151.756 Y135.352 E5.57556
G1 X150.317 Y136.167 E5.62742
G1 X149.396 Y136.542 E5.65860
G1 X147.878 Y136.960 E5.70796
G1 X146.110 Y137.134 E5.76367
G1 X53.846 Y137.133 E8.65652
G1 X52.405 Y137.004 E8.70188
G1 X51.539 Y136.825 E8.72961
G1 X50.123 Y136.368 E8.77628
G1 X48.850 Y135.724 E8.82102
G1 X48.068 Y135.225 E8.85009
G1 X46.963 Y134.312 E8.89504
G1 X45.594 Y132.702 E8.96130
G1 X44.781 Y131.269 E9.01296
G1 X44.409 Y130.360 E9.04376
G1 X43.991 Y128.848 E9.09293
G1 X43.814 Y127.129 E9.14710
G1 X43.816 Y72.894 E10.84763
G1 X43.946 Y71.499 E10.89154
G1 X44.125 Y70.646 E10.91888
G1 X44.573 Y69.245 E10.96498
G1 X45.227 Y67.940 E11.01076
G1 X45.712 Y67.179 E11.03906
G1 X46.628 Y66.060 E11.08440
G1 X48.200 Y64.713 E11.14931
M204 S1500
; printing object UniversalDockBase.stl id:0 copy 0
G92 E0
G1 E-2.00000 F2400.00000
G1 X79.636 Y84.135 F7800.000
G1 E0.00000 F2400.00000
M204 S1250
G1 F1200.000
G1 X95.720 Y84.135 E0.50430
G1 X96.129 Y84.383 E0.51931
G1 X96.394 Y84.577 E0.52958
G1 X96.959 Y85.058 E0.55285
G1 X97.190 Y85.298 E0.56331
G1 X97.190 Y129.982 E1.96435
G1 X54.047 Y129.982 E3.31707
G1 X53.409 Y129.919 E3.33720
G1 X52.840 Y129.746 E3.35583
G1 X52.316 Y129.466 E3.37446
G1 X51.857 Y129.089 E3.39309
G1 X51.480 Y128.630 E3.41172
G1 X51.200 Y128.106 E3.43035
G1 X51.027 Y127.537 E3.44898
G1 X50.964 Y126.899 E3.46911
G1 X50.964 Y73.180 E5.15342
G1 X51.027 Y72.527 E5.17398
G1 X51.201 Y71.945 E5.19303
G1 X51.483 Y71.409 E5.21201
G1 X51.862 Y70.941 E5.23089
G1 X52.322 Y70.558 E5.24965
G1 X52.845 Y70.274 E5.26832
G1 X53.411 Y70.099 E5.28691
G1 X54.048 Y70.036 E5.30697
G1 X79.636 Y70.036 E6.10926
G1 X79.636 Y84.075 E6.54944
M204 S1500
G1 X80.013 Y83.758 F7800.000
M204 S1250
G1 F1200.000
G1 X95.825 Y83.758 E7.04523
G1 X96.338 Y84.069 E7.06404
G1 X96.627 Y84.280 E7.07526
G1 X97.217 Y84.783 E7.09955
G1 X97.567 Y85.145 E7.11536
G1 X97.567 Y130.359 E8.53301
G1 X54.029 Y130.359 E9.89813
G1 X53.335 Y130.291 E9.92000
G1 X52.695 Y130.097 E9.94096
G1 X52.105 Y129.781 E9.96192
G1 X51.589 Y129.357 E9.98288
G1 X51.165 Y128.841 E10.00384
G1 X50.849 Y128.251 E10.02480
G1 X50.655 Y127.611 E10.04576
G1 X50.587 Y126.917 E10.06763
G1 X50.587 Y73.162 E11.75309
G1 X50.656 Y72.454 E11.77538
G1 X50.851 Y71.802 E11.79673
G1 X51.167 Y71.201 E11.81801
G1 X51.592 Y70.675 E11.83921
G1 X52.109 Y70.244 E11.86032
G1 X52.698 Y69.925 E11.88133
G1 X53.336 Y69.728 E11.90228
G1 X54.029 Y69.659 E11.92411
G1 X80.013 Y69.659 E12.73881
G1 X80.013 Y83.698 E13.17899
M204 S1500
G1 X80.390 Y83.381 F7800.000
M204 S1250
G1 F1200.000
G1 X95.931 Y83.381 E13.66627
G1 X96.548 Y83.755 E13.68889
G1 X96.861 Y83.984 E13.70105
G1 X97.475 Y84.507 E13.72636
G1 X97.945 Y84.993 E13.74753
G1 X97.945 Y130.736 E15.18177
G1 X54.010 Y130.736 E16.55930
G1 X53.261 Y130.662 E16.58291
G1 X52.550 Y130.447 E16.60620
G1 X51.895 Y130.096 E16.62949
G1 X51.321 Y129.625 E16.65278
G1 X50.850 Y129.051 E16.67607
G1 X50.499 Y128.396 E16.69936
G1 X50.284 Y127.685 E16.72265
G1 X50.210 Y126.936 E16.74626
G1 X50.210 Y73.143 E18.43288
G1 X50.284 Y72.381 E18.45688
G1 X50.500 Y71.659 E18.48054
G1 X50.850 Y70.993 E18.50413
G1 X51.322 Y70.409 E18.52765
G1 X51.896 Y69.931 E18.55109
G1 X52.551 Y69.575 E18.57445
G1 X53.261 Y69.357 E18.59776
G1 X54.010 Y69.282 E18.62136
G1 X80.390 Y69.282 E19.44847
G1 X80.390 Y83.321 E19.88866
M204 S1500
G1 X80.390 Y83.781 F7800.000
G92 E0
G1 E-2.00000 F2400.00000
G1 X78.983 Y70.149 F7800.000
G1 E0.00000 F2400.00000
M204 S1250
G1 F1200.000
G1 X79.353 Y70.519 E0.01628
G1 X79.353 Y71.052 E0.03287
G1 X78.620 Y70.319 E0.06515
G1 X78.086 Y70.319 E0.08175
G1 X79.353 Y71.585 E0.13750
G1 X79.353 Y72.119 E0.15409
G1 X77.553 Y70.319 E0.23331
G1 X77.020 Y70.319 E0.24991
G1 X79.353 Y72.652 E0.35260
G1 X79.353 Y73.185 E0.36919
G1 X76.487 Y70.319 E0.49535
G1 X75.953 Y70.319 E0.51195
G1 X79.353 Y73.718 E0.66158
G1 X79.353 Y74.252 E0.67817
G1 X75.420 Y70.319 E0.85127
G1 X74.887 Y70.319 E0.86787
G1 X79.353 Y74.785 E1.06444
G1 X79.353 Y75.318 E1.08103
G1 X74.353 Y70.319 E1.30107
G1 X73.820 Y70.319 E1.31767
G1 X79.353 Y75.851 E1.56118
G1 X79.353 Y76.385 E1.57777
G1 X73.287 Y70.319 E1.84475
G1 X72.754 Y70.319 E1.86135
G1 X79.353 Y76.918 E2.15180
G1 X79.353 Y77.451 E2.16839
G1 X72.220 Y70.319 E2.48231
G1 X71.687 Y70.319 E2.49891
G1 X79.353 Y77.984 E2.83630
G1 X79.353 Y78.518 E2.85289
G1 X71.154 Y70.319 E3.21375
G1 X70.621 Y70.319 E3.23035
G1 X79.353 Y79.051 E3.61468
G1 X79.353 Y79.584 E3.63127
G1 X70.087 Y70.319 E4.03907
G1 X69.554 Y70.319 E4.05567
G1 X79.353 Y80.118 E4.48694
G1 X79.353 Y80.651 E4.50354
G1 X69.021 Y70.319 E4.95828
G1 X68.488 Y70.319 E4.97487
G1 X79.353 Y81.184 E5.45308
G1 X79.353 Y81.717 E5.46968
G1 X67.954 Y70.319 E5.97136
G1 X67.421 Y70.319 E5.98795
G1 X79.353 Y82.251 E6.51310
G1 X79.353 Y82.784 E6.52970
G1 X66.888 Y70.319 E7.07832
G1 X66.354 Y70.319 E7.09491
G1 X79.353 Y83.317 E7.66701
G1 X79.353 Y83.850 E7.68360
G1 X65.821 Y70.319 E8.27916
G1 X65.288 Y70.319 E8.29576
G1 X96.908 Y101.938 E9.68739
G1 X96.908 Y101.405 E9.70399
G1 X79.920 Y84.418 E10.45163
G1 X80.453 Y84.418 E10.46822
G1 X96.908 Y100.872 E11.19240
G1 X96.908 Y100.338 E11.20899
G1 X80.987 Y84.418 E11.90969
G1 X81.520 Y84.418 E11.92629
G1 X96.908 Y99.805 E12.60352
G1 X96.908 Y99.272 E12.62012
G1 X82.053 Y84.418 E13.27388
G1 X82.587 Y84.418 E13.29048
G1 X96.908 Y98.739 E13.92077
G1 X96.908 Y98.205 E13.93736
G1 X83.120 Y84.418 E14.54418
G1 X83.653 Y84.418 E14.56078
G1 X96.908 Y97.672 E15.14413
G1 X96.908 Y97.139 E15.16073
G1 X84.186 Y84.418 E15.72061
G1 X84.720 Y84.418 E15.73721
G1 X96.908 Y96.606 E16.27362
G1 X96.908 Y96.072 E16.29021
G1 X85.253 Y84.418 E16.80316
G1 X85.786 Y84.418 E16.81975
G1 X96.908 Y95.539 E17.30922
G1 X96.908 Y95.006 E17.32582
G1 X86.319 Y84.418 E17.79182
G1 X86.853 Y84.418 E17.80842
G1 X96.908 Y94.472 E18.25095
G1 X96.908 Y93.939 E18.26754
G1 X87.386 Y84.418 E18.68660
G1 X87.919 Y84.418 E18.70320
G1 X96.908 Y93.406 E19.09879
G1 X96.908 Y92.873 E19.11539
G1 X88.452 Y84.418 E19.48751
G1 X88.986 Y84.418 E19.50410
G1 X96.908 Y92.339 E19.85276
G1 X96.908 Y91.806 E19.86935
G1 X89.519 Y84.418 E20.19453
G1 X90.052 Y84.418 E20.21113
G1 X96.908 Y91.273 E20.51284
G1 X96.908 Y90.740 E20.52943
G1 X90.586 Y84.418 E20.80768
G1 X91.119 Y84.418 E20.82427
G1 X96.908 Y90.206 E21.07904
G1 X96.908 Y89.673 E21.09564
G1 X91.652 Y84.418 E21.32694
G1 X92.185 Y84.418 E21.34353
G1 X96.908 Y89.140 E21.55137
G1 X96.908 Y88.606 E21.56796
G1 X92.719 Y84.418 E21.75232
G1 X93.252 Y84.418 E21.76892
G1 X96.908 Y88.073 E21.92981
G1 X96.908 Y87.540 E21.94640
G1 X93.785 Y84.418 E22.08382
G1 X94.318 Y84.418 E22.10042
G1 X96.908 Y87.007 E22.21437
G1 X96.908 Y86.473 E22.23097
G1 X94.852 Y84.418 E22.32145
G1 X95.385 Y84.418 E22.33804
G1 X97.077 Y86.110 E22.41252
M204 S1500
G92 E0
G1 E-2.00000 F2400.00000
G1 X97.077 Y102.641 F7800.000
G1 E0.00000 F2400.00000
M204 S1250
G1 F1200.000
G1 X64.755 Y70.319 E1.42257
G1 X64.221 Y70.319 E1.43917
G1 X96.908 Y103.005 E2.87774
G1 X96.908 Y103.538 E2.89433
G1 X63.688 Y70.319 E4.35638
G1 X63.155 Y70.319 E4.37297
G1 X96.908 Y104.071 E5.85848
G1 X96.908 Y104.605 E5.87508
G1 X62.622 Y70.319 E7.38406
G1 X62.088 Y70.319 E7.40066
G1 X96.908 Y105.138 E8.93311
G1 X96.908 Y105.671 E8.94971
G1 X61.555 Y70.319 E10.50563
G1 X61.022 Y70.319 E10.52222
G1 X96.908 Y106.204 E12.10162
G1 X96.908 Y106.738 E12.11821
G1 X60.488 Y70.319 E13.72107
G1 X59.955 Y70.319 E13.73767
G1 X96.908 Y107.271 E15.36400
G1 X96.908 Y107.804 E15.38060
G1 X59.422 Y70.319 E17.03040
G1 X58.889 Y70.319 E17.04700
G1 X96.908 Y108.337 E18.72027
G1 X96.908 Y108.871 E18.73687
G1 X58.355 Y70.319 E20.43361
G1 X57.822 Y70.319 E20.45020
G1 X96.908 Y109.404 E22.17042
G1 X96.908 Y109.937 E22.18701
G1 X57.289 Y70.319 E23.93070
G1 X56.756 Y70.319 E23.94729
G1 X96.908 Y110.471 E25.71444
G1 X96.908 Y111.004 E25.73104
G1 X56.222 Y70.319 E27.52166
G1 X55.689 Y70.319 E27.53826
G1 X96.908 Y111.537 E29.35235
G1 X96.908 Y112.070 E29.36895
G1 X55.156 Y70.319 E31.20651
G1 X54.622 Y70.319 E31.22311
G1 X96.908 Y112.604 E33.08414
G1 X96.908 Y113.137 E33.10074
G1 X54.089 Y70.319 E34.98524
G1 X53.602 Y70.365 E35.00047
G1 X96.908 Y113.670 E36.90642
G1 X96.908 Y114.203 E36.92301
G1 X53.173 Y70.469 E38.84785
G1 X52.955 Y70.536 E38.85494
G1 X52.794 Y70.623 E38.86064
G1 X96.908 Y114.737 E40.80214
G1 X96.908 Y115.270 E40.81874
G1 X52.454 Y70.816 E42.77523
G1 X52.163 Y71.058 E42.78701
G1 X96.908 Y115.803 E44.75630
G1 X96.908 Y116.337 E44.77290
G1 X51.907 Y71.336 E46.75346
G1 X51.721 Y71.566 E46.76267
G1 X51.680 Y71.642 E46.76537
G1 X96.908 Y116.870 E48.75590
G1 X96.908 Y117.403 E48.77249
G1 X51.496 Y71.992 E50.77111
G1 X51.363 Y72.392 E50.78423
G1 X96.908 Y117.936 E52.78872
G1 X96.908 Y118.470 E52.80532
G1 X51.281 Y72.843 E54.81341
G1 X51.247 Y73.342 E54.82899
G1 X96.908 Y119.003 E56.83858
G1 X96.908 Y119.536 E56.85518
G1 X51.247 Y73.876 E58.86478
G1 X51.247 Y74.409 E58.88137
G1 X96.908 Y120.069 E60.89097
G1 X96.908 Y120.603 E60.90756
G1 X51.247 Y74.942 E62.91716
G1 X51.247 Y75.475 E62.93376
G1 X96.908 Y121.136 E64.94335
G1 X96.908 Y121.669 E64.95995
G1 X51.247 Y76.009 E66.96954
G1 X51.247 Y76.542 E66.98614
G1 X96.908 Y122.203 E68.99573
G1 X96.908 Y122.736 E69.01233
G1 X51.247 Y77.075 E71.02193
G1 X51.247 Y77.608 E71.03852
G1 X96.908 Y123.269 E73.04812
G1 X96.908 Y123.802 E73.06471
G1 X51.247 Y78.142 E75.07431
G1 X51.247 Y78.675 E75.09091
G1 X96.908 Y124.336 E77.10050
G1 X96.908 Y124.869 E77.11710
G1 X51.247 Y79.208 E79.12669
G1 X51.247 Y79.742 E79.14329
G1 X96.908 Y125.402 E81.15289
G1 X96.908 Y125.935 E81.16948
G1 X51.247 Y80.275 E83.17908
G1 X51.247 Y80.808 E83.19567
G1 X96.908 Y126.469 E85.20527
G1 X96.908 Y127.002 E85.22186
G1 X51.247 Y81.341 E87.23146
G1 X51.247 Y81.875 E87.24806
G1 X96.908 Y127.535 E89.25765
G1 X96.908 Y128.068 E89.27425
G1 X51.247 Y82.408 E91.28384
G1 X51.247 Y82.941 E91.30044
G1 X96.908 Y128.602 E93.31004
G1 X96.908 Y129.135 E93.32663
G1 X51.247 Y83.474 E95.33623
G1 X51.247 Y84.008 E95.35282
G1 X96.908 Y129.668 E97.36242
G1 X96.908 Y129.699 E97.36338
G1 X96.405 Y129.699 E97.37902
G1 X51.247 Y84.541 E99.36650
G1 X51.247 Y85.074 E99.38309
G1 X95.872 Y129.699 E101.34710
G1 X95.339 Y129.699 E101.36370
G1 X51.247 Y85.607 E103.30424
G1 X51.247 Y86.141 E103.32083
G1 X94.805 Y129.699 E105.23790
G1 X94.272 Y129.699 E105.25450
G1 X51.247 Y86.674 E107.14810
G1 X51.247 Y87.207 E107.16470
G1 X93.739 Y129.699 E109.03483
G1 X93.205 Y129.699 E109.05142
G1 X51.247 Y87.741 E110.89808
G1 X51.247 Y88.274 E110.91468
G1 X92.672 Y129.699 E112.73787
G1 X92.139 Y129.699 E112.75446
G1 X51.247 Y88.807 E114.55418
G1 X51.247 Y89.340 E114.57078
G1 X91.606 Y129.699 E116.34703
G1 X91.072 Y129.699 E116.36362
G1 X51.247 Y89.874 E118.11640
G1 X51.247 Y90.407 E118.13300
G1 X90.539 Y129.699 E119.86231
G1 X90.006 Y129.699 E119.87891
G1 X51.247 Y90.940 E121.58475
G1 X51.247 Y91.473 E121.60134
G1 X89.473 Y129.699 E123.28371
G1 X88.939 Y129.699 E123.30031
G1 X51.247 Y92.007 E124.95921
G1 X51.247 Y92.540 E124.97580
G1 X88.406 Y129.699 E126.61123
G1 X87.873 Y129.699 E126.62783
G1 X51.247 Y93.073 E128.23979
G1 X51.247 Y93.607 E128.25638
G1 X87.339 Y129.699 E129.84487
G1 X86.806 Y129.699 E129.86147
G1 X51.247 Y94.140 E131.42649
G1 X51.247 Y94.673 E131.44308
G1 X86.273 Y129.699 E132.98463
G1 X85.740 Y129.699 E133.00123
G1 X51.247 Y95.206 E134.51931
G1 X51.247 Y95.740 E134.53590
G1 X85.206 Y129.699 E136.03051
G1 X84.673 Y129.699 E136.04711
G1 X51.247 Y96.273 E137.51824
G1 X51.247 Y96.806 E137.53484
G1 X84.140 Y129.699 E138.98251
G1 X83.607 Y129.699 E138.99911
G1 X51.247 Y97.339 E140.42330
G1 X51.247 Y97.873 E140.43990
G1 X83.073 Y129.699 E141.84063
G1 X82.540 Y129.699 E141.85722
G1 X51.247 Y98.406 E143.23448
G1 X51.247 Y98.939 E143.25108
G1 X82.007 Y129.699 E144.60487
G1 X81.473 Y129.699 E144.62146
G1 X51.247 Y99.473 E145.95178
G1 X51.247 Y100.006 E145.96838
G1 X80.940 Y129.699 E147.27523
G1 X80.407 Y129.699 E147.29182
G1 X51.247 Y100.539 E148.57520
G1 X51.247 Y101.072 E148.59180
G1 X79.874 Y129.699 E149.85170
G1 X79.340 Y129.699 E149.86830
G1 X51.247 Y101.606 E151.10474
G1 X51.247 Y102.139 E151.12133
G1 X78.807 Y129.699 E152.33430
G1 X78.274 Y129.699 E152.35090
G1 X51.247 Y102.672 E153.54040
G1 X51.247 Y103.205 E153.55699
G1 X77.741 Y129.699 E154.72302
G1 X77.207 Y129.699 E154.73962
G1 X51.247 Y103.739 E155.88217
G1 X51.247 Y104.272 E155.89877
G1 X76.674 Y129.699 E157.01786
G1 X76.141 Y129.699 E157.03445
G1 X51.247 Y104.805 E158.13007
G1 X51.247 Y105.338 E158.14667
G1 X75.608 Y129.699 E159.21881
G1 X75.074 Y129.699 E159.23541
G1 X51.247 Y105.872 E160.28409
G1 X51.247 Y106.405 E160.30068
G1 X74.541 Y129.699 E161.32589
G1 X74.008 Y129.699 E161.34249
G1 X51.247 Y106.938 E162.34422
G1 X51.247 Y107.472 E162.36082
G1 X73.474 Y129.699 E163.33909
G1 X72.941 Y129.699 E163.35568
G1 X51.247 Y108.005 E164.31048
G1 X51.247 Y108.538 E164.32708
G1 X72.408 Y129.699 E165.25840
G1 X71.875 Y129.699 E165.27500
G1 X51.247 Y109.071 E166.18286
G1 X51.247 Y109.605 E166.19945
G1 X71.341 Y129.699 E167.08384
G1 X70.808 Y129.699 E167.10043
G1 X51.247 Y110.138 E167.96135
G1 X51.247 Y110.671 E167.97795
G1 X70.275 Y129.699 E168.81539
G1 X69.742 Y129.699 E168.83199
G1 X51.247 Y111.204 E169.64597
G1 X51.247 Y111.738 E169.66256
G1 X69.208 Y129.699 E170.45307
G1 X68.675 Y129.699 E170.46967
G1 X51.247 Y112.271 E171.23670
G1 X51.247 Y112.804 E171.25330
G1 X68.142 Y129.699 E171.99686
G1 X67.608 Y129.699 E172.01346
G1 X51.247 Y113.338 E172.73356
G1 X51.247 Y113.871 E172.75015
G1 X67.075 Y129.699 E173.44678
G1 X66.542 Y129.699 E173.46337
G1 X51.247 Y114.404 E174.13653
G1 X51.247 Y114.937 E174.15313
G1 X66.009 Y129.699 E174.80281
G1 X65.475 Y129.699 E174.81941
G1 X51.247 Y115.471 E175.44563
G1 X51.247 Y116.004 E175.46222
G1 X64.942 Y129.699 E176.06497
G1 X64.409 Y129.699 E176.08156
G1 X51.247 Y116.537 E176.66084
G1 X51.247 Y117.070 E176.67744
G1 X63.876 Y129.699 E177.23324
G1 X63.342 Y129.699 E177.24984
G1 X51.247 Y117.604 E177.78217
G1 X51.247 Y118.137 E177.79877
G1 X62.809 Y129.699 E178.30763
G1 X62.276 Y129.699 E178.32423
G1 X51.247 Y118.670 E178.80963
G1 X51.247 Y119.204 E178.82622
G1 X61.742 Y129.699 E179.28815
G1 X61.209 Y129.699 E179.30474
G1 X51.247 Y119.737 E179.74320
G1 X51.247 Y120.270 E179.75980
G1 X60.676 Y129.699 E180.17478
