; generated by Slic3r++ 2.2.50 on 2020-05-16 at 07:45:41 UTC

; 

; external perimeters extrusion width = 0.45mm
; perimeters extrusion width = 0.45mm
; infill extrusion width = 0.45mm
; solid infill extrusion width = 0.45mm
; top infill extrusion width = 0.40mm
; first layer extrusion width = 0.42mm

; object:{"name":"X_Carriage","id":"X_Carriage.STL id:0 copy 0","object_center":[98.199738,91.172504,98.199738],"boundingbox_center":[91.172504,4.250000,72.599998],"boundingbox_size":[82.499992,8.500000,0.000000]}

M201 X9000 Y9000 Z500 E10000 ; sets maximum accelerations, mm/sec^2
M203 X500 Y500 Z12 E120 ; sets maximum feedrates, mm/sec
M204 P1500 R1500 T1500 ; sets acceleration (P, T) and retract acceleration (R), mm/sec^2
M205 X10.00 Y10.00 Z0.20 E2.50 ; sets the jerk limits, mm/sec
M205 S0 T0 ; sets the minimum extruding and travel feed rate, mm/sec
M107
M190 S70 ; set bed temperature and wait for it to be reached
M104 S200 ; set temperature
G28 ; home all axes
G1 Z5 F5000 ; lift nozzle
M109 S200 ; set temperature and wait for it to be reached
G21 ; set units to millimeters
G90 ; use absolute coordinates
M82 ; use absolute distances for extrusion
G92 E0
; Filament gcode
G1 Z0.300 F7800.000
G1 E-2.00000 F2400.00000
G1 X71.345 Y48.343 F7800.000
G1 E0.00000 F2400.00000
G1 F1800.000
G1 X72.063 Y47.454 E0.05070
G1 X73.074 Y46.458 E0.11365
G1 X74.215 Y45.594 E0.17713
G1 X75.561 Y44.830 E0.24579
G1 X76.674 Y44.368 E0.29921
G1 X78.093 Y43.969 E0.36460
G1 X79.687 Y43.752 E0.43598
G1 X106.406 Y43.729 E1.62108
G1 X107.944 Y43.836 E1.68949
G1 X109.358 Y44.128 E1.75352
G1 X110.478 Y44.499 E1.80584
G1 X111.818 Y45.128 E1.87151
G1 X113.088 Y45.947 E1.93854
G1 X114.210 Y46.904 E2.00394
G1 X115.237 Y48.054 E2.07233
G1 X115.924 Y49.043 E2.12574
G1 X130.280 Y77.695 E3.54718
G1 X139.894 Y99.223 E4.59298
G1 X140.366 Y100.542 E4.65511
G1 X140.611 Y101.744 E4.70948
G1 X140.693 Y103.053 E4.76766
G1 X140.593 Y104.330 E4.82449
G1 X140.302 Y105.628 E4.88348
G1 X130.242 Y133.673 E6.20504
G1 X129.683 Y134.670 E6.25571
G1 X128.966 Y135.621 E6.30854
G1 X128.125 Y136.465 E6.36139
G1 X127.213 Y137.162 E6.41232
G1 X126.189 Y137.746 E6.46461
G1 X125.246 Y138.136 E6.50986
G1 X124.151 Y138.438 E6.56023
G1 X122.940 Y138.599 E6.61444
G1 X64.314 Y138.616 E9.21480
G1 X62.467 Y138.399 E9.29725
G1 X61.489 Y138.114 E9.34247
G1 X60.649 Y137.765 E9.38279
G1 X59.658 Y137.209 E9.43318
G1 X58.711 Y136.497 E9.48576
G1 X57.866 Y135.657 E9.53860
G1 X57.174 Y134.756 E9.58899
G1 X56.584 Y133.728 E9.64157
G1 X56.196 Y132.799 E9.68624
G1 X55.890 Y131.704 E9.73664
G1 X55.727 Y130.524 E9.78948
G1 X55.707 Y81.268 E11.97424
G1 X55.920 Y79.451 E12.05535
G1 X56.197 Y78.486 E12.09989
G1 X56.545 Y77.641 E12.14044
G1 X70.587 Y49.536 E13.53396
G1 X71.312 Y48.394 E13.59397
; printing object X_Carriage.STL id:0 copy 0
G92 E0
G1 E-2.00000 F2400.00000
G1 X127.829 Y101.525 F7800.000
G1 E0.00000 F2400.00000
G1 F900.000
G1 X127.640 Y101.777 E0.01399
G1 X127.489 Y102.054 E0.02798
G1 X127.377 Y102.353 E0.04214
G1 X127.295 Y102.811 E0.06277
G1 X127.295 Y103.130 E0.07692
G1 X127.340 Y103.442 E0.09091
G1 X127.429 Y103.745 E0.10490
G1 X127.560 Y104.032 E0.11889
G1 X127.730 Y104.297 E0.13288
G1 X127.939 Y104.538 E0.14704
G1 X128.304 Y104.833 E0.16784
G1 X128.724 Y105.043 E0.18864
G1 X129.033 Y105.134 E0.20296
G1 X129.488 Y105.183 E0.22326
G1 X131.507 Y105.183 E0.31280
G1 X131.814 Y105.161 E0.32646
G1 X132.126 Y105.093 E0.34061
G1 X132.556 Y104.915 E0.36125
G1 X132.824 Y104.742 E0.37540
G1 X133.063 Y104.536 E0.38939
G1 X133.272 Y104.294 E0.40355
G1 X133.511 Y103.891 E0.42435
G1 X133.660 Y103.443 E0.44532
G1 X133.711 Y102.973 E0.46629
G1 X133.660 Y102.502 E0.48725
G1 X133.511 Y102.054 E0.50822
G1 X133.272 Y101.651 E0.52902
G1 X133.063 Y101.409 E0.54318
G1 X132.824 Y101.203 E0.55717
G1 X132.556 Y101.030 E0.57132
G1 X132.126 Y100.852 E0.59196
G1 X131.814 Y100.784 E0.60611
G1 X131.507 Y100.763 E0.61977
G1 X129.492 Y100.763 E0.70914
G1 X129.185 Y100.784 E0.72280
G1 X128.877 Y100.852 E0.73679
G1 X128.581 Y100.962 E0.75078
G1 X128.305 Y101.113 E0.76477
G1 X128.052 Y101.302 E0.77876
G1 X127.872 Y101.482 E0.79009
G1 X127.518 Y101.473 F7800.000
G92 E0
G1 E-2.00000 F2400.00000
G1 X103.284 Y65.254 F7800.000
G1 E0.00000 F2400.00000
G1 F900.000
G1 X103.284 Y69.141 E0.17238
G1 X106.650 Y71.084 E0.34475
G1 X110.015 Y69.141 E0.51713
G1 X110.015 Y65.254 E0.68950
G1 X106.650 Y63.311 E0.86188
G1 X103.336 Y65.224 E1.03159
G1 X103.640 Y65.460 F7800.000
G1 F900.000
G1 X103.640 Y68.935 E1.18575
G1 X106.650 Y70.673 E1.33991
G1 X109.660 Y68.935 E1.49408
G1 X109.660 Y65.460 E1.64824
G1 X106.650 Y63.722 E1.80240
G1 X103.692 Y65.430 E1.95390
G1 X103.246 Y65.529 F7800.000
G92 E0
G1 E-2.00000 F2400.00000
G1 X100.723 Y99.208 F7800.000
G1 E0.00000 F2400.00000
G1 F900.000
G1 X100.083 Y99.103 E0.02876
G1 X99.623 Y99.111 E0.04918
G1 X99.168 Y99.186 E0.06960
G1 X98.558 Y99.404 E0.09836
G1 X97.994 Y99.757 E0.12787
G1 X97.531 Y100.212 E0.15664
G1 X97.256 Y100.602 E0.17779
G1 X96.984 Y101.190 E0.20656
G1 X96.841 Y101.840 E0.23607
G1 X96.841 Y102.505 E0.26558
G1 X96.984 Y103.155 E0.29509
G1 X97.263 Y103.759 E0.32460
G1 X97.656 Y104.275 E0.35336
G1 X98.008 Y104.597 E0.37452
G1 X98.543 Y104.932 E0.40254
G1 X98.987 Y105.109 E0.42370
G1 X99.622 Y105.237 E0.45246
G1 X100.288 Y105.225 E0.48197
G1 X100.935 Y105.070 E0.51148
G1 X101.533 Y104.780 E0.54099
G1 X102.042 Y104.378 E0.56975
G1 X102.347 Y104.033 E0.59017
G1 X102.598 Y103.647 E0.61059
G1 X102.849 Y103.049 E0.63935
G1 X102.968 Y102.395 E0.66886
G1 X102.945 Y101.746 E0.69762
G1 X102.842 Y101.281 E0.71878
G1 X102.598 Y100.698 E0.74680
G1 X102.338 Y100.298 E0.76796
G1 X101.892 Y99.828 E0.79673
G1 X101.341 Y99.454 E0.82623
G1 X100.779 Y99.230 E0.85308
G1 X100.647 Y99.561 F7800.000
G1 F900.000
G1 X100.057 Y99.459 E0.87963
G1 X99.655 Y99.466 E0.89748
G1 X99.258 Y99.532 E0.91532
G1 X98.714 Y99.726 E0.94094
G1 X98.215 Y100.038 E0.96702
G1 X97.803 Y100.443 E0.99264
G1 X97.566 Y100.780 E1.01095
G1 X97.323 Y101.304 E1.03657
G1 X97.197 Y101.879 E1.06265
G1 X97.197 Y102.466 E1.08872
G1 X97.323 Y103.041 E1.11480
G1 X97.570 Y103.574 E1.14088
G1 X97.920 Y104.034 E1.16650
G1 X98.224 Y104.312 E1.18481
G1 X98.705 Y104.614 E1.20997
G1 X99.088 Y104.766 E1.22827
G1 X99.655 Y104.880 E1.25389
G1 X100.242 Y104.870 E1.27997
G1 X100.814 Y104.733 E1.30605
G1 X101.343 Y104.477 E1.33213
G1 X101.797 Y104.119 E1.35775
G1 X102.063 Y103.817 E1.37560
G1 X102.283 Y103.480 E1.39344
G1 X102.506 Y102.947 E1.41907
G1 X102.612 Y102.369 E1.44514
G1 X102.591 Y101.791 E1.47076
G1 X102.502 Y101.388 E1.48907
G1 X102.283 Y100.865 E1.51423
G1 X102.057 Y100.520 E1.53254
G1 X101.660 Y100.100 E1.55816
G1 X101.173 Y99.770 E1.58423
G1 X100.703 Y99.583 E1.60671
G1 X100.531 Y99.897 F7800.000
G1 F900.000
G1 X100.031 Y99.815 E1.62918
G1 X99.687 Y99.822 E1.64446
G1 X99.347 Y99.877 E1.65974
G1 X98.870 Y100.048 E1.68222
G1 X98.437 Y100.319 E1.70487
G1 X98.076 Y100.674 E1.72734
G1 X97.875 Y100.959 E1.74279
G1 X97.662 Y101.419 E1.76527
G1 X97.552 Y101.917 E1.78792
G1 X97.552 Y102.428 E1.81056
G1 X97.662 Y102.926 E1.83321
G1 X97.876 Y103.390 E1.85586
G1 X98.183 Y103.793 E1.87833
G1 X98.440 Y104.028 E1.89378
G1 X98.867 Y104.295 E1.91609
G1 X99.190 Y104.424 E1.93154
G1 X99.687 Y104.524 E1.95402
G1 X100.197 Y104.515 E1.97666
G1 X100.694 Y104.396 E1.99931
G1 X101.153 Y104.173 E2.02196
G1 X101.551 Y103.860 E2.04444
G1 X101.779 Y103.601 E2.05971
G1 X101.967 Y103.312 E2.07499
G1 X102.163 Y102.845 E2.09747
G1 X102.255 Y102.343 E2.12012
G1 X102.237 Y101.836 E2.14260
G1 X102.162 Y101.496 E2.15804
G1 X101.967 Y101.033 E2.18035
G1 X101.777 Y100.741 E2.19580
G1 X101.428 Y100.373 E2.21828
G1 X101.006 Y100.086 E2.24092
G1 X100.587 Y99.920 E2.26091
G1 X100.417 Y99.514 F7800.000
G92 E0
G1 E-2.00000 F2400.00000
G1 X89.944 Y101.730 F7800.000
G1 E0.00000 F2400.00000
G1 F900.000
G1 X89.778 Y101.085 E0.02951
G1 X89.477 Y100.492 E0.05902
G1 X89.066 Y99.990 E0.08778
G1 X88.703 Y99.682 E0.10894
G1 X88.156 Y99.366 E0.13696
G1 X87.706 Y99.205 E0.15812
G1 X87.083 Y99.103 E0.18614
G1 X86.623 Y99.111 E0.20656
G1 X86.168 Y99.186 E0.22697
G1 X85.558 Y99.404 E0.25574
G1 X84.994 Y99.757 E0.28525
G1 X84.531 Y100.212 E0.31401
G1 X84.256 Y100.602 E0.33517
G1 X83.984 Y101.190 E0.36393
G1 X83.847 Y101.815 E0.39231
G1 X83.827 Y102.165 E0.40788
G1 X83.846 Y102.529 E0.42403
G1 X83.984 Y103.155 E0.45246
G1 X84.256 Y103.743 E0.48122
G1 X84.531 Y104.133 E0.50238
G1 X84.994 Y104.588 E0.53114
G1 X85.543 Y104.932 E0.55991
G1 X85.987 Y105.109 E0.58107
G1 X86.622 Y105.237 E0.60983
G1 X87.288 Y105.225 E0.63934
G1 X87.935 Y105.070 E0.66885
G1 X88.533 Y104.780 E0.69836
G1 X89.042 Y104.378 E0.72712
G1 X89.347 Y104.033 E0.74754
G1 X89.598 Y103.647 E0.76796
G1 X89.849 Y103.049 E0.79672
G1 X89.968 Y102.395 E0.82623
G1 X89.947 Y101.790 E0.85308
G1 X89.591 Y101.802 F7800.000
G1 F900.000
G1 X89.443 Y101.212 E0.88008
G1 X89.177 Y100.688 E0.90616
G1 X88.811 Y100.241 E0.93178
G1 X88.497 Y99.973 E0.95008
G1 X88.006 Y99.690 E0.97524
G1 X87.617 Y99.551 E0.99355
G1 X87.057 Y99.459 E1.01871
G1 X86.655 Y99.466 E1.03656
G1 X86.258 Y99.532 E1.05441
G1 X85.714 Y99.726 E1.08003
G1 X85.215 Y100.038 E1.10611
G1 X84.803 Y100.443 E1.13173
G1 X84.566 Y100.780 E1.15003
G1 X84.323 Y101.304 E1.17565
G1 X84.200 Y101.863 E1.20103
G1 X84.183 Y102.166 E1.21448
G1 X84.200 Y102.481 E1.22848
G1 X84.323 Y103.041 E1.25389
G1 X84.566 Y103.565 E1.27952
G1 X84.803 Y103.902 E1.29782
G1 X85.215 Y104.307 E1.32344
G1 X85.705 Y104.614 E1.34906
G1 X86.088 Y104.766 E1.36737
G1 X86.655 Y104.880 E1.39299
G1 X87.242 Y104.870 E1.41906
G1 X87.814 Y104.733 E1.44514
G1 X88.343 Y104.477 E1.47122
G1 X88.797 Y104.119 E1.49684
G1 X89.063 Y103.817 E1.51469
G1 X89.283 Y103.480 E1.53254
G1 X89.506 Y102.947 E1.55816
G1 X89.612 Y102.369 E1.58424
G1 X89.593 Y101.862 E1.60671
G1 X89.236 Y101.833 F7800.000
G1 F900.000
G1 X89.109 Y101.338 E1.62935
G1 X88.878 Y100.883 E1.65200
G1 X88.557 Y100.491 E1.67448
G1 X88.291 Y100.265 E1.68993
G1 X87.856 Y100.014 E1.71223
G1 X87.528 Y99.897 E1.72768
G1 X87.031 Y99.815 E1.74999
G1 X86.687 Y99.822 E1.76527
G1 X86.347 Y99.877 E1.78055
G1 X85.870 Y100.048 E1.80303
G1 X85.437 Y100.319 E1.82567
G1 X85.076 Y100.674 E1.84815
G1 X84.875 Y100.959 E1.86360
G1 X84.662 Y101.419 E1.88608
G1 X84.554 Y101.912 E1.90846
G1 X84.540 Y102.166 E1.91979
G1 X84.554 Y102.433 E1.93164
G1 X84.662 Y102.926 E1.95404
G1 X84.875 Y103.386 E1.97652
G1 X85.076 Y103.671 E1.99197
G1 X85.437 Y104.026 E2.01444
G1 X85.867 Y104.295 E2.03692
G1 X86.190 Y104.424 E2.05237
G1 X86.687 Y104.524 E2.07485
G1 X87.197 Y104.515 E2.09749
G1 X87.694 Y104.396 E2.12014
G1 X88.153 Y104.173 E2.14279
G1 X88.551 Y103.860 E2.16526
G1 X88.779 Y103.601 E2.18054
G1 X88.967 Y103.312 E2.19582
G1 X89.163 Y102.845 E2.21830
G1 X89.255 Y102.343 E2.24095
G1 X89.239 Y101.893 E2.26093
G1 X89.541 Y101.574 F7800.000
G92 E0
G1 E-2.00000 F2400.00000
G1 X71.904 Y102.834 F7800.000
G1 E0.00000 F2400.00000
G1 F900.000
G1 X71.975 Y102.189 E0.02876
G1 X71.940 Y101.713 E0.04992
G1 X71.778 Y101.086 E0.07869
G1 X71.477 Y100.492 E0.10820
G1 X71.066 Y99.990 E0.13696
G1 X70.703 Y99.682 E0.15812
G1 X70.156 Y99.366 E0.18614
G1 X69.706 Y99.205 E0.20730
G1 X69.083 Y99.103 E0.23532
G1 X68.623 Y99.111 E0.25574
G1 X68.168 Y99.186 E0.27615
G1 X67.558 Y99.404 E0.30492
G1 X66.994 Y99.757 E0.33443
G1 X66.531 Y100.212 E0.36319
G1 X66.256 Y100.602 E0.38435
G1 X65.984 Y101.190 E0.41311
G1 X65.847 Y101.815 E0.44151
G1 X65.827 Y102.173 E0.45737
G1 X65.847 Y102.530 E0.47324
G1 X65.984 Y103.155 E0.50163
G1 X66.263 Y103.759 E0.53114
G1 X66.656 Y104.275 E0.55991
G1 X67.008 Y104.597 E0.58107
G1 X67.558 Y104.941 E0.60983
G1 X68.168 Y105.159 E0.63859
G1 X68.639 Y105.236 E0.65975
G1 X69.288 Y105.225 E0.68852
G1 X69.935 Y105.070 E0.71803
G1 X70.533 Y104.780 E0.74754
G1 X71.042 Y104.378 E0.77630
G1 X71.358 Y104.020 E0.79746
G1 X71.692 Y103.464 E0.82622
G1 X71.885 Y102.891 E0.85307
G1 X71.548 Y102.777 F7800.000
G1 F900.000
G1 X71.618 Y102.183 E0.87962
G1 X71.588 Y101.771 E0.89792
G1 X71.443 Y101.212 E0.92354
G1 X71.177 Y100.688 E0.94962
G1 X70.811 Y100.241 E0.97524
G1 X70.497 Y99.973 E0.99354
G1 X70.006 Y99.690 E1.01871
G1 X69.617 Y99.551 E1.03701
G1 X69.057 Y99.459 E1.06218
G1 X68.655 Y99.466 E1.08002
G1 X68.258 Y99.532 E1.09787
G1 X67.714 Y99.726 E1.12349
G1 X67.215 Y100.038 E1.14957
G1 X66.803 Y100.443 E1.17519
G1 X66.566 Y100.780 E1.19350
G1 X66.323 Y101.304 E1.21912
G1 X66.200 Y101.863 E1.24451
G1 X66.183 Y102.173 E1.25824
G1 X66.200 Y102.482 E1.27197
G1 X66.323 Y103.041 E1.29736
G1 X66.570 Y103.574 E1.32344
G1 X66.920 Y104.034 E1.34906
G1 X67.224 Y104.312 E1.36736
G1 X67.714 Y104.619 E1.39298
G1 X68.258 Y104.813 E1.41860
G1 X68.665 Y104.880 E1.43691
G1 X69.242 Y104.870 E1.46253
G1 X69.814 Y104.733 E1.48861
G1 X70.343 Y104.477 E1.51468
G1 X70.797 Y104.119 E1.54030
G1 X71.070 Y103.809 E1.55861
G1 X71.367 Y103.314 E1.58423
G1 X71.529 Y102.834 E1.60670
G1 X71.206 Y102.680 F7800.000
G1 F900.000
G1 X71.261 Y102.176 E1.62918
G1 X71.235 Y101.829 E1.64463
G1 X71.109 Y101.338 E1.66710
G1 X70.878 Y100.883 E1.68975
G1 X70.557 Y100.491 E1.71223
G1 X70.291 Y100.265 E1.72768
G1 X69.856 Y100.014 E1.74998
G1 X69.528 Y99.897 E1.76543
G1 X69.031 Y99.815 E1.78774
G1 X68.687 Y99.822 E1.80302
G1 X68.347 Y99.877 E1.81830
G1 X67.870 Y100.048 E1.84078
G1 X67.437 Y100.319 E1.86342
G1 X67.076 Y100.674 E1.88590
G1 X66.875 Y100.959 E1.90135
G1 X66.662 Y101.419 E1.92383
G1 X66.554 Y101.912 E1.94622
G1 X66.539 Y102.173 E1.95781
G1 X66.554 Y102.433 E1.96940
G1 X66.662 Y102.926 E1.99179
G1 X66.876 Y103.390 E2.01444
G1 X67.183 Y103.793 E2.03691
G1 X67.440 Y104.028 E2.05236
G1 X67.870 Y104.297 E2.07484
G1 X68.347 Y104.468 E2.09732
G1 X68.691 Y104.524 E2.11277
G1 X69.197 Y104.515 E2.13524
G1 X69.694 Y104.396 E2.15789
G1 X70.153 Y104.173 E2.18054
G1 X70.551 Y103.860 E2.20301
G1 X70.781 Y103.598 E2.21846
G1 X71.043 Y103.164 E2.24094
G1 X71.187 Y102.737 E2.26093
G1 X71.582 Y102.546 F7800.000
G92 E0
G1 E-2.00000 F2400.00000
G1 X74.628 Y83.689 F7800.000
G1 E0.00000 F2400.00000
G1 F900.000
G1 X75.147 Y83.584 E0.02349
G1 X75.516 Y83.437 E0.04113
G1 X75.965 Y83.156 E0.06462
G1 X76.343 Y82.785 E0.08811
G1 X76.572 Y82.460 E0.10574
G1 X76.794 Y81.979 E0.12923
G1 X76.912 Y81.446 E0.15347
G1 X76.912 Y80.899 E0.17770
G1 X76.794 Y80.366 E0.20194
G1 X76.565 Y79.870 E0.22617
G1 X76.244 Y79.448 E0.24966
G1 X75.951 Y79.180 E0.26730
G1 X75.516 Y78.908 E0.29004
G1 X75.162 Y78.767 E0.30694
G1 X74.792 Y78.678 E0.32383
G1 X74.263 Y78.650 E0.34732
G1 X73.724 Y78.738 E0.37156
G1 X73.216 Y78.940 E0.39579
G1 X72.778 Y79.237 E0.41928
G1 X72.494 Y79.516 E0.43692
G1 X72.189 Y79.949 E0.46041
G1 X71.984 Y80.437 E0.48390
G1 X71.899 Y80.826 E0.50154
G1 X71.880 Y81.355 E0.52502
G1 X71.975 Y81.876 E0.54851
G1 X72.115 Y82.248 E0.56615
G1 X72.388 Y82.702 E0.58964
G1 X72.764 Y83.098 E0.61387
G1 X73.216 Y83.405 E0.63811
G1 X73.708 Y83.601 E0.66160
G1 X74.098 Y83.679 E0.67924
G1 X74.568 Y83.688 E0.70006
G1 X74.574 Y83.332 F7800.000
G1 F900.000
G1 X75.045 Y83.242 E0.72133
G1 X75.355 Y83.119 E0.73612
G1 X75.743 Y82.875 E0.75646
G1 X76.071 Y82.554 E0.77681
G1 X76.263 Y82.281 E0.79159
G1 X76.455 Y81.865 E0.81194
G1 X76.556 Y81.407 E0.83274
G1 X76.556 Y80.938 E0.85354
G1 X76.455 Y80.480 E0.87435
G1 X76.258 Y80.054 E0.89515
G1 X75.981 Y79.689 E0.91549
G1 X75.735 Y79.464 E0.93028
G1 X75.355 Y79.226 E0.95017
G1 X75.055 Y79.107 E0.96449
G1 X74.740 Y79.032 E0.97882
G1 X74.282 Y79.007 E0.99917
G1 X73.819 Y79.083 E1.01997
G1 X73.384 Y79.256 E1.04077
G1 X73.004 Y79.514 E1.06112
G1 X72.766 Y79.747 E1.07590
G1 X72.502 Y80.122 E1.09625
G1 X72.325 Y80.545 E1.11659
G1 X72.253 Y80.871 E1.13138
G1 X72.236 Y81.329 E1.15172
G1 X72.319 Y81.780 E1.17207
G1 X72.437 Y82.092 E1.18685
G1 X72.673 Y82.485 E1.20720
G1 X72.996 Y82.826 E1.22800
G1 X73.384 Y83.089 E1.24880
G1 X73.810 Y83.259 E1.26915
G1 X74.137 Y83.324 E1.28393
G1 X74.514 Y83.331 E1.30067
G1 X74.563 Y82.976 F7800.000
G1 F900.000
G1 X74.943 Y82.900 E1.31787
G1 X75.193 Y82.800 E1.32980
G1 X75.522 Y82.594 E1.34700
G1 X75.798 Y82.323 E1.36420
G1 X75.953 Y82.103 E1.37613
G1 X76.116 Y81.751 E1.39333
G1 X76.200 Y81.368 E1.41071
G1 X76.200 Y80.977 E1.42808
