; generated by Slic3r++ 2.2.50 on 2020-05-16 at 18:04:57 UTC

; 

; external perimeters extrusion width = 0.45mm
; perimeters extrusion width = 0.45mm
; infill extrusion width = 0.45mm
; solid infill extrusion width = 0.45mm
; top infill extrusion width = 0.40mm
; first layer extrusion width = 0.42mm

; object:{"name":"X_Idler_Bolt-Tool_Leo","id":"X_Idler_Bolt-Tool_Leo.stl id:0 copy 0","object_center":[104.615237,105.815070,104.615237],"boundingbox_center":[105.815070,3.750000,14.497198],"boundingbox_size":[14.498598,7.500000,0.000000]}
; object:{"name":"X_Idler_Disc_Leo","id":"X_Idler_Disc_Leo.stl id:1 copy 0","object_center":[135.447974,103.398379,135.447974],"boundingbox_center":[103.398379,1.000000,21.997192],"boundingbox_size":[21.998596,2.000000,0.000000]}

M201 X9000 Y9000 Z500 E10000 ; sets maximum accelerations, mm/sec^2
M203 X500 Y500 Z12 E120 ; sets maximum feedrates, mm/sec
M204 P1500 R1500 T1500 ; sets acceleration (P, T) and retract acceleration (R), mm/sec^2
M205 X10.00 Y10.00 Z0.20 E2.50 ; sets the jerk limits, mm/sec
M205 S0 T0 ; sets the minimum extruding and travel feed rate, mm/sec
M107
M190 S60 ; set bed temperature and wait for it to be reached
M104 S200 ; set temperature
G28 ; home all axes
G1 Z5 F5000 ; lift nozzle
M109 S200 ; set temperature and wait for it to be reached
G21 ; set units to millimeters
G90 ; use absolute coordinates
M82 ; use absolute distances for extrusion
G92 E0
; Filament gcode
G1 Z0.200 F7800.000
G1 E-2.00000 F2400.00000
G1 X95.466 Y95.975 F7800.000
G1 E0.00000 F2400.00000
M204 S1250
G1 F1800.000
G1 X96.261 Y95.291 E0.03286
G1 X97.386 Y94.487 E0.07623
G1 X99.379 Y93.439 E0.14682
G1 X101.602 Y92.720 E0.22009
G1 X132.172 Y86.525 E1.19808
G1 X133.715 Y86.297 E1.24698
G1 X135.328 Y86.211 E1.29761
G1 X136.800 Y86.263 E1.34381
G1 X138.226 Y86.437 E1.38886
G1 X140.647 Y87.015 E1.46688
G1 X142.059 Y87.533 E1.51405
G1 X143.377 Y88.149 E1.55967
G1 X145.561 Y89.502 E1.64019
G1 X146.691 Y90.398 E1.68543
G1 X147.806 Y91.453 E1.73356
G1 X148.819 Y92.599 E1.78150
G1 X149.673 Y93.754 E1.82654
G1 X150.949 Y95.975 E1.90687
G1 X151.522 Y97.313 E1.95250
G1 X151.975 Y98.683 E1.99774
G1 X152.491 Y101.186 E2.07787
G1 X152.618 Y102.635 E2.12350
G1 X152.619 Y104.152 E2.17105
G1 X152.330 Y106.618 E2.24888
G1 X152.001 Y108.022 E2.29412
G1 X151.527 Y109.469 E2.34187
G1 X150.486 Y111.719 E2.41960
G1 X149.737 Y112.949 E2.46474
G1 X148.828 Y114.186 E2.51287
G1 X147.817 Y115.333 E2.56081
G1 X146.772 Y116.327 E2.60605
G1 X144.761 Y117.844 E2.68503
G1 X142.767 Y118.950 E2.75652
G1 X140.597 Y119.797 E2.82955
G1 X138.345 Y120.341 E2.90219
G1 X136.022 Y120.577 E2.97541
G1 X103.532 Y119.209 E3.99500
G1 X102.129 Y119.021 E4.03939
G1 X100.585 Y118.633 E4.08930
G1 X98.816 Y117.936 E4.14893
G1 X97.496 Y117.211 E4.19615
G1 X96.193 Y116.286 E4.24625
G1 X95.083 Y115.286 E4.29308
G1 X94.075 Y114.150 E4.34068
G1 X93.235 Y112.960 E4.38636
G1 X92.551 Y111.730 E4.43050
G1 X92.127 Y110.772 E4.46336
G1 X91.686 Y109.474 E4.50634
G1 X91.367 Y108.058 E4.55183
G1 X91.208 Y106.697 E4.59481
G1 X91.180 Y105.649 E4.62768
G1 X91.265 Y104.293 E4.67027
G1 X91.508 Y102.857 E4.71595
G1 X91.907 Y101.449 E4.76182
G1 X92.414 Y100.189 E4.80442
G1 X92.889 Y99.255 E4.83728
G1 X93.618 Y98.093 E4.88027
G1 X94.514 Y96.953 E4.92575
G1 X95.424 Y96.018 E4.96666
M204 S1500
; printing object X_Idler_Bolt-Tool_Leo.stl id:0 copy 0
G92 E0
G1 E-2.00000 F2400.00000
G1 X100.374 Y101.178 F7800.000
G1 E0.00000 F2400.00000
M204 S1250
G1 F900.000
G1 X100.937 Y100.721 E0.02275
G1 X101.525 Y100.344 E0.04465
G1 X102.163 Y100.029 E0.06697
G1 X102.464 Y99.910 E0.07708
G1 X103.158 Y99.702 E0.09983
G1 X103.474 Y99.635 E0.10994
G1 X104.180 Y99.546 E0.13227
G1 X104.892 Y99.536 E0.15459
G1 X105.214 Y99.558 E0.16470
G1 X105.918 Y99.667 E0.18703
G1 X106.592 Y99.849 E0.20893
G1 X107.242 Y100.105 E0.23083
G1 X107.859 Y100.432 E0.25273
G1 X108.437 Y100.825 E0.27463
G1 X108.967 Y101.280 E0.29653
G1 X109.443 Y101.790 E0.31843
G1 X109.868 Y102.362 E0.34075
G1 X110.038 Y102.636 E0.35087
G1 X110.362 Y103.270 E0.37319
G1 X110.609 Y103.923 E0.39509
G1 X110.782 Y104.600 E0.41699
G1 X110.881 Y105.305 E0.43932
G1 X110.899 Y105.627 E0.44943
G1 X110.879 Y106.339 E0.47175
G1 X110.780 Y107.044 E0.49408
G1 X110.709 Y107.358 E0.50419
G1 X110.495 Y108.037 E0.52651
G1 X110.212 Y108.676 E0.54841
G1 X109.860 Y109.279 E0.57032
G1 X109.435 Y109.850 E0.59264
G1 X109.222 Y110.092 E0.60275
G1 X108.698 Y110.595 E0.62550
G1 X108.448 Y110.798 E0.63561
G1 X107.859 Y111.198 E0.65793
G1 X107.242 Y111.525 E0.67983
G1 X106.579 Y111.786 E0.70216
G1 X106.270 Y111.879 E0.71227
G1 X105.574 Y112.026 E0.73459
G1 X104.879 Y112.094 E0.75650
G1 X104.167 Y112.084 E0.77882
G1 X103.846 Y112.053 E0.78893
G1 X103.145 Y111.925 E0.81126
G1 X102.476 Y111.724 E0.83316
G1 X101.834 Y111.450 E0.85506
G1 X101.226 Y111.106 E0.87696
G1 X100.649 Y110.689 E0.89928
G1 X100.404 Y110.479 E0.90940
G1 X99.904 Y109.972 E0.93172
G1 X99.472 Y109.424 E0.95362
G1 X99.096 Y108.819 E0.97594
G1 X98.949 Y108.532 E0.98606
G1 X98.679 Y107.873 E1.00838
G1 X98.487 Y107.201 E1.03028
G1 X98.369 Y106.499 E1.05260
G1 X98.342 Y106.178 E1.06272
G1 X98.342 Y105.452 E1.08546
G1 X98.369 Y105.131 E1.09558
G1 X98.487 Y104.429 E1.11790
G1 X98.679 Y103.757 E1.13980
G1 X98.944 Y103.111 E1.16170
G1 X99.279 Y102.498 E1.18360
G1 X99.680 Y101.926 E1.20550
G1 X100.151 Y101.392 E1.22783
G1 X100.331 Y101.220 E1.23563
M204 S1500
G1 X100.070 Y100.948 F7800.000
M204 S1250
G1 F1800.000
G1 X100.716 Y100.415 E1.26190
G1 X101.339 Y100.015 E1.28512
G1 X102.011 Y99.683 E1.30859
G1 X102.340 Y99.554 E1.31969
G1 X103.065 Y99.336 E1.34342
G1 X103.411 Y99.263 E1.35452
G1 X104.154 Y99.169 E1.37800
G1 X104.903 Y99.159 E1.40147
G1 X105.256 Y99.183 E1.41257
G1 X105.996 Y99.297 E1.43605
G1 X106.711 Y99.491 E1.45926
G1 X107.399 Y99.762 E1.48248
G1 X108.054 Y100.108 E1.50570
G1 X108.666 Y100.525 E1.52892
G1 X109.228 Y101.007 E1.55213
G1 X109.733 Y101.549 E1.57535
G1 X110.180 Y102.149 E1.59882
G1 X110.367 Y102.450 E1.60993
G1 X110.708 Y103.117 E1.63340
G1 X110.970 Y103.809 E1.65662
G1 X111.153 Y104.527 E1.67983
G1 X111.257 Y105.268 E1.70331
G1 X111.276 Y105.622 E1.71441
G1 X111.255 Y106.370 E1.73788
G1 X111.152 Y107.112 E1.76136
G1 X111.074 Y107.457 E1.77246
G1 X110.848 Y108.171 E1.79593
G1 X110.548 Y108.848 E1.81915
G1 X110.175 Y109.487 E1.84237
G1 X109.728 Y110.088 E1.86584
G1 X109.494 Y110.354 E1.87694
G1 X108.948 Y110.878 E1.90067
G1 X108.673 Y111.100 E1.91177
G1 X108.054 Y111.522 E1.93525
G1 X107.399 Y111.868 E1.95847
G1 X106.703 Y112.142 E1.98194
G1 X106.364 Y112.244 E1.99304
G1 X105.631 Y112.399 E2.01652
G1 X104.894 Y112.471 E2.03973
G1 X104.146 Y112.461 E2.06321
G1 X103.793 Y112.426 E2.07431
G1 X103.057 Y112.292 E2.09778
G1 X102.348 Y112.079 E2.12100
G1 X101.667 Y111.788 E2.14422
G1 X101.022 Y111.424 E2.16743
G1 X100.415 Y110.986 E2.19091
G1 X100.146 Y110.755 E2.20201
G1 X99.621 Y110.222 E2.22548
G1 X99.162 Y109.640 E2.24870
G1 X98.767 Y109.005 E2.27217
G1 X98.606 Y108.689 E2.28328
G1 X98.322 Y107.997 E2.30675
G1 X98.119 Y107.285 E2.32997
G1 X97.994 Y106.546 E2.35344
G1 X97.965 Y106.193 E2.36454
G1 X97.965 Y105.437 E2.38827
G1 X97.994 Y105.084 E2.39937
G1 X98.119 Y104.346 E2.42285
G1 X98.322 Y103.633 E2.44606
G1 X98.603 Y102.948 E2.46928
G1 X98.958 Y102.299 E2.49250
G1 X99.383 Y101.692 E2.51572
G1 X99.879 Y101.131 E2.53919
G1 X100.026 Y100.989 E2.54561
M204 S1500
G1 X99.765 Y100.717 F7800.000
M204 S1250
G1 F1800.000
G1 X100.495 Y100.108 E2.57540
G1 X101.153 Y99.686 E2.59993
G1 X101.858 Y99.338 E2.62455
G1 X102.216 Y99.197 E2.63664
G1 X102.971 Y98.970 E2.66136
G1 X103.348 Y98.890 E2.67345
G1 X104.128 Y98.792 E2.69807
G1 X104.913 Y98.781 E2.72270
G1 X105.298 Y98.808 E2.73479
G1 X106.074 Y98.928 E2.75941
G1 X106.829 Y99.132 E2.78395
G1 X107.557 Y99.419 E2.80848
G1 X108.249 Y99.785 E2.83301
G1 X108.896 Y100.225 E2.85755
G1 X109.490 Y100.735 E2.88208
G1 X110.023 Y101.307 E2.90661
G1 X110.492 Y101.937 E2.93124
G1 X110.695 Y102.264 E2.94333
G1 X111.053 Y102.964 E2.96795
G1 X111.330 Y103.696 E2.99248
G1 X111.523 Y104.454 E3.01702
G1 X111.632 Y105.232 E3.04164
G1 X111.654 Y105.616 E3.05373
G1 X111.632 Y106.402 E3.07836
G1 X111.523 Y107.179 E3.10298
G1 X111.438 Y107.555 E3.11507
G1 X111.202 Y108.304 E3.13970
G1 X110.885 Y109.020 E3.16423
G1 X110.490 Y109.696 E3.18876
G1 X110.022 Y110.326 E3.21339
G1 X109.767 Y110.615 E3.22548
G1 X109.198 Y111.161 E3.25019
G1 X108.898 Y111.403 E3.26228
G1 X108.249 Y111.845 E3.28691
G1 X107.557 Y112.211 E3.31144
G1 X106.826 Y112.499 E3.33607
G1 X106.457 Y112.610 E3.34815
G1 X105.689 Y112.773 E3.37278
G1 X104.910 Y112.849 E3.39731
G1 X104.125 Y112.838 E3.42194
G1 X103.741 Y112.800 E3.43403
G1 X102.969 Y112.659 E3.45865
G1 X102.219 Y112.434 E3.48318
G1 X101.499 Y112.127 E3.50772
G1 X100.818 Y111.742 E3.53225
G1 X100.182 Y111.282 E3.55688
G1 X99.889 Y111.031 E3.56897
G1 X99.337 Y110.472 E3.59359
G1 X98.853 Y109.857 E3.61812
G1 X98.439 Y109.190 E3.64275
G1 X98.263 Y108.847 E3.65484
G1 X97.965 Y108.120 E3.67946
G1 X97.750 Y107.368 E3.70400
G1 X97.620 Y106.593 E3.72862
G1 X97.588 Y106.209 E3.74071
G1 X97.588 Y105.421 E3.76543
G1 X97.620 Y105.037 E3.77752
G1 X97.750 Y104.262 E3.80214
G1 X97.965 Y103.510 E3.82667
G1 X98.262 Y102.786 E3.85121
G1 X98.637 Y102.099 E3.87574
G1 X99.087 Y101.459 E3.90027
G1 X99.722 Y100.759 E3.92992
M204 S1500
G1 X100.147 Y100.838 F7800.000
G92 E0
G1 E-2.00000 F2400.00000
G1 X110.374 Y103.621 F7800.000
G1 E0.00000 F2400.00000
M204 S1250
G1 F1200.000
G1 X107.111 Y100.358 E0.14238
G1 X106.503 Y100.118 E0.16257
G1 X106.277 Y100.057 E0.16977
G1 X110.377 Y104.157 E0.34868
G1 X110.504 Y104.655 E0.36453
G1 X110.531 Y104.844 E0.37043
G1 X105.589 Y99.902 E0.58607
G1 X104.979 Y99.826 E0.60505
G1 X110.606 Y105.452 E0.85059
G1 X110.606 Y105.986 E0.86705
G1 X104.446 Y99.825 E1.13589
G1 X104.200 Y99.828 E1.14347
G1 X103.947 Y99.860 E1.15132
G1 X110.573 Y106.486 E1.44045
G1 X110.508 Y106.954 E1.45503
G1 X103.477 Y99.923 E1.76183
G1 X103.050 Y100.029 E1.77541
G1 X110.405 Y107.384 E2.09636
G1 X110.277 Y107.789 E2.10948
G1 X102.640 Y100.153 E2.44274
G1 X102.278 Y100.287 E2.45466
G1 X102.254 Y100.299 E2.45550
G1 X110.126 Y108.172 E2.79905
G1 X109.962 Y108.541 E2.81152
G1 X101.897 Y100.476 E3.16350
G1 X101.551 Y100.663 E3.17564
G1 X109.766 Y108.879 E3.53415
G1 X109.561 Y109.207 E3.54610
G1 X101.226 Y100.871 E3.90985
G1 X100.920 Y101.099 E3.92161
G1 X109.334 Y109.513 E4.28880
G1 X109.096 Y109.808 E4.30050
G1 X100.625 Y101.337 E4.67014
G1 X100.349 Y101.595 E4.68178
G1 X108.830 Y110.076 E5.05189
G1 X108.558 Y110.337 E5.06352
G1 X100.099 Y101.878 E5.43266
G1 X99.856 Y102.168 E5.44434
G1 X108.267 Y110.579 E5.81137
G1 X107.949 Y110.795 E5.82322
G1 X99.636 Y102.481 E6.18600
G1 X99.431 Y102.810 E6.19794
G1 X107.624 Y111.003 E6.55549
G1 X107.275 Y111.187 E6.56766
G1 X99.242 Y103.154 E6.91821
G1 X99.080 Y103.525 E6.93070
G1 X106.908 Y111.353 E7.27230
G1 X106.525 Y111.503 E7.28498
G1 X98.930 Y103.908 E7.61643
G1 X98.811 Y104.323 E7.62974
G1 X106.112 Y111.623 E7.94832
G1 X105.672 Y111.716 E7.96220
G1 X98.718 Y104.763 E8.26566
G1 X98.645 Y105.223 E8.28005
G1 X105.200 Y111.778 E8.56612
G1 X104.867 Y111.811 E8.57645
G1 X104.697 Y111.809 E8.58169
G1 X98.625 Y105.736 E8.84668
G1 X98.634 Y106.279 E8.86343
G1 X104.154 Y111.799 E9.10431
G1 X103.885 Y111.772 E9.11265
G1 X103.530 Y111.707 E9.12380
G1 X98.723 Y106.901 E9.33354
G1 X98.763 Y107.139 E9.34097
G1 X98.897 Y107.609 E9.35605
G1 X102.821 Y111.532 E9.52725
G1 X102.573 Y111.457 E9.53524
G1 X101.941 Y111.185 E9.55647
G1 X98.921 Y108.166 E9.68825
M204 S1500
; stop printing object X_Idler_Bolt-Tool_Leo.stl id:0 copy 0
; printing object X_Idler_Disc_Leo.stl id:1 copy 0
G92 E0
G1 E-2.00000 F2400.00000
G1 X129.998 Y103.756 F7800.000
G1 E0.00000 F2400.00000
M204 S1250
G1 F900.000
G1 X130.091 Y104.460 E0.02229
G1 X130.173 Y104.812 E0.03360
G1 X130.277 Y105.157 E0.04491
G1 X130.549 Y105.813 E0.06720
G1 X130.905 Y106.429 E0.08948
G1 X131.117 Y106.725 E0.10090
G1 X131.583 Y107.257 E0.12308
G1 X131.849 Y107.506 E0.13450
G1 X132.410 Y107.936 E0.15668
G1 X132.717 Y108.127 E0.16799
G1 X133.035 Y108.297 E0.17930
G1 X133.691 Y108.569 E0.20159
G1 X134.378 Y108.753 E0.22387
G1 X134.734 Y108.812 E0.23518
G1 X135.093 Y108.847 E0.24650
G1 X135.804 Y108.847 E0.26878
G1 X136.508 Y108.754 E0.29107
G1 X136.860 Y108.672 E0.30238
G1 X137.205 Y108.568 E0.31369
G1 X137.862 Y108.296 E0.33598
G1 X138.477 Y107.940 E0.35827
G1 X138.773 Y107.728 E0.36968
G1 X139.305 Y107.262 E0.39186
G1 X139.554 Y106.996 E0.40328
G1 X139.985 Y106.435 E0.42546
G1 X140.175 Y106.128 E0.43677
G1 X140.345 Y105.810 E0.44808
G1 X140.617 Y105.154 E0.47037
G1 X140.801 Y104.467 E0.49266
G1 X140.860 Y104.111 E0.50397
G1 X140.895 Y103.752 E0.51528
G1 X140.895 Y103.045 E0.53746
G1 X140.860 Y102.682 E0.54888
G1 X140.722 Y101.988 E0.57105
G1 X140.616 Y101.640 E0.58247
G1 X140.344 Y100.983 E0.60476
G1 X139.988 Y100.368 E0.62705
G1 X139.776 Y100.072 E0.63847
G1 X139.310 Y99.540 E0.66065
G1 X139.047 Y99.293 E0.67196
G1 X138.768 Y99.064 E0.68327
G1 X138.180 Y98.671 E0.70545
G1 X137.858 Y98.500 E0.71686
G1 X137.205 Y98.229 E0.73904
G1 X136.856 Y98.123 E0.75046
G1 X136.163 Y97.985 E0.77264
G1 X135.800 Y97.950 E0.78406
G1 X135.093 Y97.950 E0.80624
G1 X134.730 Y97.985 E0.81766
G1 X134.037 Y98.123 E0.83984
G1 X133.688 Y98.229 E0.85126
G1 X133.035 Y98.500 E0.87343
G1 X132.713 Y98.671 E0.88485
G1 X132.122 Y99.066 E0.90714
G1 X131.588 Y99.535 E0.92943
G1 X131.341 Y99.798 E0.94074
G1 X131.113 Y100.077 E0.95205
G1 X130.720 Y100.665 E0.97423
G1 X130.548 Y100.986 E0.98565
G1 X130.276 Y101.643 E1.00793
G1 X130.092 Y102.330 E1.03022
G1 X130.033 Y102.686 E1.04153
G1 X129.998 Y103.045 E1.05284
G1 X129.998 Y103.696 E1.07325
M204 S1500
G1 X129.670 Y103.985 F7800.000
G92 E0
G1 E-2.00000 F2400.00000
G1 X134.753 Y97.180 F7800.000
G1 E0.00000 F2400.00000
M204 S1250
G1 F900.000
G1 X135.175 Y97.290 E0.01366
G1 X135.610 Y97.303 E0.02733
G1 X136.031 Y97.217 E0.04080
G1 X136.246 Y97.134 E0.04802
G1 X136.614 Y96.912 E0.06149
G1 X136.922 Y96.613 E0.07496
G1 X137.057 Y96.426 E0.08218
G1 X137.247 Y96.041 E0.09565
G1 X137.345 Y95.616 E0.10932
G1 X137.345 Y95.180 E0.12298
G1 X137.247 Y94.756 E0.13664
G1 X137.055 Y94.365 E0.15030
G1 X136.783 Y94.032 E0.16378
G1 X136.613 Y93.886 E0.17081
G1 X136.428 Y93.759 E0.17783
G1 X136.037 Y93.581 E0.19131
G1 X135.610 Y93.494 E0.20497
G1 X135.181 Y93.506 E0.21844
G1 X134.955 Y93.552 E0.22566
G1 X134.555 Y93.708 E0.23913
G1 X134.195 Y93.954 E0.25280
G1 X133.900 Y94.275 E0.26646
G1 X133.686 Y94.654 E0.28012
G1 X133.565 Y95.067 E0.29359
G1 X133.539 Y95.295 E0.30081
G1 X133.563 Y95.724 E0.31428
G1 X133.684 Y96.137 E0.32776
G1 X133.786 Y96.343 E0.33497
G1 X134.035 Y96.686 E0.34826
G1 X134.196 Y96.842 E0.35529
G1 X134.373 Y96.979 E0.36231
G1 X134.700 Y97.152 E0.37390
M204 S1500
G1 X134.829 Y97.572 F7800.000
G1 X133.720 Y97.431
M204 S1250
G1 F1800.000
G1 X133.434 Y97.518 E0.38327
G1 X132.712 Y97.817 E0.40778
G1 X132.325 Y98.024 E0.42152
G1 X131.662 Y98.467 E0.44652
G1 X131.063 Y98.992 E0.47152
G1 X130.774 Y99.301 E0.48476
G1 X130.506 Y99.627 E0.49801
G1 X130.072 Y100.277 E0.52251
G1 X129.865 Y100.664 E0.53625
G1 X129.560 Y101.400 E0.56125
G1 X129.354 Y102.170 E0.58625
G1 X129.285 Y102.587 E0.59950
G1 X129.244 Y103.008 E0.61274
G1 X129.244 Y103.805 E0.63774
G1 X129.348 Y104.595 E0.66274
G1 X129.444 Y105.007 E0.67599
G1 X129.566 Y105.411 E0.68923
G1 X129.871 Y106.148 E0.71423
G1 X130.270 Y106.838 E0.73923
G1 X130.525 Y107.194 E0.75297
G1 X131.041 Y107.782 E0.77747
G1 X131.360 Y108.082 E0.79122
G1 X131.980 Y108.557 E0.81572
G1 X132.339 Y108.780 E0.82897
G1 X132.712 Y108.980 E0.84221
G1 X133.710 Y109.393 E0.87608
G1 X133.500 Y109.574 E0.88477
G1 X133.290 Y109.832 E0.89518
G1 X133.110 Y110.111 E0.90559
G1 X132.884 Y110.646 E0.92381
G1 X132.780 Y111.246 E0.94290
G1 X132.814 Y111.826 E0.96111
G1 X132.895 Y112.176 E0.97239
G1 X133.121 Y112.712 E0.99061
G1 X133.304 Y112.963 E1.00034
G1 X133.157 Y113.172 E1.00837
G1 X132.216 Y112.899 E1.03906
G1 X131.372 Y112.569 E1.06749
G1 X130.561 Y112.163 E1.09593
G1 X129.780 Y111.681 E1.12470
G1 X129.429 Y111.429 E1.13824
