; generated by Slic3r++ 2.2.50 on 2020-05-23 at 15:05:09 UTC

; 

; external perimeters extrusion width = 0.45mm
; perimeters extrusion width = 0.45mm
; infill extrusion width = 0.45mm
; solid infill extrusion width = 0.45mm
; top infill extrusion width = 0.40mm
; first layer extrusion width = 0.42mm

; object:{"name":"X_Idler_Disc_Leo","id":"X_Idler_Disc_Leo.stl id:0 copy 0","object_center":[100.000000,100.000000,100.000000],"boundingbox_center":[100.000000,1.000000,21.997192],"boundingbox_size":[21.998596,2.000000,0.000000]}

M201 X9000 Y9000 Z500 E10000 ; sets maximum accelerations, mm/sec^2
M203 X500 Y500 Z12 E120 ; sets maximum feedrates, mm/sec
M204 P1500 R1500 T1500 ; sets acceleration (P, T) and retract acceleration (R), mm/sec^2
M205 X10.00 Y10.00 Z0.20 E2.50 ; sets the jerk limits, mm/sec
M205 S0 T0 ; sets the minimum extruding and travel feed rate, mm/sec
M107
M190 S60 ; set bed temperature and wait for it to be reached
M104 S205 ; set temperature
G28 ; home all axes
G1 Z5 F5000 ; lift nozzle
M109 S205 ; set temperature and wait for it to be reached
G21 ; set units to millimeters
G90 ; use absolute coordinates
M82 ; use absolute distances for extrusion
G92 E0
; Filament gcode
G1 Z0.200 F7800.000
G1 E-2.00000 F2400.00000
G1 X87.906 Y87.785 F7800.000
G1 E0.00000 F2400.00000
M204 S1250
G1 F1200.000
G1 X89.082 Y86.724 E0.04967
G1 X90.401 Y85.741 E0.10126
G1 X91.750 Y84.921 E0.15073
G1 X93.618 Y84.041 E0.21549
G1 X95.179 Y83.501 E0.26727
G1 X96.706 Y83.130 E0.31656
G1 X98.267 Y82.899 E0.36603
G1 X99.880 Y82.812 E0.41666
G1 X101.487 Y82.877 E0.46710
G1 X103.536 Y83.180 E0.53205
G1 X105.134 Y83.597 E0.58383
G1 X106.611 Y84.134 E0.63312
G1 X108.044 Y84.811 E0.68279
G1 X109.464 Y85.653 E0.73457
G1 X110.735 Y86.578 E0.78385
G1 X112.267 Y87.963 E0.84861
G1 X113.371 Y89.200 E0.90058
G1 X114.305 Y90.472 E0.95006
G1 X115.118 Y91.824 E0.99954
G1 X115.830 Y93.308 E1.05113
G1 X116.376 Y94.785 E1.10051
G1 X116.884 Y96.790 E1.16536
G1 X117.115 Y98.425 E1.21714
G1 X117.187 Y100.001 E1.26662
G1 X117.115 Y101.578 E1.31610
G1 X116.885 Y103.207 E1.36769
G1 X116.376 Y105.215 E1.43264
G1 X115.829 Y106.695 E1.48211
G1 X115.117 Y108.178 E1.53370
G1 X114.303 Y109.530 E1.58318
G1 X113.369 Y110.802 E1.63265
G1 X112.265 Y112.039 E1.68463
G1 X110.737 Y113.420 E1.74919
G1 X109.462 Y114.348 E1.79867
G1 X108.041 Y115.191 E1.85045
G1 X106.608 Y115.867 E1.90012
G1 X105.137 Y116.402 E1.94921
G1 X103.533 Y116.820 E2.00119
G1 X101.484 Y117.123 E2.06614
G1 X99.870 Y117.188 E2.11677
G1 X98.246 Y117.099 E2.16778
G1 X96.613 Y116.851 E2.21957
G1 X95.076 Y116.468 E2.26923
G1 X93.142 Y115.761 E2.33380
G1 X91.655 Y115.028 E2.38577
G1 X90.312 Y114.199 E2.43525
G1 X89.051 Y113.251 E2.48472
G1 X87.839 Y112.147 E2.53613
G1 X86.772 Y110.976 E2.58579
G1 X85.548 Y109.305 E2.65074
G1 X84.721 Y107.876 E2.70252
G1 X84.065 Y106.447 E2.75181
G1 X83.541 Y104.959 E2.80128
G1 X83.143 Y103.362 E2.85288
G1 X82.906 Y101.802 E2.90235
G1 X82.813 Y99.751 E2.96672
G1 X82.916 Y98.091 E3.01889
G1 X83.163 Y96.532 E3.06837
G1 X83.552 Y95.003 E3.11784
G1 X84.106 Y93.453 E3.16944
G1 X84.775 Y92.021 E3.21901
G1 X85.844 Y90.250 E3.28386
G1 X86.844 Y88.936 E3.33564
G1 X87.865 Y87.829 E3.38285
M204 S1500
; printing object X_Idler_Disc_Leo.stl id:0 copy 0
G92 E0
G1 E-2.00000 F2400.00000
G1 X96.140 Y96.137 F7800.000
G1 E0.00000 F2400.00000
M204 S1250
G1 F900.000
G1 X95.665 Y96.679 E0.02261
G1 X95.272 Y97.267 E0.04479
G1 X95.100 Y97.588 E0.05621
G1 X94.828 Y98.245 E0.07849
G1 X94.644 Y98.931 E0.10078
G1 X94.550 Y99.646 E0.12339
G1 X94.550 Y100.357 E0.14568
G1 X94.643 Y101.062 E0.16796
G1 X94.829 Y101.758 E0.19057
G1 X95.101 Y102.415 E0.21286
G1 X95.457 Y103.031 E0.23515
G1 X95.669 Y103.327 E0.24657
G1 X96.135 Y103.859 E0.26875
G1 X96.401 Y104.107 E0.28016
G1 X96.962 Y104.538 E0.30234
G1 X97.587 Y104.899 E0.32495
G1 X98.243 Y105.171 E0.34724
G1 X98.930 Y105.355 E0.36953
G1 X99.645 Y105.449 E0.39214
G1 X100.356 Y105.449 E0.41442
G1 X101.060 Y105.356 E0.43671
G1 X101.757 Y105.169 E0.45932
G1 X102.414 Y104.897 E0.48161
G1 X103.029 Y104.542 E0.50389
G1 X103.325 Y104.330 E0.51531
G1 X103.857 Y103.863 E0.53749
G1 X104.106 Y103.598 E0.54891
G1 X104.537 Y103.036 E0.57109
G1 X104.897 Y102.412 E0.59370
G1 X105.169 Y101.755 E0.61599
G1 X105.353 Y101.069 E0.63827
G1 X105.447 Y100.354 E0.66088
G1 X105.447 Y99.646 E0.68306
G1 X105.412 Y99.284 E0.69448
G1 X105.274 Y98.590 E0.71666
G1 X105.168 Y98.242 E0.72808
G1 X104.896 Y97.585 E0.75037
G1 X104.541 Y96.969 E0.77265
G1 X104.328 Y96.673 E0.78407
G1 X103.862 Y96.141 E0.80625
G1 X103.320 Y95.666 E0.82886
G1 X102.732 Y95.273 E0.85104
G1 X102.411 Y95.101 E0.86246
G1 X101.757 Y94.831 E0.88464
G1 X101.408 Y94.725 E0.89606
G1 X100.715 Y94.587 E0.91823
G1 X100.352 Y94.551 E0.92965
G1 X99.645 Y94.551 E0.95183
G1 X99.282 Y94.587 E0.96325
G1 X98.589 Y94.725 E0.98543
G1 X98.240 Y94.831 E0.99685
G1 X97.587 Y95.101 E1.01903
G1 X97.266 Y95.273 E1.03045
G1 X96.674 Y95.668 E1.05273
G1 X96.185 Y96.097 E1.07314
M204 S1500
G1 X95.752 Y96.042 F7800.000
G92 E0
G1 E-2.00000 F2400.00000
G1 X99.305 Y93.781 F7800.000
G1 E0.00000 F2400.00000
M204 S1250
G1 F900.000
G1 X99.727 Y93.892 E0.01366
G1 X100.162 Y93.904 E0.02733
G1 X100.583 Y93.819 E0.04080
G1 X100.798 Y93.736 E0.04802
G1 X101.166 Y93.514 E0.06149
G1 X101.474 Y93.214 E0.07496
G1 X101.609 Y93.028 E0.08218
G1 X101.799 Y92.642 E0.09565
G1 X101.898 Y92.218 E0.10932
G1 X101.898 Y91.782 E0.12298
G1 X101.799 Y91.358 E0.13664
G1 X101.607 Y90.967 E0.15030
G1 X101.335 Y90.634 E0.16378
G1 X101.165 Y90.487 E0.17081
G1 X100.980 Y90.361 E0.17783
G1 X100.589 Y90.182 E0.19131
G1 X100.162 Y90.096 E0.20497
G1 X99.733 Y90.108 E0.21844
G1 X99.507 Y90.154 E0.22566
G1 X99.107 Y90.310 E0.23913
G1 X98.747 Y90.555 E0.25280
G1 X98.452 Y90.877 E0.26646
G1 X98.238 Y91.256 E0.28012
G1 X98.117 Y91.668 E0.29359
G1 X98.091 Y91.897 E0.30081
G1 X98.115 Y92.326 E0.31428
G1 X98.236 Y92.738 E0.32776
G1 X98.338 Y92.945 E0.33497
G1 X98.587 Y93.288 E0.34826
G1 X98.748 Y93.444 E0.35529
G1 X98.925 Y93.581 E0.36231
G1 X99.252 Y93.753 E0.37390
M204 S1500
G1 X99.381 Y94.174 F7800.000
G1 X98.272 Y94.033
M204 S1250
G1 F1200.000
G1 X97.986 Y94.120 E0.38327
G1 X97.264 Y94.419 E0.40778
G1 X96.877 Y94.625 E0.42152
G1 X96.214 Y95.068 E0.44652
G1 X95.615 Y95.594 E0.47152
G1 X95.326 Y95.902 E0.48476
G1 X95.058 Y96.229 E0.49801
G1 X94.624 Y96.879 E0.52251
G1 X94.417 Y97.265 E0.53625
G1 X94.112 Y98.002 E0.56125
G1 X93.906 Y98.772 E0.58625
G1 X93.837 Y99.189 E0.59950
G1 X93.796 Y99.609 E0.61274
G1 X93.796 Y100.407 E0.63774
G1 X93.900 Y101.197 E0.66274
G1 X93.996 Y101.608 E0.67599
G1 X94.118 Y102.013 E0.68923
G1 X94.423 Y102.749 E0.71423
G1 X94.822 Y103.440 E0.73923
G1 X95.077 Y103.796 E0.75297
G1 X95.593 Y104.384 E0.77747
G1 X95.913 Y104.683 E0.79122
G1 X96.532 Y105.159 E0.81572
G1 X96.891 Y105.382 E0.82897
G1 X97.264 Y105.581 E0.84221
G1 X98.262 Y105.995 E0.87608
G1 X98.052 Y106.176 E0.88477
G1 X97.842 Y106.433 E0.89518
G1 X97.662 Y106.712 E0.90559
G1 X97.436 Y107.248 E0.92381
G1 X97.332 Y107.848 E0.94290
G1 X97.366 Y108.428 E0.96111
G1 X97.447 Y108.778 E0.97239
G1 X97.673 Y109.313 E0.99061
G1 X97.856 Y109.564 E1.00034
G1 X97.709 Y109.774 E1.00837
G1 X96.769 Y109.501 E1.03906
G1 X95.924 Y109.170 E1.06749
G1 X95.113 Y108.765 E1.09593
G1 X94.332 Y108.282 E1.12470
G1 X93.981 Y108.031 E1.13824
G1 X93.273 Y107.447 E1.16702
G1 X92.628 Y106.810 E1.19545
G1 X92.043 Y106.116 E1.22389
G1 X91.523 Y105.373 E1.25232
G1 X91.068 Y104.577 E1.28110
G1 X90.879 Y104.188 E1.29464
G1 X90.535 Y103.337 E1.32342
G1 X90.272 Y102.469 E1.35185
G1 X90.089 Y101.581 E1.38029
G1 X89.987 Y100.680 E1.40872
G1 X89.966 Y99.762 E1.43750
G1 X89.986 Y99.331 E1.45104
G1 X90.089 Y98.419 E1.47982
G1 X90.272 Y97.531 E1.50825
G1 X90.535 Y96.663 E1.53669
G1 X90.875 Y95.822 E1.56512
G1 X91.289 Y95.015 E1.59356
G1 X91.781 Y94.240 E1.62233
G1 X92.036 Y93.892 E1.63587
G1 X92.628 Y93.190 E1.66465
G1 X93.273 Y92.553 E1.69309
G1 X93.973 Y91.976 E1.72152
G1 X94.722 Y91.465 E1.74996
G1 X95.514 Y91.023 E1.77839
G1 X96.343 Y90.655 E1.80683
G1 X97.211 Y90.359 E1.83560
G1 X97.996 Y90.151 E1.86106
G1 X97.539 Y90.960 E1.89021
G1 X97.375 Y91.518 E1.90843
G1 X97.334 Y91.875 E1.91971
G1 X97.367 Y92.455 E1.93792
G1 X97.531 Y93.013 E1.95614
G1 X97.690 Y93.336 E1.96742
G1 X98.015 Y93.783 E1.98476
G1 X98.229 Y93.991 E1.99412
M204 S1500
G1 X99.292 Y94.201 F7800.000
M204 S1250
G1 F1200.000
G1 X98.497 Y94.359 E2.01953
G1 X98.113 Y94.475 E2.03212
G1 X97.425 Y94.760 E2.05546
G1 X97.071 Y94.949 E2.06804
G1 X96.444 Y95.368 E2.09168
G1 X95.878 Y95.865 E2.11532
G1 X95.610 Y96.151 E2.12760
G1 X95.361 Y96.454 E2.13988
G1 X94.948 Y97.073 E2.16322
G1 X94.759 Y97.427 E2.17580
G1 X94.470 Y98.123 E2.19944
G1 X94.275 Y98.852 E2.22309
G1 X94.211 Y99.238 E2.23536
G1 X94.173 Y99.628 E2.24764
G1 X94.173 Y100.382 E2.27129
G1 X94.271 Y101.129 E2.29493
G1 X94.360 Y101.511 E2.30721
G1 X94.474 Y101.886 E2.31949
G1 X94.762 Y102.582 E2.34313
G1 X95.139 Y103.235 E2.36677
G1 X95.373 Y103.561 E2.37935
G1 X95.864 Y104.121 E2.40269
G1 X96.157 Y104.395 E2.41527
G1 X96.747 Y104.849 E2.43861
G1 X97.080 Y105.055 E2.45089
G1 X97.425 Y105.240 E2.46317
G1 X98.122 Y105.528 E2.48681
G1 X99.238 Y105.828 E2.52306
G1 X98.705 Y106.109 E2.54195
G1 X98.324 Y106.440 E2.55780
G1 X98.148 Y106.655 E2.56652
G1 X97.997 Y106.889 E2.57524
G1 X97.800 Y107.355 E2.59108
G1 X97.711 Y107.869 E2.60746
G1 X97.740 Y108.374 E2.62330
G1 X97.807 Y108.661 E2.63255
G1 X98.004 Y109.127 E2.64840
G1 X98.311 Y109.549 E2.66477
G1 X98.693 Y109.880 E2.68062
G1 X99.031 Y110.084 E2.69301
G1 X98.936 Y110.358 E2.70211
G1 X98.481 Y110.301 E2.71650
G1 X97.551 Y110.120 E2.74621
G1 X96.647 Y109.858 E2.77571
G1 X95.771 Y109.515 E2.80522
G1 X94.929 Y109.095 E2.83472
G1 X94.123 Y108.596 E2.86444
G1 X93.751 Y108.330 E2.87878
G1 X93.020 Y107.727 E2.90849
G1 X92.351 Y107.066 E2.93799
G1 X91.744 Y106.346 E2.96750
G1 X91.205 Y105.575 E2.99700
G1 X90.734 Y104.753 E3.02672
G1 X90.534 Y104.341 E3.04106
G1 X90.179 Y103.463 E3.07077
G1 X89.906 Y102.562 E3.10028
G1 X89.716 Y101.640 E3.12978
G1 X89.610 Y100.705 E3.15928
G1 X89.589 Y99.758 E3.18900
G1 X89.609 Y99.301 E3.20334
G1 X89.716 Y98.360 E3.23305
G1 X89.906 Y97.438 E3.26256
G1 X90.179 Y96.537 E3.29206
G1 X90.532 Y95.665 E3.32157
G1 X90.962 Y94.828 E3.35107
G1 X91.469 Y94.027 E3.38078
G1 X91.740 Y93.659 E3.39512
G1 X92.351 Y92.934 E3.42484
G1 X93.020 Y92.273 E3.45434
G1 X93.746 Y91.674 E3.48385
G1 X94.523 Y91.144 E3.51335
G1 X95.345 Y90.685 E3.54286
G1 X96.205 Y90.303 E3.57236
G1 X97.102 Y89.998 E3.60207
G1 X97.544 Y89.881 E3.61641
G1 X98.474 Y89.700 E3.64613
G1 X98.918 Y89.655 E3.66011
G1 X99.014 Y89.916 E3.66885
G1 X98.498 Y90.269 E3.68843
G1 X98.145 Y90.653 E3.70480
G1 X97.888 Y91.108 E3.72118
G1 X97.746 Y91.593 E3.73703
G1 X97.712 Y91.886 E3.74627
G1 X97.741 Y92.391 E3.76212
G1 X97.884 Y92.876 E3.77796
G1 X98.014 Y93.140 E3.78721
G1 X98.301 Y93.535 E3.80253
G1 X98.500 Y93.729 E3.81125
G1 X98.720 Y93.899 E3.81996
G1 X99.239 Y94.173 E3.83835
M204 S1500
G92 E0
G1 E-2.00000 F2400.00000
G1 X101.716 Y94.030 F7800.000
G1 E0.00000 F2400.00000
M204 S1250
G1 F900.000
G1 X102.046 Y93.710 E0.01441
G1 X102.257 Y93.419 E0.02569
G1 X102.514 Y92.897 E0.04391
G1 X102.652 Y92.304 E0.06300
G1 X102.652 Y91.696 E0.08209
G1 X102.514 Y91.103 E0.10118
G1 X102.245 Y90.556 E0.12027
G1 X102.167 Y90.460 E0.12416
G1 X102.308 Y90.241 E0.13233
G1 X103.013 Y90.429 E0.15521
G1 X103.865 Y90.740 E0.18365
G1 X104.685 Y91.127 E0.21208
G1 X105.467 Y91.586 E0.24052
G1 X106.204 Y92.114 E0.26895
G1 X106.899 Y92.714 E0.29773
G1 X107.206 Y93.017 E0.31127
G1 X107.814 Y93.705 E0.34005
G1 X108.357 Y94.446 E0.36882
G1 X108.588 Y94.810 E0.38236
G1 X109.026 Y95.617 E0.41114
G1 X109.384 Y96.450 E0.43958
G1 X109.667 Y97.312 E0.46801
G1 X109.826 Y98.004 E0.49028
G1 X109.132 Y97.585 E0.51569
G1 X108.797 Y97.455 E0.52697
G1 X108.227 Y97.339 E0.54518
G1 X107.619 Y97.357 E0.56427
G1 X107.057 Y97.504 E0.58249
G1 X106.729 Y97.654 E0.59377
G1 X106.250 Y97.982 E0.61199
G1 X105.970 Y98.287 E0.62497
G1 X105.879 Y97.987 E0.63479
G1 X105.574 Y97.251 E0.65979
G1 X105.175 Y96.560 E0.68479
G1 X104.920 Y96.204 E0.69853
G1 X104.405 Y95.616 E0.72303
G1 X104.096 Y95.328 E0.73628
G1 X103.770 Y95.060 E0.74952
G1 X103.120 Y94.625 E0.77403
G1 X102.733 Y94.419 E0.78777
G1 X102.011 Y94.120 E0.81227
G1 X101.774 Y94.048 E0.82006
M204 S1500
G1 X100.744 Y94.208 F7800.000
M204 S1250
G1 F900.000
G1 X101.398 Y93.814 E0.84399
G1 X101.760 Y93.462 E0.85983
G1 X101.933 Y93.223 E0.86908
G1 X102.156 Y92.770 E0.88492
G1 X102.275 Y92.261 E0.90130
G1 X102.275 Y91.739 E0.91768
G1 X102.156 Y91.230 E0.93405
G1 X101.926 Y90.761 E0.95043
G1 X101.606 Y90.370 E0.96627
G1 X101.396 Y90.188 E0.97499
G1 X101.166 Y90.031 E0.98371
G1 X100.965 Y89.939 E0.99065
G1 X101.040 Y89.648 E1.00007
G1 X101.290 Y89.668 E1.00791
G1 X102.217 Y89.827 E1.03742
G1 X103.127 Y90.069 E1.06692
G1 X104.010 Y90.392 E1.09643
G1 X104.861 Y90.793 E1.12593
G1 X105.673 Y91.270 E1.15544
G1 X106.438 Y91.818 E1.18494
G1 X107.155 Y92.437 E1.21466
G1 X107.481 Y92.758 E1.22900
G1 X108.108 Y93.469 E1.25871
G1 X108.668 Y94.233 E1.28842
G1 X108.913 Y94.619 E1.30276
G1 X109.365 Y95.452 E1.33248
G1 X109.737 Y96.316 E1.36198
G1 X110.030 Y97.210 E1.39149
G1 X110.243 Y98.134 E1.42120
G1 X110.315 Y98.586 E1.43554
G1 X110.347 Y98.939 E1.44667
G1 X110.081 Y99.030 E1.45548
G1 X109.772 Y98.550 E1.47339
G1 X109.398 Y98.186 E1.48977
G1 X108.965 Y97.925 E1.50561
G1 X108.690 Y97.818 E1.51486
G1 X108.195 Y97.717 E1.53071
G1 X107.673 Y97.732 E1.54708
G1 X107.184 Y97.861 E1.56293
G1 X106.916 Y97.983 E1.57218
G1 X106.498 Y98.269 E1.58802
G1 X106.145 Y98.653 E1.60440
G1 X105.794 Y99.275 E1.62677
G1 X105.640 Y98.498 E1.65159
G1 X105.523 Y98.114 E1.66417
G1 X105.235 Y97.418 E1.68781
G1 X104.858 Y96.765 E1.71146
G1 X104.624 Y96.439 E1.72404
G1 X104.133 Y95.879 E1.74738
G1 X103.847 Y95.611 E1.75966
G1 X103.545 Y95.363 E1.77193
G1 X102.926 Y94.949 E1.79527
G1 X102.572 Y94.760 E1.80786
G1 X101.884 Y94.475 E1.83120
G1 X101.500 Y94.359 E1.84378
G1 X100.803 Y94.220 E1.86607
M204 S1500
G92 E0
G1 E-2.00000 F2400.00000
G1 X106.452 Y98.877 F7800.000
G1 E0.00000 F2400.00000
M204 S1250
G1 F900.000
G1 X106.238 Y99.256 E0.01366
G1 X106.117 Y99.668 E0.02714
G1 X106.091 Y99.897 E0.03435
G1 X106.115 Y100.326 E0.04783
G1 X106.236 Y100.738 E0.06130
G1 X106.338 Y100.945 E0.06852
G1 X106.587 Y101.288 E0.08180
G1 X106.752 Y101.448 E0.08902
G1 X107.107 Y101.690 E0.10249
G1 X107.507 Y101.846 E0.11596
G1 X107.733 Y101.892 E0.12318
G1 X108.162 Y101.904 E0.13665
G1 X108.583 Y101.819 E0.15013
G1 X108.798 Y101.736 E0.15734
G1 X109.166 Y101.514 E0.17082
G1 X109.478 Y101.210 E0.18448
G1 X109.714 Y100.843 E0.19814
G1 X109.858 Y100.439 E0.21161
G1 X109.898 Y100.212 E0.21883
G1 X109.898 Y99.788 E0.23211
G1 X109.858 Y99.561 E0.23933
G1 X109.714 Y99.157 E0.25280
G1 X109.478 Y98.790 E0.26647
G1 X109.166 Y98.486 E0.28013
G1 X108.798 Y98.264 E0.29360
G1 X108.583 Y98.181 E0.30082
G1 X108.162 Y98.096 E0.31429
G1 X107.727 Y98.108 E0.32796
G1 X107.311 Y98.217 E0.34143
G1 X107.102 Y98.313 E0.34865
G1 X106.747 Y98.555 E0.36212
G1 X106.493 Y98.832 E0.37390
M204 S1500
G1 X106.053 Y98.850 F7800.000
G92 E0
G1 E-2.00000 F2400.00000
G1 X105.986 Y101.755 F7800.000
G1 E0.00000 F2400.00000
M204 S1250
G1 F900.000
G1 X106.273 Y102.034 E0.01255
G1 X106.752 Y102.362 E0.03077
G1 X107.294 Y102.573 E0.04899
G1 X107.646 Y102.644 E0.06027
G1 X108.227 Y102.661 E0.07848
G1 X108.797 Y102.545 E0.09670
G1 X109.132 Y102.415 E0.10798
G1 X109.853 Y101.980 E0.13439
G1 X109.535 Y103.123 E0.17157
G1 X109.214 Y103.971 E0.20001
G1 X108.818 Y104.787 E0.22844
G1 X108.350 Y105.563 E0.25688
G1 X107.807 Y106.303 E0.28565
G1 X107.529 Y106.633 E0.29919
G1 X106.891 Y107.293 E0.32797
G1 X106.204 Y107.886 E0.35641
G1 X105.467 Y108.414 E0.38484
G1 X104.685 Y108.873 E0.41328
G1 X103.865 Y109.260 E0.44171
G1 X103.013 Y109.571 E0.47015
G1 X102.308 Y109.759 E0.49303
G1 X102.167 Y109.540 E0.50120
G1 X102.245 Y109.444 E0.50509
G1 X102.501 Y108.922 E0.52331
G1 X102.603 Y108.577 E0.53459
G1 X102.669 Y108.000 E0.55281
G1 X102.603 Y107.423 E0.57102
G1 X102.502 Y107.078 E0.58230
G1 X102.245 Y106.556 E0.60052
