; generated by Slic3r++ 2.2.50 on 2020-05-23 at 13:14:58 UTC

; 

; external perimeters extrusion width = 0.45mm
; perimeters extrusion width = 0.45mm
; infill extrusion width = 0.45mm
; solid infill extrusion width = 0.45mm
; top infill extrusion width = 0.40mm
; first layer extrusion width = 0.42mm

; object:{"name":"X_Idler_Right_Tensioner-9","id":"X_Idler_Right_Tensioner-9.4_Leo_N.stl id:0 copy 0","object_center":[100.000000,100.000000,100.000000],"boundingbox_center":[100.000000,22.500000,60.000000],"boundingbox_size":[17.000000,45.000000,0.000000]}

M201 X9000 Y9000 Z500 E10000 ; sets maximum accelerations, mm/sec^2
M203 X500 Y500 Z12 E120 ; sets maximum feedrates, mm/sec
M204 P1500 R1500 T1500 ; sets acceleration (P, T) and retract acceleration (R), mm/sec^2
M205 X10.00 Y10.00 Z0.20 E2.50 ; sets the jerk limits, mm/sec
M205 S0 T0 ; sets the minimum extruding and travel feed rate, mm/sec
M107
M190 S60 ; set bed temperature and wait for it to be reached
M104 S205 ; set temperature
G28 ; home all axes
G1 Z5 F5000 ; lift nozzle
M109 S205 ; set temperature and wait for it to be reached
G21 ; set units to millimeters
G90 ; use absolute coordinates
M82 ; use absolute distances for extrusion
G92 E0
; Filament gcode
G1 Z0.200 F7800.000
G1 E-2.00000 F2400.00000
G1 X67.329 Y86.775 F7800.000
G1 E0.00000 F2400.00000
M204 S1250
G1 F1200.000
G1 X68.156 Y86.272 E0.03035
G1 X69.200 Y85.807 E0.06619
G1 X70.488 Y85.453 E0.10806
G1 X71.947 Y85.312 E0.15403
G1 X128.006 Y85.311 E1.91172
G1 X129.592 Y85.468 E1.96169
G1 X131.040 Y85.899 E2.00906
G1 X132.273 Y86.516 E2.05229
G1 X133.494 Y87.428 E2.10006
G1 X134.564 Y88.605 E2.14994
G1 X135.353 Y89.901 E2.19751
G1 X135.855 Y91.191 E2.24093
G1 X136.149 Y92.699 E2.28909
G1 X136.188 Y106.574 E2.72413
G1 X136.131 Y107.466 E2.75216
G1 X135.961 Y108.411 E2.78228
G1 X135.683 Y109.326 E2.81224
G1 X135.213 Y110.374 E2.84827
G1 X134.688 Y111.224 E2.87958
G1 X134.101 Y111.962 E2.90917
G1 X133.423 Y112.635 E2.93913
G1 X132.640 Y113.246 E2.97024
G1 X131.833 Y113.734 E2.99981
G1 X130.800 Y114.193 E3.03528
G1 X129.512 Y114.547 E3.07715
G1 X128.047 Y114.688 E3.12331
G1 X71.340 Y114.661 E4.90131
G1 X70.256 Y114.501 E4.93566
G1 X69.186 Y114.188 E4.97062
G1 X68.045 Y113.669 E5.00992
G1 X67.073 Y113.040 E5.04624
G1 X66.116 Y112.192 E5.08630
G1 X65.407 Y111.356 E5.12068
G1 X64.812 Y110.420 E5.15545
G1 X64.307 Y109.300 E5.19399
G1 X63.957 Y108.036 E5.23510
G1 X63.813 Y106.614 E5.27991
G1 X63.812 Y93.426 E5.69341
G1 X63.985 Y91.822 E5.74400
G1 X64.243 Y90.877 E5.77473
G1 X64.635 Y89.925 E5.80701
G1 X65.222 Y88.908 E5.84381
G1 X65.838 Y88.107 E5.87550
G1 X66.540 Y87.397 E5.90680
G1 X67.282 Y86.812 E5.93642
M204 S1500
; printing object X_Idler_Right_Tensioner-9.4_Leo_N.stl id:0 copy 0
G92 E0
G1 E-2.00000 F2400.00000
G1 X89.112 Y95.288 F7800.000
G1 E0.00000 F2400.00000
M204 S1250
G1 F1200.000
G1 X89.036 Y95.714 E0.01356
G1 X89.036 Y104.287 E0.28235
G1 X89.102 Y104.661 E0.29427
G1 X89.248 Y104.974 E0.30511
G1 X89.520 Y105.298 E0.31837
G1 X89.803 Y105.497 E0.32920
G1 X90.199 Y105.641 E0.34241
G1 X90.456 Y105.664 E0.35052
G1 X109.587 Y105.664 E0.95034
G1 X109.961 Y105.598 E0.96226
G1 X110.274 Y105.452 E0.97310
G1 X110.598 Y105.180 E0.98636
G1 X110.797 Y104.897 E0.99719
G1 X110.941 Y104.501 E1.01040
G1 X110.964 Y104.244 E1.01851
G1 X110.964 Y95.715 E1.28592
G1 X110.898 Y95.339 E1.29788
G1 X110.752 Y95.026 E1.30873
G1 X110.480 Y94.702 E1.32199
G1 X110.197 Y94.503 E1.33283
G1 X109.801 Y94.359 E1.34604
G1 X109.544 Y94.336 E1.35414
G1 X90.411 Y94.336 E1.95403
G1 X89.990 Y94.412 E1.96745
G1 X89.590 Y94.643 E1.98192
G1 X89.350 Y94.881 E1.99254
G1 X89.142 Y95.237 E2.00544
M204 S1500
G1 X89.472 Y95.421 F7800.000
M204 S1250
G1 F1200.000
G1 X89.413 Y95.748 E2.01585
G1 X89.413 Y104.254 E2.28255
G1 X89.465 Y104.547 E2.29188
G1 X89.569 Y104.770 E2.29961
G1 X89.777 Y105.018 E2.30976
G1 X89.979 Y105.159 E2.31748
G1 X90.282 Y105.270 E2.32759
G1 X90.473 Y105.287 E2.33363
G1 X109.554 Y105.287 E2.93188
G1 X109.847 Y105.235 E2.94121
G1 X110.070 Y105.131 E2.94893
G1 X110.318 Y104.923 E2.95908
G1 X110.459 Y104.721 E2.96680
G1 X110.570 Y104.418 E2.97692
G1 X110.587 Y104.227 E2.98295
G1 X110.587 Y95.748 E3.24880
G1 X110.535 Y95.453 E3.25817
G1 X110.431 Y95.230 E3.26590
G1 X110.223 Y94.982 E3.27605
G1 X110.021 Y94.841 E3.28378
G1 X109.718 Y94.730 E3.29389
G1 X109.527 Y94.713 E3.29992
G1 X90.445 Y94.713 E3.89821
G1 X90.122 Y94.772 E3.90851
G1 X89.821 Y94.945 E3.91939
G1 X89.650 Y95.114 E3.92693
G1 X89.502 Y95.369 E3.93618
M204 S1500
G1 X89.951 Y95.347 F7800.000
M204 S1250
G1 F1200.000
G1 X89.831 Y95.553 E3.94366
G1 X89.790 Y95.781 E3.95092
G1 X89.790 Y104.221 E4.21553
G1 X89.827 Y104.432 E4.22228
G1 X89.890 Y104.566 E4.22689
G1 X90.034 Y104.738 E4.23392
G1 X90.154 Y104.822 E4.23853
G1 X90.365 Y104.899 E4.24556
G1 X90.490 Y104.910 E4.24951
G1 X109.521 Y104.910 E4.84619
G1 X109.732 Y104.873 E4.85294
G1 X109.866 Y104.810 E4.85755
G1 X110.038 Y104.666 E4.86458
G1 X110.122 Y104.546 E4.86919
G1 X110.199 Y104.335 E4.87622
G1 X110.210 Y104.210 E4.88017
G1 X110.210 Y95.781 E5.14446
G1 X110.173 Y95.568 E5.15124
G1 X110.110 Y95.434 E5.15585
G1 X109.966 Y95.262 E5.16289
G1 X109.846 Y95.178 E5.16750
G1 X109.635 Y95.101 E5.17452
G1 X109.510 Y95.090 E5.17848
G1 X90.479 Y95.090 E5.77517
G1 X90.253 Y95.131 E5.78235
G1 X90.052 Y95.247 E5.78965
G1 X89.994 Y95.305 E5.79222
M204 S1500
G1 X89.714 Y95.325 F7800.000
G92 E0
G1 E-2.00000 F2400.00000
G1 X78.964 Y92.464 F7800.000
G1 E0.00000 F2400.00000
M204 S1250
G1 F1200.000
G1 X121.036 Y92.472 E1.31913
G1 X121.036 Y95.789 E1.42312
G1 X120.522 Y95.996 E1.44049
G1 X120.176 Y96.187 E1.45289
G1 X119.612 Y96.592 E1.47466
G1 X119.106 Y97.095 E1.49703
G1 X118.687 Y97.673 E1.51941
G1 X118.374 Y98.292 E1.54117
G1 X118.239 Y98.664 E1.55358
G1 X118.082 Y99.340 E1.57534
G1 X118.034 Y100.033 E1.59711
G1 X118.055 Y100.428 E1.60951
G1 X118.173 Y101.112 E1.63128
G1 X118.399 Y101.768 E1.65304
G1 X118.572 Y102.124 E1.66545
G1 X118.947 Y102.708 E1.68721
G1 X119.424 Y103.239 E1.70959
G1 X119.964 Y103.676 E1.73135
G1 X120.299 Y103.886 E1.74375
G1 X120.927 Y104.181 E1.76552
G1 X121.613 Y104.378 E1.78789
G1 X122.302 Y104.461 E1.80966
G1 X122.698 Y104.461 E1.82206
G1 X123.387 Y104.378 E1.84383
G1 X124.073 Y104.181 E1.86620
G1 X124.701 Y103.886 E1.88797
G1 X125.036 Y103.676 E1.90037
G1 X125.576 Y103.239 E1.92214
G1 X126.053 Y102.708 E1.94451
G1 X126.428 Y102.124 E1.96628
G1 X126.601 Y101.768 E1.97868
G1 X126.820 Y101.130 E1.99984
G1 X126.903 Y100.744 E2.01224
G1 X126.967 Y100.052 E2.03401
G1 X126.920 Y99.360 E2.05577
G1 X126.846 Y98.971 E2.06818
G1 X126.635 Y98.310 E2.08994
G1 X126.313 Y97.673 E2.11232
G1 X125.894 Y97.095 E2.13469
G1 X125.388 Y96.592 E2.15706
G1 X124.824 Y96.187 E2.17883
G1 X124.478 Y95.996 E2.19123
G1 X123.964 Y95.789 E2.20860
G1 X123.964 Y92.465 E2.31282
G1 X128.190 Y92.484 E2.44530
G1 X128.419 Y92.558 E2.45286
G1 X128.606 Y92.666 E2.45962
G1 X128.821 Y92.872 E2.46897
G1 X128.942 Y93.081 E2.47652
G1 X129.008 Y93.286 E2.48329
G1 X129.036 Y93.550 E2.49160
G1 X129.016 Y106.690 E2.90359
G1 X128.941 Y106.919 E2.91115
G1 X128.821 Y107.128 E2.91870
G1 X128.587 Y107.351 E2.92885
G1 X128.443 Y107.434 E2.93404
G1 X128.214 Y107.508 E2.94160
G1 X127.950 Y107.536 E2.94994
G1 X72.050 Y107.536 E4.70261
G1 X71.786 Y107.508 E4.71095
G1 X71.581 Y107.442 E4.71771
G1 X71.327 Y107.285 E4.72705
G1 X71.118 Y107.038 E4.73720
G1 X70.995 Y106.739 E4.74734
G1 X70.964 Y106.450 E4.75646
G1 X70.975 Y93.393 E5.16585
G1 X71.055 Y93.079 E5.17600
G1 X71.234 Y92.810 E5.18614
G1 X71.413 Y92.649 E5.19369
G1 X71.557 Y92.566 E5.19889
G1 X71.786 Y92.492 E5.20645
G1 X72.050 Y92.464 E5.21478
G1 X76.036 Y92.464 E5.33974
G1 X76.036 Y95.789 E5.44399
G1 X75.504 Y96.003 E5.46196
G1 X74.893 Y96.372 E5.48434
G1 X74.364 Y96.821 E5.50610
G1 X74.108 Y97.097 E5.51790
G1 X73.875 Y97.392 E5.52969
G1 X73.513 Y97.985 E5.55146
G1 X73.243 Y98.645 E5.57383
G1 X73.086 Y99.322 E5.59560
G1 X73.043 Y99.715 E5.60800
G1 X73.052 Y100.409 E5.62977
G1 X73.170 Y101.093 E5.65154
G1 X73.284 Y101.472 E5.66394
G1 X73.561 Y102.108 E5.68570
G1 X73.947 Y102.708 E5.70808
G1 X74.424 Y103.239 E5.73045
G1 X74.964 Y103.676 E5.75222
G1 X75.299 Y103.886 E5.76462
G1 X75.927 Y104.181 E5.78639
G1 X76.613 Y104.378 E5.80876
G1 X77.302 Y104.461 E5.83053
G1 X77.698 Y104.461 E5.84293
G1 X78.387 Y104.378 E5.86469
G1 X79.073 Y104.181 E5.88707
G1 X79.701 Y103.886 E5.90884
G1 X80.036 Y103.676 E5.92124
G1 X80.576 Y103.239 E5.94300
G1 X81.053 Y102.708 E5.96538
G1 X81.428 Y102.124 E5.98714
G1 X81.601 Y101.768 E5.99955
G1 X81.827 Y101.112 E6.02131
G1 X81.945 Y100.428 E6.04308
G1 X81.966 Y100.033 E6.05548
G1 X81.918 Y99.340 E6.07725
G1 X81.761 Y98.664 E6.09901
G1 X81.626 Y98.292 E6.11142
G1 X81.313 Y97.673 E6.13318
G1 X80.894 Y97.095 E6.15556
G1 X80.388 Y96.592 E6.17793
G1 X79.824 Y96.187 E6.19970
G1 X79.478 Y95.996 E6.21210
G1 X78.964 Y95.789 E6.22946
G1 X78.964 Y92.524 E6.33183
M204 S1500
G1 X78.587 Y92.087 F7800.000
M204 S1250
G1 F1200.000
G1 X121.413 Y92.095 E7.67460
G1 X121.413 Y96.067 E7.79914
G1 X121.279 Y96.098 E7.80345
G1 X120.684 Y96.337 E7.82356
G1 X120.377 Y96.506 E7.83454
G1 X119.856 Y96.881 E7.85465
G1 X119.393 Y97.341 E7.87513
G1 X119.010 Y97.870 E7.89561
G1 X118.720 Y98.442 E7.91572
G1 X118.601 Y98.772 E7.92670
G1 X118.456 Y99.396 E7.94681
G1 X118.412 Y100.036 E7.96692
G1 X118.430 Y100.386 E7.97790
G1 X118.540 Y101.018 E7.99801
G1 X118.749 Y101.624 E8.01812
G1 X118.901 Y101.939 E8.02910
G1 X119.248 Y102.479 E8.04921
G1 X119.684 Y102.965 E8.06969
G1 X120.183 Y103.368 E8.08980
G1 X120.480 Y103.554 E8.10078
G1 X121.060 Y103.827 E8.12089
G1 X121.688 Y104.008 E8.14137
G1 X122.325 Y104.084 E8.16148
G1 X122.675 Y104.084 E8.17246
G1 X123.312 Y104.008 E8.19257
G1 X123.940 Y103.827 E8.21305
G1 X124.520 Y103.554 E8.23316
G1 X124.817 Y103.368 E8.24414
G1 X125.316 Y102.965 E8.26425
G1 X125.752 Y102.479 E8.28473
G1 X126.099 Y101.939 E8.30484
G1 X126.251 Y101.624 E8.31582
G1 X126.456 Y101.029 E8.33556
G1 X126.530 Y100.687 E8.34655
G1 X126.589 Y100.048 E8.36666
G1 X126.545 Y99.408 E8.38676
G1 X126.479 Y99.064 E8.39775
G1 X126.285 Y98.453 E8.41786
G1 X125.990 Y97.870 E8.43834
G1 X125.607 Y97.341 E8.45881
G1 X125.144 Y96.881 E8.47929
G1 X124.623 Y96.506 E8.49940
G1 X124.316 Y96.337 E8.51039
G1 X123.721 Y96.098 E8.53049
G1 X123.587 Y96.067 E8.53480
G1 X123.587 Y92.087 E8.65959
G1 X128.161 Y92.098 E8.80301
G1 X128.278 Y92.116 E8.80670
G1 X128.573 Y92.212 E8.81644
G1 X128.828 Y92.359 E8.82569
G1 X129.059 Y92.567 E8.83542
G1 X129.133 Y92.658 E8.83909
G1 X129.288 Y92.927 E8.84882
G1 X129.379 Y93.208 E8.85807
G1 X129.413 Y93.530 E8.86825
G1 X129.402 Y106.662 E9.27998
G1 X129.384 Y106.778 E9.28366
G1 X129.288 Y107.073 E9.29339
G1 X129.133 Y107.342 E9.30312
G1 X129.059 Y107.433 E9.30679
G1 X128.817 Y107.651 E9.31701
G1 X128.588 Y107.783 E9.32530
G1 X128.293 Y107.879 E9.33503
G1 X127.969 Y107.913 E9.34523
G1 X72.031 Y107.913 E11.09914
G1 X71.707 Y107.879 E11.10934
G1 X71.427 Y107.788 E11.11859
G1 X71.158 Y107.633 E11.12832
G1 X71.067 Y107.559 E11.13199
G1 X70.849 Y107.317 E11.14220
G1 X70.785 Y107.219 E11.14587
G1 X70.653 Y106.921 E11.15609
G1 X70.623 Y106.808 E11.15976
G1 X70.587 Y106.470 E11.17043
G1 X70.598 Y93.353 E11.58168
G1 X70.662 Y93.050 E11.59142
G1 X70.710 Y92.926 E11.59557
G1 X70.770 Y92.808 E11.59972
G1 X70.952 Y92.557 E11.60945
G1 X71.183 Y92.349 E11.61918
G1 X71.412 Y92.217 E11.62748
G1 X71.707 Y92.121 E11.63721
G1 X72.031 Y92.087 E11.64741
G1 X76.413 Y92.087 E11.78481
G1 X76.413 Y96.067 E11.90960
G1 X76.279 Y96.098 E11.91391
G1 X75.673 Y96.342 E11.93438
G1 X75.114 Y96.679 E11.95486
G1 X74.625 Y97.094 E11.97497
G1 X74.394 Y97.342 E11.98559
G1 X74.185 Y97.608 E11.99620
G1 X73.851 Y98.155 E12.01631
G1 X73.604 Y98.760 E12.03679
G1 X73.459 Y99.385 E12.05690
G1 X73.421 Y99.733 E12.06788
G1 X73.428 Y100.374 E12.08799
G1 X73.538 Y101.006 E12.10810
G1 X73.638 Y101.342 E12.11908
G1 X73.895 Y101.930 E12.13919
G1 X74.248 Y102.479 E12.15967
G1 X74.684 Y102.965 E12.18015
G1 X75.183 Y103.368 E12.20026
G1 X75.480 Y103.554 E12.21124
G1 X76.060 Y103.827 E12.23135
G1 X76.688 Y104.008 E12.25183
G1 X77.325 Y104.084 E12.27194
G1 X77.675 Y104.084 E12.28292
G1 X78.312 Y104.008 E12.30303
G1 X78.940 Y103.827 E12.32351
G1 X79.520 Y103.554 E12.34362
G1 X79.817 Y103.368 E12.35460
G1 X80.316 Y102.965 E12.37471
G1 X80.752 Y102.479 E12.39519
G1 X81.099 Y101.939 E12.41530
G1 X81.251 Y101.624 E12.42628
G1 X81.460 Y101.018 E12.44639
G1 X81.570 Y100.386 E12.46650
G1 X81.588 Y100.036 E12.47748
G1 X81.544 Y99.396 E12.49759
G1 X81.399 Y98.772 E12.51770
G1 X81.280 Y98.442 E12.52868
G1 X80.990 Y97.870 E12.54879
G1 X80.607 Y97.341 E12.56927
G1 X80.144 Y96.881 E12.58975
G1 X79.623 Y96.506 E12.60986
G1 X79.316 Y96.337 E12.62084
G1 X78.721 Y96.098 E12.64095
G1 X78.587 Y96.067 E12.64526
G1 X78.587 Y92.147 E12.76817
M204 S1500
G1 X78.293 Y91.793 F7800.000
M204 S1250
G1 F1200.000
G1 X78.403 Y91.730 E12.77216
G1 X78.518 Y91.710 E12.77581
G1 X121.552 Y91.718 E14.12509
G1 X121.644 Y91.752 E14.12819
G1 X121.720 Y91.817 E14.13132
G1 X121.770 Y91.903 E14.13445
G1 X121.790 Y92.018 E14.13810
G1 X121.790 Y96.368 E14.27449
G1 X121.392 Y96.459 E14.28729
G1 X120.846 Y96.679 E14.30574
G1 X120.579 Y96.826 E14.31531
G1 X120.101 Y97.169 E14.33376
G1 X119.681 Y97.587 E14.35234
G1 X119.333 Y98.067 E14.37093
G1 X119.067 Y98.592 E14.38938
G1 X118.963 Y98.879 E14.39894
G1 X118.830 Y99.452 E14.41739
G1 X118.790 Y100.039 E14.43585
G1 X118.806 Y100.344 E14.44541
G1 X118.906 Y100.924 E14.46386
G1 X119.098 Y101.480 E14.48231
G1 X119.231 Y101.755 E14.49188
G1 X119.549 Y102.250 E14.51033
G1 X119.945 Y102.691 E14.52891
G1 X120.403 Y103.061 E14.54737
G1 X120.661 Y103.223 E14.55693
G1 X121.194 Y103.473 E14.57538
G1 X121.763 Y103.637 E14.59396
G1 X122.348 Y103.707 E14.61242
G1 X122.652 Y103.707 E14.62198
G1 X123.237 Y103.637 E14.64043
G1 X123.806 Y103.473 E14.65902
G1 X124.339 Y103.223 E14.67747
G1 X124.597 Y103.061 E14.68703
G1 X125.055 Y102.691 E14.70548
G1 X125.451 Y102.250 E14.72407
G1 X125.769 Y101.755 E14.74252
G1 X125.902 Y101.480 E14.75208
G1 X126.093 Y100.928 E14.77040
G1 X126.157 Y100.629 E14.77996
G1 X126.210 Y100.043 E14.79842
G1 X126.170 Y99.456 E14.81687
G1 X126.113 Y99.157 E14.82643
G1 X125.935 Y98.596 E14.84488
G1 X125.667 Y98.067 E14.86347
G1 X125.319 Y97.587 E14.88205
G1 X124.899 Y97.169 E14.90064
G1 X124.421 Y96.826 E14.91909
G1 X124.154 Y96.679 E14.92865
G1 X123.608 Y96.459 E14.94710
G1 X123.210 Y96.368 E14.95990
G1 X123.210 Y92.017 E15.09635
G1 X123.231 Y91.901 E15.10004
G1 X123.282 Y91.814 E15.10318
G1 X123.376 Y91.735 E15.10706
G1 X123.518 Y91.710 E15.11157
G1 X128.191 Y91.721 E15.25810
G1 X128.366 Y91.748 E15.26364
G1 X128.727 Y91.866 E15.27555
G1 X129.051 Y92.053 E15.28728
G1 X129.333 Y92.307 E15.29919
G1 X129.445 Y92.444 E15.30472
G1 X129.634 Y92.773 E15.31663
G1 X129.750 Y93.129 E15.32836
G1 X129.790 Y93.511 E15.34041
G1 X129.779 Y106.692 E15.75369
G1 X129.752 Y106.866 E15.75922
G1 X129.634 Y107.227 E15.77113
G1 X129.445 Y107.556 E15.78303
G1 X129.333 Y107.693 E15.78856
G1 X129.047 Y107.951 E15.80064
G1 X128.733 Y108.133 E15.81203
G1 X128.371 Y108.250 E15.82394
G1 X127.989 Y108.290 E15.83599
G1 X72.011 Y108.290 E17.59114
G1 X71.629 Y108.250 E17.60320
G1 X71.273 Y108.134 E17.61493
G1 X70.944 Y107.945 E17.62684
G1 X70.807 Y107.833 E17.63237
G1 X70.549 Y107.547 E17.64445
G1 X70.453 Y107.399 E17.64998
G1 X70.296 Y107.047 E17.66205
G1 X70.251 Y106.877 E17.66759
G1 X70.210 Y106.489 E17.67981
G1 X70.221 Y93.314 E18.09292
G1 X70.300 Y92.942 E18.10483
G1 X70.365 Y92.772 E18.11053
G1 X70.447 Y92.610 E18.11623
G1 X70.671 Y92.303 E18.12814
G1 X70.953 Y92.049 E18.14004
G1 X71.267 Y91.867 E18.15143
G1 X71.629 Y91.750 E18.16334
G1 X72.011 Y91.710 E18.17540
G1 X76.484 Y91.710 E18.31565
G1 X76.624 Y91.735 E18.32009
G1 X76.740 Y91.832 E18.32484
G1 X76.790 Y92.010 E18.33063
G1 X76.790 Y96.368 E18.46729
G1 X76.392 Y96.459 E18.48009
G1 X75.842 Y96.680 E18.49867
G1 X75.335 Y96.987 E18.51726
G1 X74.886 Y97.367 E18.53571
G1 X74.495 Y97.824 E18.55456
G1 X74.188 Y98.326 E18.57301
G1 X73.964 Y98.875 E18.59159
G1 X73.831 Y99.448 E18.61005
G1 X73.798 Y99.751 E18.61961
