; generated by Slic3r++ 2.2.50 on 2020-05-22 at 17:39:18 UTC

; 

; external perimeters extrusion width = 0.45mm
; perimeters extrusion width = 0.45mm
; infill extrusion width = 0.45mm
; solid infill extrusion width = 0.45mm
; top infill extrusion width = 0.40mm
; first layer extrusion width = 0.42mm

; object:{"name":"X_Idler_Right_Tensioner-11","id":"X_Idler_Right_Tensioner-11.4_Leo_N.stl id:0 copy 0","object_center":[100.000000,100.000000,100.000000],"boundingbox_center":[100.000000,22.500000,60.000000],"boundingbox_size":[17.199997,45.000000,0.000000]}

M201 X9000 Y9000 Z500 E10000 ; sets maximum accelerations, mm/sec^2
M203 X500 Y500 Z12 E120 ; sets maximum feedrates, mm/sec
M204 P1500 R1500 T1500 ; sets acceleration (P, T) and retract acceleration (R), mm/sec^2
M205 X10.00 Y10.00 Z0.20 E2.50 ; sets the jerk limits, mm/sec
M205 S0 T0 ; sets the minimum extruding and travel feed rate, mm/sec
M107
M190 S60 ; set bed temperature and wait for it to be reached
M104 S200 ; set temperature
G28 ; home all axes
G1 Z5 F5000 ; lift nozzle
M109 S200 ; set temperature and wait for it to be reached
G21 ; set units to millimeters
G90 ; use absolute coordinates
M82 ; use absolute distances for extrusion
G92 E0
; Filament gcode
G1 Z0.200 F7800.000
G1 E-2.00000 F2400.00000
G1 X67.329 Y86.875 F7800.000
G1 E0.00000 F2400.00000
M204 S1250
G1 F1200.000
G1 X68.156 Y86.372 E0.03035
G1 X69.200 Y85.907 E0.06619
G1 X70.488 Y85.553 E0.10806
G1 X71.947 Y85.412 E0.15403
G1 X128.006 Y85.411 E1.91172
G1 X129.592 Y85.568 E1.96169
G1 X131.040 Y85.999 E2.00906
G1 X132.273 Y86.616 E2.05229
G1 X133.498 Y87.532 E2.10025
G1 X134.568 Y88.710 E2.15013
G1 X135.356 Y90.006 E2.19771
G1 X135.855 Y91.291 E2.24093
G1 X136.149 Y92.799 E2.28909
G1 X136.188 Y106.674 E2.72413
G1 X136.131 Y107.566 E2.75216
G1 X135.961 Y108.511 E2.78228
G1 X135.683 Y109.426 E2.81224
G1 X135.213 Y110.474 E2.84827
G1 X134.688 Y111.324 E2.87958
G1 X134.101 Y112.062 E2.90917
G1 X133.423 Y112.735 E2.93912
G1 X132.640 Y113.346 E2.97024
G1 X131.833 Y113.834 E2.99981
G1 X130.800 Y114.293 E3.03528
G1 X129.512 Y114.647 E3.07715
G1 X128.047 Y114.788 E3.12331
G1 X71.334 Y114.761 E4.90150
G1 X70.250 Y114.599 E4.93585
G1 X69.180 Y114.286 E4.97082
G1 X68.045 Y113.769 E5.00992
G1 X67.073 Y113.140 E5.04624
G1 X66.116 Y112.292 E5.08630
G1 X65.407 Y111.456 E5.12068
G1 X64.812 Y110.520 E5.15545
G1 X64.307 Y109.400 E5.19399
G1 X63.957 Y108.136 E5.23510
G1 X63.813 Y106.714 E5.27991
G1 X63.812 Y93.526 E5.69341
G1 X63.985 Y91.922 E5.74400
G1 X64.243 Y90.977 E5.77473
G1 X64.635 Y90.025 E5.80701
G1 X65.222 Y89.008 E5.84381
G1 X65.838 Y88.207 E5.87550
G1 X66.540 Y87.497 E5.90680
G1 X67.282 Y86.912 E5.93642
M204 S1500
; printing object X_Idler_Right_Tensioner-11.4_Leo_N.stl id:0 copy 0
G92 E0
G1 E-2.00000 F2400.00000
G1 X89.112 Y94.388 F7800.000
G1 E0.00000 F2400.00000
M204 S1250
G1 F1200.000
G1 X89.036 Y94.814 E0.01356
G1 X89.036 Y105.387 E0.34505
G1 X89.102 Y105.761 E0.35698
G1 X89.248 Y106.074 E0.36782
G1 X89.520 Y106.398 E0.38107
G1 X89.803 Y106.597 E0.39191
G1 X90.199 Y106.741 E0.40512
G1 X90.456 Y106.764 E0.41322
G1 X109.587 Y106.764 E1.01305
G1 X109.961 Y106.698 E1.02497
G1 X110.274 Y106.552 E1.03581
G1 X110.598 Y106.280 E1.04907
G1 X110.797 Y105.997 E1.05990
G1 X110.941 Y105.601 E1.07311
G1 X110.964 Y105.344 E1.08121
G1 X110.964 Y94.813 E1.41139
G1 X110.898 Y94.439 E1.42331
G1 X110.752 Y94.126 E1.43415
G1 X110.480 Y93.802 E1.44741
G1 X110.197 Y93.603 E1.45825
G1 X109.801 Y93.459 E1.47146
G1 X109.544 Y93.436 E1.47956
G1 X90.411 Y93.436 E2.07945
G1 X89.990 Y93.512 E2.09287
G1 X89.590 Y93.743 E2.10734
G1 X89.350 Y93.981 E2.11796
G1 X89.142 Y94.337 E2.13086
M204 S1500
G1 X89.983 Y93.951 F7800.000
M204 S1250
G1 F1200.000
G1 X89.821 Y94.045 E2.13673
G1 X89.650 Y94.214 E2.14426
G1 X89.472 Y94.521 E2.15539
G1 X89.413 Y94.848 E2.16581
G1 X89.413 Y105.354 E2.49521
G1 X89.465 Y105.647 E2.50455
G1 X89.569 Y105.870 E2.51227
G1 X89.777 Y106.118 E2.52242
G1 X89.979 Y106.259 E2.53014
G1 X90.282 Y106.370 E2.54026
G1 X90.473 Y106.387 E2.54629
G1 X109.554 Y106.387 E3.14454
G1 X109.847 Y106.335 E3.15387
G1 X110.070 Y106.231 E3.16160
G1 X110.318 Y106.023 E3.17174
G1 X110.459 Y105.821 E3.17947
G1 X110.570 Y105.518 E3.18958
G1 X110.587 Y105.327 E3.19561
G1 X110.587 Y94.846 E3.52422
G1 X110.535 Y94.553 E3.53355
G1 X110.431 Y94.330 E3.54127
G1 X110.223 Y94.082 E3.55142
G1 X110.021 Y93.941 E3.55915
G1 X109.718 Y93.830 E3.56926
G1 X109.527 Y93.813 E3.57529
G1 X90.445 Y93.813 E4.17358
G1 X90.122 Y93.872 E4.18388
G1 X90.035 Y93.921 E4.18701
M204 S1500
G1 X90.052 Y94.347 F7800.000
M204 S1250
G1 F1200.000
G1 X89.951 Y94.447 E4.19146
G1 X89.831 Y94.653 E4.19894
G1 X89.790 Y94.881 E4.20621
G1 X89.790 Y105.321 E4.53353
G1 X89.827 Y105.532 E4.54027
G1 X89.890 Y105.666 E4.54488
G1 X90.034 Y105.838 E4.55192
G1 X90.154 Y105.922 E4.55653
G1 X90.365 Y105.999 E4.56355
G1 X90.490 Y106.010 E4.56751
G1 X109.521 Y106.010 E5.16419
G1 X109.732 Y105.973 E5.17093
G1 X109.866 Y105.910 E5.17554
G1 X110.038 Y105.766 E5.18258
G1 X110.122 Y105.646 E5.18719
G1 X110.199 Y105.435 E5.19421
G1 X110.210 Y105.310 E5.19817
G1 X110.210 Y94.879 E5.52520
G1 X110.173 Y94.668 E5.53194
G1 X110.110 Y94.534 E5.53655
G1 X109.966 Y94.362 E5.54359
G1 X109.846 Y94.278 E5.54820
G1 X109.635 Y94.201 E5.55522
G1 X109.510 Y94.190 E5.55918
G1 X90.479 Y94.190 E6.15587
G1 X90.253 Y94.231 E6.16306
G1 X90.104 Y94.317 E6.16847
M204 S1500
G1 X89.919 Y94.298 F7800.000
G92 E0
G1 E-2.00000 F2400.00000
G1 X78.964 Y92.564 F7800.000
G1 E0.00000 F2400.00000
M204 S1250
G1 F1200.000
G1 X121.036 Y92.572 E1.31913
G1 X121.036 Y95.889 E1.42312
G1 X120.504 Y96.103 E1.44110
G1 X119.893 Y96.472 E1.46347
G1 X119.364 Y96.921 E1.48524
G1 X119.225 Y97.070 E1.49162
G1 X119.095 Y97.211 E1.49764
G1 X118.687 Y97.773 E1.51941
G1 X118.374 Y98.392 E1.54117
G1 X118.239 Y98.764 E1.55358
G1 X118.082 Y99.440 E1.57534
G1 X118.034 Y100.133 E1.59711
G1 X118.055 Y100.528 E1.60951
G1 X118.173 Y101.212 E1.63128
G1 X118.399 Y101.868 E1.65304
G1 X118.572 Y102.224 E1.66545
G1 X118.947 Y102.808 E1.68721
G1 X119.424 Y103.339 E1.70959
G1 X119.964 Y103.776 E1.73135
G1 X120.299 Y103.986 E1.74375
G1 X120.927 Y104.281 E1.76552
G1 X121.613 Y104.478 E1.78789
G1 X122.302 Y104.561 E1.80966
G1 X122.698 Y104.561 E1.82206
G1 X123.387 Y104.478 E1.84383
G1 X124.073 Y104.281 E1.86620
G1 X124.701 Y103.986 E1.88797
G1 X125.036 Y103.776 E1.90037
G1 X125.576 Y103.339 E1.92214
G1 X126.053 Y102.808 E1.94451
G1 X126.428 Y102.224 E1.96628
G1 X126.601 Y101.868 E1.97868
G1 X126.820 Y101.230 E1.99984
G1 X126.903 Y100.844 E2.01224
G1 X126.967 Y100.152 E2.03401
G1 X126.920 Y99.460 E2.05577
G1 X126.846 Y99.071 E2.06818
G1 X126.635 Y98.410 E2.08994
G1 X126.313 Y97.773 E2.11232
G1 X125.894 Y97.195 E2.13469
G1 X125.388 Y96.692 E2.15706
G1 X124.824 Y96.287 E2.17883
G1 X124.478 Y96.096 E2.19123
G1 X123.964 Y95.889 E2.20860
G1 X123.964 Y92.565 E2.31282
G1 X128.190 Y92.584 E2.44530
G1 X128.419 Y92.658 E2.45286
G1 X128.606 Y92.766 E2.45962
G1 X128.821 Y92.972 E2.46897
G1 X128.942 Y93.181 E2.47652
G1 X129.008 Y93.386 E2.48329
G1 X129.036 Y93.650 E2.49160
G1 X129.016 Y106.790 E2.90359
G1 X128.941 Y107.019 E2.91115
G1 X128.821 Y107.228 E2.91870
G1 X128.587 Y107.451 E2.92885
G1 X128.443 Y107.534 E2.93404
G1 X128.214 Y107.608 E2.94160
G1 X127.950 Y107.636 E2.94994
G1 X72.050 Y107.636 E4.70261
G1 X71.786 Y107.608 E4.71095
G1 X71.557 Y107.534 E4.71851
G1 X71.310 Y107.366 E4.72785
G1 X71.118 Y107.138 E4.73720
G1 X70.995 Y106.839 E4.74734
G1 X70.964 Y106.550 E4.75646
G1 X70.975 Y93.493 E5.16585
G1 X71.055 Y93.179 E5.17600
G1 X71.234 Y92.910 E5.18614
G1 X71.413 Y92.749 E5.19369
G1 X71.557 Y92.666 E5.19889
G1 X71.786 Y92.592 E5.20645
G1 X72.050 Y92.564 E5.21478
G1 X76.036 Y92.564 E5.33974
G1 X76.036 Y95.889 E5.44399
G1 X75.504 Y96.103 E5.46196
G1 X74.893 Y96.472 E5.48434
G1 X74.364 Y96.921 E5.50610
G1 X74.108 Y97.197 E5.51790
G1 X73.875 Y97.492 E5.52969
G1 X73.513 Y98.085 E5.55146
G1 X73.243 Y98.745 E5.57384
G1 X73.086 Y99.422 E5.59560
G1 X73.043 Y99.815 E5.60800
G1 X73.052 Y100.509 E5.62977
G1 X73.170 Y101.193 E5.65154
G1 X73.284 Y101.572 E5.66394
G1 X73.561 Y102.208 E5.68570
G1 X73.947 Y102.808 E5.70808
G1 X74.424 Y103.339 E5.73045
G1 X74.964 Y103.776 E5.75222
G1 X75.299 Y103.986 E5.76462
G1 X75.927 Y104.281 E5.78639
G1 X76.613 Y104.478 E5.80876
G1 X77.302 Y104.561 E5.83053
G1 X77.698 Y104.561 E5.84293
G1 X78.387 Y104.478 E5.86470
G1 X79.073 Y104.281 E5.88707
G1 X79.701 Y103.986 E5.90884
G1 X80.036 Y103.776 E5.92124
G1 X80.576 Y103.339 E5.94300
G1 X81.053 Y102.808 E5.96538
G1 X81.428 Y102.224 E5.98714
G1 X81.601 Y101.868 E5.99955
G1 X81.827 Y101.212 E6.02131
G1 X81.945 Y100.528 E6.04308
G1 X81.966 Y100.133 E6.05548
G1 X81.918 Y99.440 E6.07725
G1 X81.761 Y98.764 E6.09901
G1 X81.626 Y98.392 E6.11142
G1 X81.313 Y97.773 E6.13318
G1 X80.905 Y97.211 E6.15495
G1 X80.775 Y97.070 E6.16097
G1 X80.636 Y96.921 E6.16735
G1 X80.107 Y96.472 E6.18912
G1 X79.496 Y96.103 E6.21149
G1 X78.964 Y95.889 E6.22947
G1 X78.964 Y92.624 E6.33183
M204 S1500
G1 X78.587 Y92.187 F7800.000
M204 S1250
G1 F1200.000
G1 X121.413 Y92.195 E7.67460
G1 X121.413 Y96.167 E7.79914
G1 X121.279 Y96.198 E7.80345
G1 X120.673 Y96.442 E7.82393
G1 X120.114 Y96.779 E7.84441
G1 X119.625 Y97.194 E7.86452
G1 X119.502 Y97.327 E7.87019
G1 X119.386 Y97.451 E7.87550
G1 X119.010 Y97.970 E7.89561
G1 X118.720 Y98.542 E7.91572
G1 X118.601 Y98.872 E7.92670
G1 X118.456 Y99.496 E7.94681
G1 X118.412 Y100.136 E7.96692
G1 X118.430 Y100.486 E7.97790
G1 X118.540 Y101.118 E7.99801
G1 X118.749 Y101.724 E8.01812
G1 X118.901 Y102.039 E8.02910
G1 X119.248 Y102.579 E8.04921
G1 X119.684 Y103.065 E8.06969
G1 X120.183 Y103.468 E8.08980
G1 X120.480 Y103.654 E8.10078
G1 X121.060 Y103.927 E8.12089
G1 X121.688 Y104.108 E8.14137
G1 X122.325 Y104.184 E8.16148
G1 X122.675 Y104.184 E8.17246
G1 X123.312 Y104.108 E8.19257
G1 X123.940 Y103.927 E8.21305
G1 X124.520 Y103.654 E8.23316
G1 X124.817 Y103.468 E8.24414
G1 X125.316 Y103.065 E8.26425
G1 X125.752 Y102.579 E8.28473
G1 X126.099 Y102.039 E8.30484
G1 X126.251 Y101.724 E8.31582
G1 X126.456 Y101.129 E8.33556
G1 X126.530 Y100.787 E8.34655
G1 X126.589 Y100.148 E8.36666
G1 X126.545 Y99.508 E8.38677
G1 X126.479 Y99.164 E8.39775
G1 X126.285 Y98.553 E8.41786
G1 X125.990 Y97.970 E8.43834
G1 X125.607 Y97.441 E8.45881
G1 X125.144 Y96.981 E8.47929
G1 X124.623 Y96.606 E8.49940
G1 X124.316 Y96.437 E8.51039
G1 X123.721 Y96.198 E8.53049
G1 X123.587 Y96.167 E8.53480
G1 X123.587 Y92.187 E8.65959
G1 X128.161 Y92.198 E8.80301
G1 X128.278 Y92.216 E8.80670
G1 X128.573 Y92.312 E8.81644
G1 X128.828 Y92.459 E8.82569
G1 X129.059 Y92.667 E8.83542
G1 X129.133 Y92.758 E8.83909
G1 X129.288 Y93.027 E8.84882
G1 X129.379 Y93.308 E8.85807
G1 X129.413 Y93.630 E8.86825
G1 X129.402 Y106.762 E9.27998
G1 X129.384 Y106.878 E9.28366
G1 X129.288 Y107.173 E9.29339
G1 X129.133 Y107.442 E9.30312
G1 X129.059 Y107.533 E9.30679
G1 X128.817 Y107.751 E9.31701
G1 X128.588 Y107.883 E9.32530
G1 X128.293 Y107.979 E9.33503
G1 X127.969 Y108.013 E9.34523
G1 X72.031 Y108.013 E11.09914
G1 X71.707 Y107.979 E11.10934
G1 X71.412 Y107.883 E11.11907
G1 X71.308 Y107.830 E11.12274
G1 X71.057 Y107.648 E11.13247
G1 X70.849 Y107.417 E11.14220
G1 X70.785 Y107.319 E11.14587
G1 X70.653 Y107.021 E11.15609
G1 X70.623 Y106.908 E11.15976
G1 X70.587 Y106.570 E11.17043
G1 X70.598 Y93.453 E11.58168
G1 X70.662 Y93.150 E11.59142
G1 X70.710 Y93.026 E11.59557
G1 X70.770 Y92.908 E11.59972
G1 X70.952 Y92.657 E11.60946
G1 X71.183 Y92.449 E11.61918
G1 X71.412 Y92.317 E11.62748
G1 X71.707 Y92.221 E11.63721
G1 X72.031 Y92.187 E11.64741
G1 X76.413 Y92.187 E11.78481
G1 X76.413 Y96.167 E11.90960
G1 X76.279 Y96.198 E11.91391
G1 X75.673 Y96.442 E11.93438
G1 X75.114 Y96.779 E11.95486
G1 X74.625 Y97.194 E11.97497
G1 X74.394 Y97.442 E11.98559
G1 X74.185 Y97.708 E11.99620
G1 X73.851 Y98.255 E12.01631
G1 X73.604 Y98.860 E12.03679
G1 X73.459 Y99.485 E12.05690
G1 X73.421 Y99.833 E12.06788
G1 X73.428 Y100.474 E12.08799
G1 X73.538 Y101.106 E12.10810
G1 X73.638 Y101.442 E12.11908
G1 X73.895 Y102.030 E12.13919
G1 X74.248 Y102.579 E12.15967
G1 X74.684 Y103.065 E12.18015
G1 X75.183 Y103.468 E12.20026
G1 X75.480 Y103.654 E12.21124
G1 X76.060 Y103.927 E12.23135
G1 X76.688 Y104.108 E12.25183
G1 X77.325 Y104.184 E12.27194
G1 X77.675 Y104.184 E12.28292
G1 X78.312 Y104.108 E12.30303
G1 X78.940 Y103.927 E12.32351
G1 X79.520 Y103.654 E12.34362
G1 X79.817 Y103.468 E12.35460
G1 X80.316 Y103.065 E12.37471
G1 X80.752 Y102.579 E12.39519
G1 X81.099 Y102.039 E12.41530
G1 X81.251 Y101.724 E12.42628
G1 X81.460 Y101.118 E12.44639
G1 X81.570 Y100.486 E12.46650
G1 X81.588 Y100.136 E12.47748
G1 X81.544 Y99.496 E12.49759
G1 X81.399 Y98.872 E12.51770
G1 X81.280 Y98.542 E12.52868
G1 X80.990 Y97.970 E12.54879
G1 X80.614 Y97.451 E12.56890
G1 X80.498 Y97.327 E12.57421
G1 X80.375 Y97.194 E12.57988
G1 X79.886 Y96.779 E12.59999
G1 X79.327 Y96.442 E12.62047
G1 X78.721 Y96.198 E12.64095
G1 X78.587 Y96.167 E12.64526
G1 X78.587 Y92.247 E12.76817
M204 S1500
G1 X78.343 Y91.865 F7800.000
M204 S1250
G1 F1200.000
G1 X78.403 Y91.830 E12.77037
G1 X78.518 Y91.810 E12.77402
G1 X121.552 Y91.818 E14.12330
G1 X121.644 Y91.852 E14.12641
G1 X121.720 Y91.917 E14.12953
G1 X121.770 Y92.003 E14.13266
G1 X121.790 Y92.118 E14.13631
G1 X121.790 Y96.468 E14.27271
G1 X121.392 Y96.559 E14.28551
G1 X120.842 Y96.780 E14.30409
G1 X120.335 Y97.087 E14.32268
G1 X119.886 Y97.467 E14.34113
G1 X119.678 Y97.691 E14.35069
G1 X119.333 Y98.167 E14.36914
G1 X119.067 Y98.692 E14.38760
G1 X118.963 Y98.979 E14.39716
G1 X118.830 Y99.552 E14.41561
G1 X118.790 Y100.139 E14.43406
G1 X118.806 Y100.444 E14.44362
G1 X118.906 Y101.024 E14.46208
G1 X119.098 Y101.580 E14.48053
G1 X119.231 Y101.855 E14.49009
G1 X119.549 Y102.350 E14.50854
G1 X119.945 Y102.791 E14.52713
G1 X120.403 Y103.161 E14.54558
G1 X120.661 Y103.323 E14.55514
G1 X121.194 Y103.573 E14.57360
G1 X121.763 Y103.737 E14.59218
G1 X122.348 Y103.807 E14.61063
G1 X122.652 Y103.807 E14.62019
G1 X123.237 Y103.737 E14.63865
G1 X123.806 Y103.573 E14.65723
G1 X124.339 Y103.323 E14.67568
G1 X124.597 Y103.161 E14.68525
G1 X125.055 Y102.791 E14.70370
G1 X125.451 Y102.350 E14.72228
G1 X125.769 Y101.855 E14.74074
G1 X125.902 Y101.580 E14.75030
G1 X126.093 Y101.028 E14.76862
G1 X126.157 Y100.729 E14.77818
G1 X126.210 Y100.143 E14.79663
G1 X126.170 Y99.556 E14.81509
G1 X126.113 Y99.257 E14.82465
G1 X125.935 Y98.696 E14.84310
G1 X125.667 Y98.167 E14.86168
G1 X125.319 Y97.687 E14.88027
G1 X124.899 Y97.269 E14.89885
G1 X124.421 Y96.926 E14.91731
G1 X124.154 Y96.779 E14.92687
G1 X123.608 Y96.559 E14.94532
G1 X123.210 Y96.468 E14.95812
G1 X123.210 Y92.117 E15.09457
G1 X123.231 Y92.001 E15.09826
G1 X123.282 Y91.914 E15.10139
G1 X123.376 Y91.835 E15.10527
G1 X123.518 Y91.810 E15.10978
G1 X128.191 Y91.821 E15.25631
G1 X128.366 Y91.848 E15.26185
G1 X128.727 Y91.966 E15.27376
G1 X129.051 Y92.153 E15.28550
G1 X129.333 Y92.407 E15.29740
G1 X129.445 Y92.544 E15.30294
G1 X129.634 Y92.873 E15.31484
G1 X129.750 Y93.229 E15.32658
G1 X129.790 Y93.611 E15.33862
G1 X129.779 Y106.792 E15.75190
G1 X129.752 Y106.966 E15.75744
G1 X129.634 Y107.327 E15.76934
G1 X129.445 Y107.656 E15.78125
G1 X129.333 Y107.793 E15.78678
G1 X129.047 Y108.051 E15.79886
G1 X128.733 Y108.233 E15.81025
G1 X128.371 Y108.350 E15.82215
G1 X127.989 Y108.390 E15.83421
G1 X72.011 Y108.390 E17.58936
G1 X71.629 Y108.350 E17.60142
G1 X71.267 Y108.233 E17.61332
G1 X71.110 Y108.153 E17.61885
G1 X70.803 Y107.929 E17.63076
G1 X70.549 Y107.647 E17.64266
G1 X70.453 Y107.499 E17.64819
G1 X70.296 Y107.147 E17.66027
G1 X70.251 Y106.977 E17.66580
G1 X70.210 Y106.589 E17.67803
G1 X70.221 Y93.414 E18.09113
G1 X70.300 Y93.042 E18.10304
G1 X70.365 Y92.872 E18.10875
G1 X70.447 Y92.710 E18.11445
G1 X70.671 Y92.403 E18.12636
G1 X70.953 Y92.149 E18.13826
G1 X71.267 Y91.967 E18.14965
G1 X71.629 Y91.850 E18.16156
G1 X72.011 Y91.810 E18.17361
G1 X76.484 Y91.810 E18.31386
G1 X76.624 Y91.835 E18.31831
G1 X76.740 Y91.932 E18.32306
G1 X76.790 Y92.110 E18.32884
G1 X76.790 Y96.468 E18.46550
G1 X76.392 Y96.559 E18.47830
G1 X75.842 Y96.780 E18.49689
G1 X75.335 Y97.087 E18.51547
G1 X74.886 Y97.467 E18.53393
