; generated by Slic3r++ 2.2.47 on 2020-05-11 at 10:48:19 UTC

; 

; external perimeters extrusion width = 0.45mm
; perimeters extrusion width = 0.45mm
; infill extrusion width = 0.45mm
; solid infill extrusion width = 0.45mm
; top infill extrusion width = 0.40mm
; first layer extrusion width = 0.42mm

; object:{"name":"xyzCalibration_cube","id":"xyzCalibration_cube.stl id:0 copy 0","object_center":[100.000000,100.000000,100.000000],"boundingbox_center":[100.000000,10.000000,20.000000],"boundingbox_size":[20.000000,20.000000,0.000000]}

M201 X9000 Y9000 Z500 E10000 ; sets maximum accelerations, mm/sec^2
M203 X500 Y500 Z12 E120 ; sets maximum feedrates, mm/sec
M204 P1500 R1500 T1500 ; sets acceleration (P, T) and retract acceleration (R), mm/sec^2
M205 X10.00 Y10.00 Z0.20 E2.50 ; sets the jerk limits, mm/sec
M205 S0 T0 ; sets the minimum extruding and travel feed rate, mm/sec
M107
M104 S200 ; set temperature
G28 ; home all axes
G1 Z5 F5000 ; lift nozzle
M109 S200 ; set temperature and wait for it to be reached
G21 ; set units to millimeters
G90 ; use absolute coordinates
M82 ; use absolute distances for extrusion
G92 E0
; Filament gcode
G1 Z0.300 F7800.000
G1 E-2.00000 F2400.00000
G1 X85.805 Y85.183 F7800.000
G1 E0.00000 F2400.00000
G1 F1800.000
G1 X86.875 Y84.429 E0.05806
G1 X88.076 Y83.909 E0.11612
G1 X89.358 Y83.645 E0.17417
G1 X110.006 Y83.612 E1.09002
G1 X111.118 Y83.711 E1.13953
G1 X112.202 Y84.004 E1.18932
G1 X113.212 Y84.478 E1.23883
G1 X114.129 Y85.126 E1.28861
G1 X114.918 Y85.924 E1.33840
G1 X115.553 Y86.842 E1.38791
G1 X116.020 Y87.863 E1.43770
G1 X116.300 Y88.944 E1.48721
G1 X116.388 Y89.975 E1.53314
G1 X116.380 Y110.312 E2.43517
G1 X116.262 Y111.259 E2.47751
G1 X116.003 Y112.184 E2.52012
G1 X115.610 Y113.054 E2.56245
G1 X115.089 Y113.861 E2.60506
G1 X114.124 Y114.878 E2.66725
G1 X112.960 Y115.660 E2.72944
G1 X111.654 Y116.170 E2.79163
G1 X110.268 Y116.382 E2.85382
G1 X89.657 Y116.379 E3.76803
G1 X88.716 Y116.257 E3.81009
G1 X87.798 Y115.996 E3.85243
G1 X86.935 Y115.604 E3.89449
G1 X86.139 Y115.089 E3.93654
G1 X85.122 Y114.124 E3.99873
G1 X84.340 Y112.960 E4.06092
G1 X83.830 Y111.654 E4.12311
G1 X83.618 Y110.268 E4.18530
G1 X83.621 Y89.657 E5.09952
G1 X83.743 Y88.716 E5.14157
G1 X84.004 Y87.798 E5.18391
G1 X84.396 Y86.935 E5.22597
G1 X84.911 Y86.139 E5.26802
G1 X85.764 Y85.227 E5.32342
; printing object xyzCalibration_cube.stl id:0 copy 0
G92 E0
G1 E-2.00000 F2400.00000
G1 X90.921 Y90.921 F7800.000
G1 E0.00000 F2400.00000
G1 F1800.000
G1 X109.079 Y90.921 E0.80537
G1 X109.079 Y109.079 E1.61075
G1 X90.921 Y109.079 E2.41612
G1 X90.921 Y90.981 E3.21883
G1 X90.566 Y90.566 F7800.000
G1 F1800.000
G1 X109.434 Y90.566 E4.05575
G1 X109.434 Y109.434 E4.89267
G1 X90.566 Y109.434 E5.72960
G1 X90.566 Y90.626 E6.56385
G1 X90.210 Y90.210 F7800.000
G1 F1800.000
G1 X109.790 Y90.210 E7.43232
G1 X109.790 Y109.790 E8.30079
G1 X90.210 Y109.790 E9.16926
G1 X90.210 Y90.270 E10.03506
G1 X90.596 Y90.314 F7800.000
G92 E0
G1 E-2.00000 F2400.00000
G1 X108.972 Y91.747 F7800.000
G1 E0.00000 F2400.00000
G1 F1200.000
G1 X108.413 Y91.188 E0.03438
G1 X107.910 Y91.188 E0.05626
G1 X108.812 Y92.090 E0.11174
G1 X108.812 Y92.593 E0.13362
G1 X107.407 Y91.188 E0.22004
G1 X106.904 Y91.188 E0.24192
G1 X108.812 Y93.096 E0.35928
G1 X108.812 Y93.598 E0.38116
G1 X106.402 Y91.188 E0.52946
G1 X105.899 Y91.188 E0.55134
G1 X108.812 Y94.101 E0.73058
G1 X108.812 Y94.604 E0.75246
G1 X105.396 Y91.188 E0.96264
G1 X104.893 Y91.188 E0.98452
G1 X108.812 Y95.107 E1.22565
G1 X108.812 Y95.610 E1.24753
G1 X104.390 Y91.188 E1.51959
G1 X103.887 Y91.188 E1.54147
G1 X108.812 Y96.113 E1.84448
G1 X108.812 Y96.616 E1.86636
G1 X103.384 Y91.188 E2.20031
G1 X102.881 Y91.188 E2.22218
G1 X108.812 Y97.119 E2.58707
G1 X108.812 Y97.622 E2.60895
G1 X102.378 Y91.188 E3.00478
G1 X101.875 Y91.188 E3.02666
G1 X108.812 Y98.125 E3.45343
G1 X108.812 Y98.628 E3.47531
G1 X101.372 Y91.188 E3.93303
G1 X100.869 Y91.188 E3.95491
G1 X108.812 Y99.131 E4.44356
G1 X108.812 Y99.634 E4.46544
G1 X100.366 Y91.188 E4.98503
G1 X99.864 Y91.188 E5.00691
G1 X108.812 Y100.136 E5.55745
G1 X108.812 Y100.639 E5.57933
G1 X99.361 Y91.188 E6.16081
G1 X98.858 Y91.188 E6.18268
G1 X108.812 Y101.142 E6.79510
G1 X108.812 Y101.645 E6.81698
G1 X98.355 Y91.188 E7.46034
G1 X97.852 Y91.188 E7.48222
G1 X108.812 Y102.148 E8.15652
G1 X108.812 Y102.651 E8.17840
G1 X97.349 Y91.188 E8.88364
G1 X96.846 Y91.188 E8.90552
G1 X108.812 Y103.154 E9.64171
G1 X108.812 Y103.657 E9.66358
G1 X96.343 Y91.188 E10.43071
G1 X95.840 Y91.188 E10.45259
G1 X108.812 Y104.160 E11.25065
G1 X108.812 Y104.663 E11.27253
G1 X95.337 Y91.188 E12.10154
G1 X94.834 Y91.188 E12.12342
G1 X108.812 Y105.166 E12.98337
G1 X108.812 Y105.669 E13.00524
G1 X94.331 Y91.188 E13.89613
G1 X93.829 Y91.188 E13.91801
G1 X108.812 Y106.171 E14.83984
G1 X108.812 Y106.674 E14.86172
G1 X93.326 Y91.188 E15.81449
G1 X92.823 Y91.188 E15.83637
G1 X108.812 Y107.177 E16.82008
G1 X108.812 Y107.680 E16.84196
G1 X92.320 Y91.188 E17.85662
G1 X91.817 Y91.188 E17.87849
G1 X108.812 Y108.183 E18.92409
G1 X108.812 Y108.686 E18.94597
G1 X91.314 Y91.188 E20.02250
G1 X91.188 Y91.188 E20.02798
G1 X91.188 Y91.565 E20.04438
G1 X108.435 Y108.812 E21.10548
G1 X107.932 Y108.812 E21.12736
G1 X91.188 Y92.068 E22.15751
G1 X91.188 Y92.571 E22.17939
G1 X107.429 Y108.812 E23.17861
G1 X106.926 Y108.812 E23.20048
G1 X91.188 Y93.074 E24.16876
G1 X91.188 Y93.577 E24.19064
G1 X106.423 Y108.812 E25.12797
G1 X105.921 Y108.812 E25.14985
G1 X91.188 Y94.079 E26.05624
G1 X91.188 Y94.582 E26.07812
G1 X105.418 Y108.812 E26.95357
G1 X104.915 Y108.812 E26.97545
G1 X91.188 Y95.085 E27.81995
G1 X91.188 Y95.588 E27.84183
G1 X104.412 Y108.812 E28.65540
G1 X103.909 Y108.812 E28.67728
G1 X91.188 Y96.091 E29.45991
G1 X91.188 Y96.594 E29.48178
G1 X103.406 Y108.812 E30.23347
G1 X102.903 Y108.812 E30.25535
G1 X91.188 Y97.097 E30.97609
G1 X91.188 Y97.600 E30.99797
G1 X102.400 Y108.812 E31.68777
G1 X101.897 Y108.812 E31.70965
G1 X91.188 Y98.103 E32.36851
G1 X91.188 Y98.606 E32.39039
G1 X101.394 Y108.812 E33.01831
G1 X100.891 Y108.812 E33.04019
G1 X91.188 Y99.109 E33.63717
G1 X91.188 Y99.612 E33.65905
G1 X100.388 Y108.812 E34.22509
G1 X99.885 Y108.812 E34.24697
G1 X91.188 Y100.115 E34.78206
G1 X91.188 Y100.617 E34.80394
G1 X99.383 Y108.812 E35.30810
G1 X98.880 Y108.812 E35.32998
G1 X91.188 Y101.120 E35.80319
G1 X91.188 Y101.623 E35.82507
G1 X98.377 Y108.812 E36.26735
G1 X97.874 Y108.812 E36.28922
G1 X91.188 Y102.126 E36.70056
G1 X91.188 Y102.629 E36.72244
G1 X97.371 Y108.812 E37.10283
G1 X96.868 Y108.812 E37.12471
G1 X91.188 Y103.132 E37.47416
G1 X91.188 Y103.635 E37.49604
G1 X96.365 Y108.812 E37.81454
G1 X95.862 Y108.812 E37.83642
G1 X91.188 Y104.138 E38.12399
G1 X91.188 Y104.641 E38.14587
G1 X95.359 Y108.812 E38.40250
G1 X94.856 Y108.812 E38.42438
G1 X91.188 Y105.144 E38.65006
G1 X91.188 Y105.647 E38.67194
G1 X94.353 Y108.812 E38.86669
G1 X93.850 Y108.812 E38.88856
G1 X91.188 Y106.150 E39.05237
G1 X91.188 Y106.653 E39.07425
G1 X93.347 Y108.812 E39.20711
G1 X92.845 Y108.812 E39.22899
G1 X91.188 Y107.155 E39.33091
G1 X91.188 Y107.658 E39.35279
G1 X92.342 Y108.812 E39.42377
G1 X91.839 Y108.812 E39.44565
G1 X91.188 Y108.161 E39.48569
G1 X91.188 Y108.664 E39.50756
G1 X91.496 Y108.972 E39.52651
; stop printing object xyzCalibration_cube.stl id:0 copy 0
G1 Z0.500 F7800.000
; printing object xyzCalibration_cube.stl id:0 copy 0
G1 X91.039 Y108.961
G1 F5400.000
G1 X91.039 Y91.039 E40.13314
G1 X108.961 Y91.039 E40.73976
G1 X108.961 Y108.961 E41.34639
G1 X91.099 Y108.961 E41.95099
G1 X90.632 Y109.368 F7800.000
G1 F5400.000
G1 X90.632 Y90.632 E42.58517
G1 X109.368 Y90.632 E43.21936
G1 X109.368 Y109.368 E43.85355
G1 X90.692 Y109.368 E44.48570
G1 X90.225 Y109.775 F7800.000
G1 F2700.000
G1 X90.225 Y90.225 E45.14745
G1 X109.775 Y90.225 E45.80919
G1 X109.775 Y109.775 E46.47093
G1 X90.285 Y109.775 E47.13065
G1 X90.329 Y109.389 F7800.000
G1 X108.016 Y108.839
G1 F1200.000
G1 X108.656 Y108.199 E47.16133
G1 X108.656 Y107.623 E47.18085
G1 X107.623 Y108.656 E47.23035
G1 X107.048 Y108.656 E47.24987
G1 X108.656 Y107.048 E47.32698
G1 X108.656 Y106.472 E47.34650
G1 X106.472 Y108.656 E47.45122
G1 X105.896 Y108.656 E47.47074
G1 X108.656 Y105.896 E47.60307
G1 X108.656 Y105.321 E47.62259
G1 X105.321 Y108.656 E47.78253
G1 X104.745 Y108.656 E47.80205
G1 X108.656 Y104.745 E47.98959
G1 X108.656 Y104.169 E48.00911
G1 X104.169 Y108.656 E48.22426
G1 X103.593 Y108.656 E48.24379
G1 X108.656 Y103.593 E48.48654
G1 X108.656 Y103.018 E48.50607
G1 X103.018 Y108.656 E48.77643
G1 X102.442 Y108.656 E48.79596
G1 X108.656 Y102.442 E49.09393
G1 X108.656 Y101.866 E49.11345
G1 X101.866 Y108.656 E49.43904
G1 X101.291 Y108.656 E49.45856
G1 X108.656 Y101.291 E49.81175
G1 X108.656 Y100.715 E49.83127
G1 X100.715 Y108.656 E50.21207
G1 X100.139 Y108.656 E50.23159
G1 X108.656 Y100.139 E50.64000
G1 X108.656 Y99.564 E50.65952
G1 X99.564 Y108.656 E51.09554
G1 X98.988 Y108.656 E51.11506
G1 X108.656 Y98.988 E51.57868
G1 X108.656 Y98.412 E51.59821
G1 X98.412 Y108.656 E52.08944
G1 X97.836 Y108.656 E52.10896
G1 X108.656 Y97.836 E52.62780
G1 X108.656 Y97.261 E52.64732
G1 X97.261 Y108.656 E53.19377
G1 X96.685 Y108.656 E53.21329
G1 X108.656 Y96.685 E53.78735
G1 X108.656 Y96.109 E53.80687
G1 X96.109 Y108.656 E54.40854
G1 X95.534 Y108.656 E54.42806
G1 X108.656 Y95.534 E55.05733
G1 X108.656 Y94.958 E55.07685
G1 X94.958 Y108.656 E55.73373
G1 X94.382 Y108.656 E55.75326
G1 X108.656 Y94.382 E56.43775
G1 X108.656 Y93.807 E56.45727
G1 X93.807 Y108.656 E57.16937
G1 X93.231 Y108.656 E57.18889
G1 X108.656 Y93.231 E57.92859
G1 X108.656 Y92.655 E57.94811
G1 X92.655 Y108.656 E58.71543
G1 X92.080 Y108.656 E58.73495
G1 X108.656 Y92.080 E59.52987
G1 X108.656 Y91.504 E59.54939
G1 X91.504 Y108.656 E60.37192
G1 X91.344 Y108.656 E60.37733
G1 X91.344 Y108.239 E60.39145
G1 X108.239 Y91.344 E61.20165
G1 X107.664 Y91.344 E61.22118
G1 X91.344 Y107.664 E62.00377
G1 X91.344 Y107.088 E62.02330
G1 X107.088 Y91.344 E62.77829
G1 X106.512 Y91.344 E62.79781
G1 X91.344 Y106.512 E63.52519
G1 X91.344 Y105.936 E63.54471
G1 X105.936 Y91.344 E64.24449
G1 X105.361 Y91.344 E64.26401
G1 X91.344 Y105.361 E64.93618
G1 X91.344 Y104.785 E64.95570
G1 X104.785 Y91.344 E65.60026
G1 X104.209 Y91.344 E65.61978
G1 X91.344 Y104.209 E66.23673
G1 X91.344 Y103.634 E66.25625
G1 X103.634 Y91.344 E66.84559
G1 X103.058 Y91.344 E66.86512
G1 X91.344 Y103.058 E67.42685
G1 X91.344 Y102.482 E67.44637
G1 X102.482 Y91.344 E67.98050
G1 X101.907 Y91.344 E68.00002
G1 X91.344 Y101.907 E68.50654
G1 X91.344 Y101.331 E68.52606
G1 X101.331 Y91.344 E69.00497
G1 X100.755 Y91.344 E69.02449
G1 X91.344 Y100.755 E69.47579
G1 X91.344 Y100.179 E69.49531
G1 X100.179 Y91.344 E69.91901
G1 X99.604 Y91.344 E69.93853
G1 X91.344 Y99.604 E70.33461
G1 X91.344 Y99.028 E70.35414
G1 X99.028 Y91.344 E70.72261
G1 X98.452 Y91.344 E70.74213
G1 X91.344 Y98.452 E71.08300
G1 X91.344 Y97.877 E71.10253
G1 X97.877 Y91.344 E71.41579
G1 X97.301 Y91.344 E71.43531
G1 X91.344 Y97.301 E71.72096
G1 X91.344 Y96.725 E71.74048
G1 X96.725 Y91.344 E71.99853
G1 X96.150 Y91.344 E72.01805
G1 X91.344 Y96.150 E72.24848
G1 X91.344 Y95.574 E72.26801
G1 X95.574 Y91.344 E72.47083
G1 X94.998 Y91.344 E72.49036
G1 X91.344 Y94.998 E72.66558
G1 X91.344 Y94.423 E72.68510
G1 X94.423 Y91.344 E72.83271
G1 X93.847 Y91.344 E72.85223
G1 X91.344 Y93.847 E72.97224
G1 X91.344 Y93.271 E72.99176
G1 X93.271 Y91.344 E73.08415
G1 X92.695 Y91.344 E73.10367
G1 X91.344 Y92.695 E73.16846
G1 X91.344 Y92.120 E73.18798
G1 X92.120 Y91.344 E73.22516
G1 X91.544 Y91.344 E73.24469
G1 X91.161 Y91.727 E73.26304
; stop printing object xyzCalibration_cube.stl id:0 copy 0
G1 Z0.700 F7800.000
; printing object xyzCalibration_cube.stl id:0 copy 0
G1 X91.039 Y91.039
G1 F5400.000
G1 X108.961 Y91.039 E73.86967
G1 X108.961 Y108.961 E74.47630
G1 X91.039 Y108.961 E75.08292
G1 X91.039 Y91.099 E75.68752
G1 X90.632 Y90.632 F7800.000
G1 F5400.000
G1 X109.368 Y90.632 E76.32171
G1 X109.368 Y109.368 E76.95589
G1 X90.632 Y109.368 E77.59008
G1 X90.632 Y90.692 E78.22223
G1 X90.225 Y90.225 F7800.000
G1 F2700.000
G1 X109.775 Y90.225 E78.88398
G1 X109.775 Y109.775 E79.54572
G1 X90.225 Y109.775 E80.20747
G1 X90.225 Y90.285 E80.86718
G1 X90.611 Y90.329 F7800.000
G1 X108.839 Y91.984
G1 F1200.000
G1 X108.199 Y91.344 E80.89786
G1 X107.623 Y91.344 E80.91738
G1 X108.656 Y92.377 E80.96688
G1 X108.656 Y92.952 E80.98641
G1 X107.048 Y91.344 E81.06352
G1 X106.472 Y91.344 E81.08304
G1 X108.656 Y93.528 E81.18776
G1 X108.656 Y94.104 E81.20728
G1 X105.896 Y91.344 E81.33960
G1 X105.321 Y91.344 E81.35913
G1 X108.656 Y94.679 E81.51906
G1 X108.656 Y95.255 E81.53858
G1 X104.745 Y91.344 E81.72612
G1 X104.169 Y91.344 E81.74565
G1 X108.656 Y95.831 E81.96080
G1 X108.656 Y96.407 E81.98032
G1 X103.593 Y91.344 E82.22308
G1 X103.018 Y91.344 E82.24260
G1 X108.656 Y96.982 E82.51297
G1 X108.656 Y97.558 E82.53249
G1 X102.442 Y91.344 E82.83046
G1 X101.866 Y91.344 E82.84999
G1 X108.656 Y98.134 E83.17557
G1 X108.656 Y98.709 E83.19509
G1 X101.291 Y91.344 E83.54828
G1 X100.715 Y91.344 E83.56780
G1 X108.656 Y99.285 E83.94860
G1 X108.656 Y99.861 E83.96813
G1 X100.139 Y91.344 E84.37653
G1 X99.564 Y91.344 E84.39606
G1 X108.656 Y100.436 E84.83207
G1 X108.656 Y101.012 E84.85159
G1 X98.988 Y91.344 E85.31522
G1 X98.412 Y91.344 E85.33474
G1 X108.656 Y101.588 E85.82597
G1 X108.656 Y102.164 E85.84549
G1 X97.836 Y91.344 E86.36433
G1 X97.261 Y91.344 E86.38386
G1 X108.656 Y102.739 E86.93030
G1 X108.656 Y103.315 E86.94983
G1 X96.685 Y91.344 E87.52388
G1 X96.109 Y91.344 E87.54341
G1 X108.656 Y103.891 E88.14507
G1 X108.656 Y104.466 E88.16459
G1 X95.534 Y91.344 E88.79387
G1 X94.958 Y91.344 E88.81339
G1 X108.656 Y105.042 E89.47027
G1 X108.656 Y105.618 E89.48979
G1 X94.382 Y91.344 E90.17428
G1 X93.807 Y91.344 E90.19380
G1 X108.656 Y106.193 E90.90590
G1 X108.656 Y106.769 E90.92542
G1 X93.231 Y91.344 E91.66513
G1 X92.655 Y91.344 E91.68465
G1 X108.656 Y107.345 E92.45196
G1 X108.656 Y107.920 E92.47148
G1 X92.080 Y91.344 E93.26641
G1 X91.504 Y91.344 E93.28593
G1 X108.656 Y108.496 E94.10846
G1 X108.656 Y108.656 E94.11386
G1 X108.239 Y108.656 E94.12798
G1 X91.344 Y91.761 E94.93819
G1 X91.344 Y92.336 E94.95771
G1 X107.664 Y108.656 E95.74031
G1 X107.088 Y108.656 E95.75983
G1 X91.344 Y92.912 E96.51482
G1 X91.344 Y93.488 E96.53434
G1 X106.512 Y108.656 E97.26173
G1 X105.936 Y108.656 E97.28125
G1 X91.344 Y94.064 E97.98102
G1 X91.344 Y94.639 E98.00054
G1 X105.361 Y108.656 E98.67271
G1 X104.785 Y108.656 E98.69223
G1 X91.344 Y95.215 E99.33679
G1 X91.344 Y95.791 E99.35631
G1 X104.209 Y108.656 E99.97326
G1 X103.634 Y108.656 E99.99279
G1 X91.344 Y96.366 E100.58213
G1 X91.344 Y96.942 E100.60165
G1 X103.058 Y108.656 E101.16338
G1 X102.482 Y108.656 E101.18291
G1 X91.344 Y97.518 E101.71703
G1 X91.344 Y98.093 E101.73655
G1 X101.907 Y108.656 E102.24307
G1 X101.331 Y108.656 E102.26259
G1 X91.344 Y98.669 E102.74150
G1 X91.344 Y99.245 E102.76102
G1 X100.755 Y108.656 E103.21233
G1 X100.179 Y108.656 E103.23185
G1 X91.344 Y99.821 E103.65554
G1 X91.344 Y100.396 E103.67506
G1 X99.604 Y108.656 E104.07115
G1 X99.028 Y108.656 E104.09067
G1 X91.344 Y100.972 E104.45915
G1 X91.344 Y101.548 E104.47867
G1 X98.452 Y108.656 E104.81954
G1 X97.877 Y108.656 E104.83906
G1 X91.344 Y102.123 E105.15232
G1 X91.344 Y102.699 E105.17184
G1 X97.301 Y108.656 E105.45749
G1 X96.725 Y108.656 E105.47702
G1 X91.344 Y103.275 E105.73506
G1 X91.344 Y103.850 E105.75458
G1 X96.150 Y108.656 E105.98502
G1 X95.574 Y108.656 E106.00454
G1 X91.344 Y104.426 E106.20737
G1 X91.344 Y105.002 E106.22689
G1 X94.998 Y108.656 E106.40211
G1 X94.423 Y108.656 E106.42163
G1 X91.344 Y105.577 E106.56924
G1 X91.344 Y106.153 E106.58877
G1 X93.847 Y108.656 E106.70877
G1 X93.271 Y108.656 E106.72829
G1 X91.344 Y106.729 E106.82069
G1 X91.344 Y107.305 E106.84021
G1 X92.695 Y108.656 E106.90500
G1 X92.120 Y108.656 E106.92452
G1 X91.344 Y107.880 E106.96170
G1 X91.344 Y108.456 E106.98122
G1 X91.727 Y108.839 E106.99957
; stop printing object xyzCalibration_cube.stl id:0 copy 0
M106 S247.35
G1 Z0.900 F7800.000
; printing object xyzCalibration_cube.stl id:0 copy 0
G1 X91.039 Y108.961
G1 F5400.000
G1 X91.039 Y91.039 E107.60620
